projects/GameEngine/res/luts/boomeranger.CUBE
#Created by: Adobe Photoshop Export Color Lookup Plugin
TITLE "Boomeranger"
#LUT size
LUT_3D_SIZE 8
#data domain
#LUT data points
DOMAIN_MIN 0.000000 0.000000 0.000000
DOMAIN_MAX 0.903226 0.903226 0.903226
0.000000 0.000000 0.000000
0.202362 0.022461 0.003815
0.361877 0.045654 0.007263
0.498352 0.067505 0.010437
0.622498 0.088501 0.013336
0.744354 0.110077 0.016296
0.853668 0.130127 0.019043
0.938507 0.146118 0.021179
0.006958 0.142426 0.030548
0.172455 0.142426 0.003815
0.361877 0.195160 0.007263
0.498352 0.219604 0.010437
0.622498 0.242889 0.013336
0.744354 0.266327 0.016296
0.853668 0.287994 0.019043
0.938507 0.305054 0.021179
0.012360 0.289429 0.058594
0.149017 0.289429 0.007263
0.308472 0.289429 0.007263
0.498352 0.367340 0.010437
0.622498 0.391510 0.013336
0.744354 0.416107 0.016296
0.853668 0.438507 0.019043
0.938507 0.456207 0.021179
0.017090 0.427643 0.083923
0.127472 0.427643 0.010437
0.288818 0.427643 0.010437
0.424774 0.427643 0.010437
0.622498 0.529572 0.013336
0.744354 0.554688 0.016296
0.853668 0.577820 0.019043
0.938507 0.596008 0.021179
0.021271 0.560913 0.107635
0.107025 0.560913 0.013336
0.270142 0.560913 0.013336
0.407013 0.560913 0.013336
0.530579 0.560913 0.013336
0.744354 0.687561 0.016296
0.853668 0.711029 0.019043
0.938507 0.729553 0.021179
0.025452 0.697571 0.131561
0.085999 0.697571 0.016296
0.251465 0.697571 0.016296
0.389038 0.697571 0.016296
0.513214 0.697571 0.016296
0.634430 0.697571 0.016296
0.834595 0.824463 0.019043
0.938507 0.865845 0.021179
0.029205 0.824463 0.153442
0.066345 0.824463 0.019043
0.234100 0.824463 0.019043
0.372681 0.824463 0.019043
0.497253 0.824463 0.019043
0.618866 0.824463 0.019043
0.727600 0.824463 0.019043
0.883301 0.925507 0.021179
0.032104 0.925507 0.170685
0.050232 0.925507 0.021179
0.220398 0.925507 0.021179
0.359741 0.925507 0.021179
0.484711 0.925507 0.021179
0.606628 0.925507 0.021179
0.715576 0.925507 0.021179
0.799927 0.925507 0.021179
0.044525 0.002350 0.166718
0.202362 0.002350 0.139374
0.361877 0.004700 0.118286
0.498352 0.006989 0.099304
0.622498 0.009125 0.081635
0.744354 0.011353 0.063904
0.853668 0.013458 0.047760
0.938507 0.015106 0.034973
0.006958 0.117218 0.166718
0.206726 0.146210 0.170776
0.366150 0.172729 0.174103
0.502441 0.196716 0.176941
0.626495 0.219604 0.179718
0.748230 0.242828 0.182648
0.857391 0.264221 0.185364
0.942230 0.281189 0.187500
0.012360 0.289429 0.222717
0.209656 0.293732 0.198608
0.340881 0.293732 0.173492
0.502472 0.343689 0.176819
0.626495 0.367767 0.179718
0.748230 0.391907 0.182648
0.857391 0.414276 0.185364
0.942230 0.431885 0.187500
0.017090 0.427643 0.248230
0.212891 0.431976 0.223999
0.320770 0.431976 0.176483
0.456055 0.431976 0.176483
0.626526 0.505280 0.179382
0.748230 0.530121 0.182617
0.857391 0.552948 0.185364
0.942230 0.571014 0.187500
0.021271 0.560913 0.272308
0.216003 0.565338 0.248016
0.302155 0.565338 0.179382
0.438141 0.565338 0.179382
0.561096 0.565338 0.179382
0.748230 0.662689 0.182404
0.857422 0.685974 0.185242
0.942230 0.704285 0.187469
0.025452 0.697571 0.296387
0.219269 0.702026 0.272095
0.283356 0.702026 0.182404
0.420105 0.702026 0.182404
0.543640 0.702026 0.182404
0.664368 0.702026 0.182404
0.857422 0.821472 0.185181
0.942230 0.840271 0.187317
0.029205 0.824463 0.318481
0.222198 0.828918 0.294128
0.266144 0.828918 0.185181
0.403595 0.828918 0.185181
0.527679 0.828918 0.185181
0.648651 0.828918 0.185181
0.757050 0.828918 0.185181
0.912140 0.929962 0.187317
0.032104 0.925507 0.335754
0.224518 0.929962 0.311462
0.252533 0.929962 0.187317
0.390656 0.929962 0.187317
0.515076 0.929962 0.187317
0.636444 0.929962 0.187317
0.744965 0.929962 0.187317
0.829041 0.929962 0.187317
0.079620 0.004700 0.319946
0.261963 0.004700 0.319946
0.361877 0.004700 0.267487
0.498352 0.006989 0.248444
0.622498 0.009125 0.230499
0.744354 0.011353 0.212708
0.853668 0.013458 0.196320
0.938507 0.015106 0.183472
0.012360 0.098053 0.319946
0.236542 0.148712 0.324310
0.366241 0.148895 0.299194
0.502472 0.151855 0.279602
0.626495 0.154510 0.261536
0.748230 0.157288 0.243347
0.857391 0.159821 0.226837
0.942230 0.161835 0.213867
0.012360 0.238190 0.319946
0.209656 0.269073 0.324310
0.369720 0.297089 0.327728
0.505981 0.322449 0.330841
0.630066 0.346161 0.333557
0.751709 0.370087 0.336212
0.860840 0.392090 0.338715
0.945557 0.409546 0.340729
0.017090 0.427643 0.398285
0.212891 0.431976 0.374634
0.372040 0.435944 0.352722
0.484253 0.435944 0.330017
0.630127 0.483215 0.333160
0.751709 0.507935 0.336212
0.860840 0.530609 0.338715
0.945557 0.548431 0.340729
0.021271 0.560913 0.422333
0.216003 0.565338 0.398621
0.374603 0.569397 0.376434
0.465912 0.569397 0.332550
0.588684 0.569397 0.332550
0.751801 0.640106 0.335327
0.860870 0.663147 0.338531
0.945557 0.681396 0.340729
0.025452 0.697571 0.446686
0.219269 0.702026 0.422668
0.377380 0.706116 0.400421
0.447693 0.706116 0.335327
0.570892 0.706116 0.335327
0.691345 0.706116 0.335327
0.860870 0.798615 0.337952
0.945587 0.817169 0.340118
0.029205 0.824463 0.468719
0.222198 0.828918 0.444763
0.380005 0.833008 0.422394
0.431183 0.833008 0.337952
0.554718 0.833008 0.337952
0.675537 0.833008 0.337952
0.783600 0.833008 0.337952
0.938202 0.934021 0.340057
0.032104 0.925507 0.486084
0.224518 0.929962 0.462158
0.382111 0.934021 0.439758
0.418121 0.934021 0.340057
0.542053 0.934021 0.340057
0.663239 0.934021 0.340057
0.771484 0.934021 0.340057
0.855316 0.934021 0.340057
0.109711 0.006989 0.458008
0.288574 0.006989 0.458008
0.439972 0.006989 0.458008
0.498352 0.006989 0.382904
0.622498 0.009125 0.364990
0.744354 0.011353 0.346985
0.853668 0.013458 0.330658
0.938507 0.015106 0.317810
0.017090 0.081055 0.458008
0.263336 0.151520 0.462311
0.416595 0.151520 0.462311
0.502472 0.151642 0.414642
0.626495 0.154449 0.396454
0.748230 0.157257 0.378235
0.857391 0.159821 0.361664
0.942230 0.161804 0.348663
0.017090 0.219818 0.458008
0.212891 0.249847 0.462311
0.394775 0.299377 0.466187
0.506226 0.299591 0.443481
0.630096 0.302643 0.425079
0.751709 0.305420 0.406708
0.860840 0.307953 0.389923
0.945557 0.309937 0.376709
0.017090 0.351929 0.458008
0.212891 0.383759 0.462311
0.372040 0.412903 0.466187
0.509125 0.438934 0.469116
0.633057 0.463531 0.472137
0.754761 0.488159 0.474945
0.863922 0.510620 0.477386
0.948608 0.528412 0.479340
0.021271 0.560913 0.557495
0.216003 0.565338 0.533936
0.374603 0.569397 0.512390
0.511261 0.572906 0.492615
0.613281 0.572906 0.471313
0.754822 0.619843 0.474548
0.863922 0.642853 0.477386
0.948608 0.661102 0.479340
0.025452 0.697571 0.581726
0.219269 0.702026 0.557983
0.377380 0.706116 0.536255
0.513580 0.709717 0.516388
0.595215 0.709717 0.473755
0.715515 0.709717 0.473755
0.864014 0.777954 0.476166
0.948608 0.796387 0.478760
0.029205 0.824463 0.604004
0.222198 0.828918 0.580017
0.380005 0.833008 0.558197
0.515930 0.836700 0.538177
0.578857 0.836700 0.476166
0.699493 0.836700 0.476166
0.807404 0.836700 0.476166
0.948639 0.921967 0.478149
0.032104 0.925507 0.621460
0.224518 0.929962 0.597443
0.382111 0.934021 0.575470
0.517853 0.937714 0.555481
0.566223 0.937714 0.478149
0.687012 0.937714 0.478149
0.795105 0.937714 0.478149
0.878815 0.937714 0.478149
0.136993 0.009125 0.587738
0.313446 0.009125 0.587738
0.463593 0.009125 0.587738
0.593842 0.009125 0.587738
0.622498 0.009125 0.491333
0.744354 0.011353 0.473358
0.853668 0.013458 0.456879
0.938507 0.015106 0.443970
0.021271 0.065491 0.587738
0.288361 0.154236 0.592010
0.440308 0.154236 0.592010
0.571411 0.154236 0.592010
0.626526 0.154327 0.523163
0.748230 0.157196 0.504974
0.857422 0.159790 0.488373
0.942230 0.161804 0.475311
0.021271 0.202606 0.587738
0.216003 0.232269 0.592010
0.418365 0.301880 0.595917
0.550812 0.301880 0.595917
0.630188 0.302124 0.552063
0.751740 0.305176 0.533569
0.860870 0.307831 0.516754
0.945557 0.309845 0.503571
0.021271 0.334045 0.587738
0.216003 0.365448 0.592010
0.374603 0.393921 0.595917
0.531799 0.441162 0.599274
0.633331 0.441376 0.577972
0.754822 0.444580 0.559418
0.863922 0.447205 0.542572
0.948608 0.449280 0.529419
0.021271 0.461578 0.587738
0.216003 0.494202 0.592010
0.374603 0.523987 0.595917
0.511261 0.550812 0.599274
0.635956 0.575745 0.602020
0.757538 0.601044 0.605103
0.866699 0.624115 0.607758
0.951385 0.642151 0.609711
0.025452 0.697571 0.708679
0.219269 0.702026 0.685089
0.377380 0.706116 0.663605
0.513580 0.709717 0.644135
0.638153 0.713043 0.625732
0.738098 0.713043 0.604340
0.866821 0.758667 0.607147
0.951385 0.777252 0.609711
0.029205 0.824463 0.730896
0.222198 0.828918 0.707184
0.380005 0.833008 0.685425
0.515930 0.836700 0.665833
0.640198 0.840088 0.647430
0.721954 0.840088 0.606506
0.829712 0.840088 0.606506
0.951447 0.902344 0.608368
0.032104 0.925507 0.748383
0.224518 0.929962 0.724518
0.382111 0.934021 0.702698
0.517853 0.937714 0.683105
0.641937 0.941101 0.664520
0.709351 0.941101 0.608368
0.817291 0.941101 0.608368
0.900879 0.941101 0.608368
0.163818 0.011353 0.718170
0.338043 0.011353 0.718170
0.487335 0.011353 0.718170
0.616821 0.011353 0.718170
0.735565 0.011353 0.718170
0.744354 0.011353 0.600372
0.853668 0.013458 0.583923
0.938507 0.015106 0.570984
0.025452 0.050140 0.718170
0.313202 0.157074 0.722382
0.463928 0.157074 0.722382
0.594299 0.157074 0.722382
0.713684 0.157074 0.722382
0.748230 0.157135 0.632233
0.857422 0.159729 0.615509
0.942230 0.161774 0.602539
0.025452 0.185638 0.718170
0.219269 0.214752 0.722382
0.442078 0.304626 0.726257
0.573639 0.304626 0.726257
0.693665 0.304626 0.726257
0.751770 0.304840 0.661102
0.860870 0.307648 0.644226
0.945557 0.309753 0.631165
0.025452 0.316162 0.718170
0.219269 0.347198 0.722382
0.377380 0.375214 0.726257
0.554626 0.443634 0.729675
0.675507 0.443634 0.729675
0.754913 0.443939 0.687042
0.863953 0.446869 0.670105
0.948608 0.449036 0.656860
0.025452 0.443207 0.718170
0.219269 0.475494 0.722382
0.377380 0.504700 0.726257
0.513580 0.531067 0.729675
0.658264 0.578156 0.732788
0.757782 0.578400 0.711395
0.866760 0.581390 0.694489
0.951416 0.583588 0.681244
0.025452 0.574066 0.718170
0.219269 0.607269 0.722382
0.377380 0.637482 0.726257
0.513580 0.664764 0.729675
0.638153 0.690430 0.732788
0.760437 0.716003 0.735596
0.869537 0.739532 0.738434
0.954193 0.758057 0.740570
0.029205 0.802063 0.837433
0.222198 0.828918 0.834656
0.380005 0.833008 0.813263
0.515930 0.836700 0.793915
0.640198 0.840088 0.775696
0.762512 0.843414 0.757385
0.851959 0.843414 0.737854
0.954254 0.882690 0.739899
0.032104 0.925507 0.875977
0.224518 0.929962 0.852173
0.382111 0.934021 0.830597
0.517853 0.937714 0.811066
0.641937 0.941101 0.792755
0.764130 0.944489 0.774445
0.839508 0.944489 0.739624
0.922943 0.944489 0.739624
0.187897 0.013458 0.837433
0.360413 0.013458 0.837433
0.508728 0.013458 0.837433
0.637848 0.013458 0.837433
0.756073 0.013458 0.837433
0.853668 0.013458 0.816498
0.853668 0.013458 0.700104
0.938507 0.015106 0.687103
0.029205 0.036530 0.837433
0.335754 0.159668 0.841583
0.485474 0.159668 0.841583
0.615204 0.159668 0.841583
0.734161 0.159668 0.841583
0.851105 0.159668 0.841583
0.857422 0.159698 0.731934
0.942230 0.161743 0.718842
0.029205 0.170166 0.837433
0.222198 0.198944 0.841583
0.463654 0.307220 0.845367
0.594513 0.307220 0.845367
0.713989 0.307220 0.845367
0.831635 0.307220 0.845367
0.860870 0.307434 0.760803
0.945587 0.309601 0.747650
0.029205 0.300018 0.837433
0.222198 0.330627 0.841583
0.380005 0.358398 0.845367
0.575470 0.446106 0.848816
0.695770 0.446106 0.848816
0.813965 0.446106 0.848816
0.863983 0.446411 0.786774
0.948608 0.448730 0.773468
0.029205 0.426483 0.837433
0.222198 0.458527 0.841583
0.380005 0.487335 0.845367
0.515930 0.513336 0.848816
0.678589 0.580444 0.851990
0.797302 0.580444 0.851990
0.866852 0.580750 0.811127
0.951416 0.583130 0.797821
0.029205 0.556946 0.837433
0.222198 0.589783 0.841583
0.380005 0.619720 0.845367
0.515930 0.646667 0.848816
0.640198 0.672058 0.851990
0.780487 0.718414 0.855103
0.869659 0.718567 0.835602
0.954224 0.721008 0.822266
0.029205 0.678497 0.837433
0.222198 0.712128 0.841583
0.380005 0.742737 0.845367
0.515930 0.770325 0.848816
0.640198 0.796326 0.851990
0.762512 0.822510 0.855103
0.872101 0.846252 0.857758
0.956757 0.865082 0.859985
0.032104 0.859558 0.931305
0.224518 0.893921 0.935455
0.382111 0.925140 0.939209
0.517853 0.937714 0.928040
0.641937 0.941101 0.909882
0.764130 0.944489 0.891571
0.873840 0.947571 0.875031
0.943054 0.947571 0.859680
0.206635 0.015106 0.931305
0.377808 0.015106 0.931305
0.525513 0.015106 0.931305
0.654236 0.015106 0.931305
0.772217 0.015106 0.931305
0.888611 0.015106 0.931305
0.938507 0.015106 0.870117
0.938507 0.015106 0.778564
0.032104 0.026062 0.931305
0.353333 0.161682 0.935455
0.502350 0.161682 0.935455
0.631653 0.161682 0.935455
0.750214 0.161682 0.935455
0.867035 0.161682 0.935455
0.942230 0.161713 0.902069
0.942230 0.161743 0.810394
0.032104 0.158081 0.931305
0.224518 0.186646 0.935455
0.480621 0.309296 0.939209
0.610870 0.309296 0.939209
0.730011 0.309296 0.939209
0.847443 0.309296 0.939209
0.945587 0.309326 0.930969
0.945587 0.309479 0.839294
0.032104 0.287354 0.931305
0.224518 0.317749 0.935455
0.382111 0.345215 0.939209
0.591919 0.448120 0.942596
0.711823 0.448120 0.942596
0.829651 0.448120 0.942596
0.935577 0.448120 0.942596
0.948608 0.448425 0.865204
0.032104 0.413391 0.931305
0.224518 0.445190 0.935455
0.382111 0.473785 0.939209
0.517853 0.499695 0.942596
0.694519 0.582336 0.945740
0.812897 0.582336 0.945740
0.919220 0.582336 0.945740
0.951447 0.582703 0.889587
0.032104 0.543518 0.931305
0.224518 0.576294 0.935455
0.382111 0.606018 0.939209
0.517853 0.632599 0.942596
0.641937 0.657776 0.945740
0.796143 0.720276 0.948853
0.902710 0.720276 0.948853
0.954254 0.720490 0.914001
0.032104 0.664825 0.931305
0.224518 0.698273 0.935455
0.382111 0.728729 0.939209
0.517853 0.756042 0.942596
0.641937 0.781830 0.945740
0.764130 0.807861 0.948853
0.887726 0.848358 0.951721
0.956818 0.848419 0.936371
0.032104 0.761627 0.931305
0.224518 0.795563 0.935455
0.382111 0.826477 0.939209
0.517853 0.854218 0.942596
0.641937 0.880463 0.945740
0.764130 0.906799 0.948853
0.873840 0.930969 0.951721
0.958771 0.949951 0.953888
