projects/GameEngine/res/luts/boomeranger.CUBE
#Created by: Adobe Photoshop Export Color Lookup Plugin
TITLE "Boomeranger"
#LUT size
LUT_3D_SIZE 32
#data domain
DOMAIN_MIN 0.0 0.0 0.0
DOMAIN_MAX 1.0 1.0 1.0
#LUT data points
0.000000 0.000000 0.000000
0.059845 0.005096 0.000977
0.110626 0.010773 0.001953
0.157806 0.016602 0.002899
0.202362 0.022461 0.003815
0.244781 0.028351 0.004730
0.285431 0.034149 0.005554
0.324402 0.039917 0.006409
0.361877 0.045654 0.007263
0.397949 0.051270 0.008087
0.432648 0.056763 0.008881
0.466125 0.062164 0.009705
0.498352 0.067505 0.010437
0.529419 0.072632 0.011078
0.560303 0.077789 0.011841
0.591339 0.083099 0.012634
0.622498 0.088501 0.013336
0.653503 0.093903 0.014099
0.684296 0.099365 0.014862
0.714630 0.104736 0.015564
0.744354 0.110077 0.016296
0.773346 0.115356 0.017029
0.801300 0.120453 0.017731
0.828156 0.125427 0.018433
0.853668 0.130127 0.019043
0.877625 0.134613 0.019623
0.899872 0.138794 0.020203
0.920258 0.142670 0.020691
0.938507 0.146118 0.021179
0.954468 0.149139 0.021576
0.967987 0.151733 0.021912
0.978851 0.153809 0.022186
0.002075 0.032227 0.007782
0.050934 0.032227 0.000977
0.110626 0.044617 0.001953
0.157806 0.051178 0.002899
0.202362 0.057587 0.003815
0.244781 0.063965 0.004730
0.285431 0.070221 0.005554
0.324402 0.076355 0.006409
0.361877 0.082397 0.007263
0.397949 0.088318 0.008087
0.432648 0.094086 0.008881
0.466125 0.099762 0.009705
0.498352 0.105286 0.010437
0.529419 0.110596 0.011078
0.560303 0.115997 0.011841
0.591339 0.121490 0.012634
0.622498 0.127014 0.013336
0.653503 0.132599 0.014099
0.684296 0.138245 0.014862
0.714630 0.143799 0.015564
0.744354 0.149353 0.016296
0.773346 0.154663 0.017029
0.801300 0.159973 0.017731
0.828156 0.165039 0.018433
0.853668 0.169769 0.019043
0.877625 0.174438 0.019623
0.899872 0.178680 0.020203
0.920258 0.182587 0.020691
0.938507 0.186188 0.021179
0.954468 0.189209 0.021576
0.967987 0.191803 0.021912
0.978851 0.194000 0.022186
0.003845 0.068176 0.015533
0.043457 0.068176 0.001953
0.094330 0.068176 0.001953
0.157806 0.087341 0.002899
0.202362 0.094086 0.003815
0.244781 0.100800 0.004730
0.285431 0.107269 0.005554
0.324402 0.113617 0.006409
0.361877 0.119934 0.007263
0.397949 0.126038 0.008087
0.432648 0.131958 0.008881
0.466125 0.137787 0.009705
0.498352 0.143463 0.010437
0.529419 0.149017 0.011078
0.560303 0.154480 0.011841
0.591339 0.160156 0.012634
0.622498 0.165771 0.013336
0.653503 0.171570 0.014099
0.684296 0.177246 0.014862
0.714630 0.183014 0.015564
0.744354 0.188568 0.016296
0.773346 0.194031 0.017029
0.801300 0.199432 0.017731
0.828156 0.204681 0.018433
0.853668 0.209534 0.019043
0.877625 0.214142 0.019623
0.899872 0.218567 0.020203
0.920258 0.222534 0.020691
0.938507 0.226227 0.021179
0.954468 0.229401 0.021576
0.967987 0.232025 0.021912
0.978851 0.234100 0.022186
0.005432 0.105164 0.023102
0.036011 0.105164 0.002899
0.087524 0.105164 0.002899
0.134491 0.105164 0.002899
0.202362 0.131073 0.003815
0.244781 0.137909 0.004730
0.285431 0.144592 0.005554
0.324402 0.151184 0.006409
0.361877 0.157501 0.007263
0.397949 0.163788 0.008087
0.432648 0.169861 0.008881
0.466125 0.175842 0.009705
0.498352 0.181671 0.010437
0.529419 0.187286 0.011078
0.560303 0.192993 0.011841
0.591339 0.198639 0.012634
0.622498 0.204498 0.013336
0.653503 0.210297 0.014099
0.684296 0.216156 0.014862
0.714630 0.221924 0.015564
0.744354 0.227570 0.016296
0.773346 0.233246 0.017029
0.801300 0.238770 0.017731
0.828156 0.243835 0.018433
0.853668 0.248932 0.019043
0.877625 0.253693 0.019623
0.899872 0.258057 0.020203
0.920258 0.262238 0.020691
0.938507 0.265808 0.021179
0.954468 0.269104 0.021576
0.967987 0.271729 0.021912
0.978851 0.273895 0.022186
0.006958 0.142426 0.030548
0.028534 0.142426 0.003815
0.080811 0.142426 0.003815
0.128143 0.142426 0.003815
0.172455 0.142426 0.003815
0.244781 0.175079 0.004730
0.285431 0.181885 0.005554
0.324402 0.188599 0.006409
0.361877 0.195160 0.007263
0.397949 0.201538 0.008087
0.432648 0.207672 0.008881
0.466125 0.213715 0.009705
0.498352 0.219604 0.010437
0.529419 0.225433 0.011078
0.560303 0.231171 0.011841
0.591339 0.237000 0.012634
0.622498 0.242889 0.013336
0.653503 0.248779 0.014099
0.684296 0.254639 0.014862
0.714630 0.260620 0.015564
0.744354 0.266327 0.016296
0.773346 0.272064 0.017029
0.801300 0.277527 0.017731
0.828156 0.282837 0.018433
0.853668 0.287994 0.019043
0.877625 0.292816 0.019623
0.899872 0.297302 0.020203
0.920258 0.301239 0.020691
0.938507 0.305054 0.021179
0.954468 0.308258 0.021576
0.967987 0.311066 0.021912
0.978851 0.313293 0.022186
0.008423 0.179657 0.037811
0.021057 0.179657 0.004730
0.074097 0.179657 0.004730
0.121826 0.179657 0.004730
0.166443 0.179657 0.004730
0.208618 0.179657 0.004730
0.282959 0.216675 0.005554
0.324402 0.225739 0.006409
0.361877 0.232391 0.007263
0.397949 0.238800 0.008087
0.432648 0.245178 0.008881
0.466125 0.251343 0.009705
0.498352 0.257355 0.010437
0.529419 0.263153 0.011078
0.560303 0.268951 0.011841
0.591339 0.274872 0.012634
0.622498 0.280884 0.013336
0.653503 0.286774 0.014099
0.684296 0.292847 0.014862
0.714630 0.298737 0.015564
0.744354 0.304626 0.016296
0.773346 0.310303 0.017029
0.801300 0.315918 0.017731
0.828156 0.321381 0.018433
0.853668 0.326538 0.019043
0.877625 0.331360 0.019623
0.899872 0.335938 0.020203
0.920258 0.340057 0.020691
0.938507 0.343872 0.021179
0.954468 0.346954 0.021576
0.967987 0.349731 0.021912
0.978851 0.352203 0.022186
0.009766 0.216675 0.044891
0.013336 0.216675 0.005554
0.067596 0.216675 0.005554
0.115692 0.216675 0.005554
0.160431 0.216675 0.005554
0.202850 0.216675 0.005554
0.243286 0.216675 0.005554
0.314697 0.253296 0.006409
0.361877 0.269257 0.007263
0.397949 0.275909 0.008087
0.432648 0.282227 0.008881
0.466125 0.288544 0.009705
0.498352 0.294617 0.010437
0.529419 0.300415 0.011078
0.560303 0.306244 0.011841
0.591339 0.312317 0.012634
0.622498 0.318359 0.013336
0.653503 0.324371 0.014099
0.684296 0.330444 0.014862
0.714630 0.336456 0.015564
0.744354 0.342468 0.016296
0.773346 0.348236 0.017029
0.801300 0.353760 0.017731
0.828156 0.359344 0.018433
0.853668 0.364441 0.019043
0.877625 0.369293 0.019623
0.899872 0.373932 0.020203
0.920258 0.378174 0.020691
0.938507 0.381958 0.021179
0.954468 0.385315 0.021576
0.967987 0.388031 0.021912
0.978851 0.390320 0.022186
0.011078 0.253296 0.051788
0.011078 0.253296 0.010132
0.061066 0.253296 0.006409
0.109680 0.253296 0.006409
0.154633 0.253296 0.006409
0.197174 0.253296 0.006409
0.237701 0.253296 0.006409
0.276520 0.253296 0.006409
0.345215 0.289429 0.007263
0.397949 0.312347 0.008087
0.432648 0.318756 0.008881
0.466125 0.325043 0.009705
0.498352 0.331177 0.010437
0.529419 0.337128 0.011078
0.560303 0.343079 0.011841
0.591339 0.349243 0.012634
0.622498 0.355286 0.013336
0.653503 0.361450 0.014099
0.684296 0.367554 0.014862
0.714630 0.373596 0.015564
0.744354 0.379456 0.016296
0.773346 0.385437 0.017029
0.801300 0.391022 0.017731
0.828156 0.396515 0.018433
0.853668 0.401733 0.019043
0.877625 0.406738 0.019623
0.899872 0.411407 0.020203
0.920258 0.415741 0.020691
0.938507 0.419495 0.021179
0.954468 0.422699 0.021576
0.967987 0.425537 0.021912
0.978851 0.427856 0.022186
0.012360 0.289429 0.058594
0.012360 0.289429 0.016632
0.054871 0.289429 0.007263
0.103668 0.289429 0.007263
0.149017 0.289429 0.007263
0.191650 0.289429 0.007263
0.232300 0.289429 0.007263
0.271179 0.289429 0.007263
0.308472 0.289429 0.007263
0.374634 0.324982 0.008087
0.432648 0.354736 0.008881
0.466125 0.361145 0.009705
0.498352 0.367340 0.010437
0.529419 0.373291 0.011078
0.560303 0.379242 0.011841
0.591339 0.385406 0.012634
0.622498 0.391510 0.013336
0.653503 0.397797 0.014099
0.684296 0.403961 0.014862
0.714630 0.410095 0.015564
0.744354 0.416107 0.016296
0.773346 0.421906 0.017029
0.801300 0.427704 0.017731
0.828156 0.433197 0.018433
0.853668 0.438507 0.019043
0.877625 0.443451 0.019623
0.899872 0.448090 0.020203
0.920258 0.452515 0.020691
0.938507 0.456207 0.021179
0.954468 0.459656 0.021576
0.967987 0.462402 0.021912
0.978851 0.464691 0.022186
0.013611 0.324982 0.065186
0.013611 0.324982 0.023193
0.048553 0.324982 0.008087
0.097900 0.324982 0.008087
0.143433 0.324982 0.008087
0.186218 0.324982 0.008087
0.227081 0.324982 0.008087
0.266022 0.324982 0.008087
0.303314 0.324982 0.008087
0.339172 0.324982 0.008087
0.402893 0.359894 0.008881
0.463837 0.394135 0.009705
0.498352 0.402710 0.010437
0.529419 0.408813 0.011078
0.560303 0.414856 0.011841
0.591339 0.420990 0.012634
0.622498 0.427216 0.013336
0.653503 0.433411 0.014099
0.684296 0.439575 0.014862
0.714630 0.445831 0.015564
0.744354 0.451843 0.016296
0.773346 0.457764 0.017029
0.801300 0.463531 0.017731
0.828156 0.469208 0.018433
0.853668 0.474548 0.019043
0.877625 0.479584 0.019623
0.899872 0.484192 0.020203
0.920258 0.488434 0.020691
0.938507 0.492249 0.021179
0.954468 0.495697 0.021576
0.967987 0.498596 0.021912
0.978851 0.500854 0.022186
0.014801 0.359894 0.071564
0.014801 0.359894 0.029480
0.042480 0.359894 0.008881
0.092224 0.359894 0.008881
0.137939 0.359894 0.008881
0.181000 0.359894 0.008881
0.221832 0.359894 0.008881
0.260895 0.359894 0.008881
0.298309 0.359894 0.008881
0.334290 0.359894 0.008881
0.368774 0.359894 0.008881
0.430237 0.394135 0.009705
0.489044 0.427643 0.010437
0.529419 0.443512 0.011078
0.560303 0.449554 0.011841
0.591339 0.455872 0.012634
0.622498 0.462036 0.013336
0.653503 0.468384 0.014099
0.684296 0.474670 0.014862
0.714630 0.480835 0.015564
0.744354 0.486908 0.016296
0.773346 0.492920 0.017029
0.801300 0.498779 0.017731
0.828156 0.504272 0.018433
0.853668 0.509827 0.019043
0.877625 0.514709 0.019623
0.899872 0.519409 0.020203
0.920258 0.523682 0.020691
0.938507 0.527618 0.021179
0.954468 0.531067 0.021576
0.967987 0.534058 0.021912
0.978851 0.536285 0.022186
0.016022 0.394135 0.077820
0.016022 0.394135 0.035614
0.036316 0.394135 0.009705
0.086670 0.394135 0.009705
0.132629 0.394135 0.009705
0.175842 0.394135 0.009705
0.216919 0.394135 0.009705
0.255981 0.394135 0.009705
0.293488 0.394135 0.009705
0.329498 0.394135 0.009705
0.364044 0.394135 0.009705
0.397308 0.394135 0.009705
0.456543 0.427643 0.010437
0.513275 0.460358 0.011078
0.560303 0.483612 0.011841
0.591339 0.489868 0.012634
0.622498 0.496216 0.013336
0.653503 0.502502 0.014099
0.684296 0.508850 0.014862
0.714630 0.515076 0.015564
0.744354 0.521179 0.016296
0.773346 0.527222 0.017029
0.801300 0.533142 0.017731
0.828156 0.538696 0.018433
0.853668 0.544220 0.019043
0.877625 0.549164 0.019623
0.899872 0.554047 0.020203
0.920258 0.558289 0.020691
0.938507 0.562286 0.021179
0.954468 0.565704 0.021576
0.967987 0.568512 0.021912
0.978851 0.570953 0.022186
0.017090 0.427643 0.083923
0.017090 0.427643 0.041718
0.030396 0.427643 0.010437
0.081329 0.427643 0.010437
0.127472 0.427643 0.010437
0.170868 0.427643 0.010437
0.212036 0.427643 0.010437
0.251190 0.427643 0.010437
0.288818 0.427643 0.010437
0.324829 0.427643 0.010437
0.359406 0.427643 0.010437
0.392731 0.427643 0.010437
0.424774 0.427643 0.010437
0.481903 0.460358 0.011078
0.538239 0.493317 0.011841
0.591339 0.523285 0.012634
0.622498 0.529572 0.013336
0.653503 0.535919 0.014099
0.684296 0.542267 0.014862
0.714630 0.548431 0.015564
0.744354 0.554688 0.016296
0.773346 0.560760 0.017029
0.801300 0.566681 0.017731
0.828156 0.572357 0.018433
0.853668 0.577820 0.019043
0.877625 0.582947 0.019623
0.899872 0.587677 0.020203
0.920258 0.591919 0.020691
0.938507 0.596008 0.021179
0.954468 0.599335 0.021576
0.967987 0.602234 0.021912
0.978851 0.604614 0.022186
0.018036 0.460358 0.089783
0.018036 0.460358 0.047607
0.024445 0.460358 0.011078
0.075989 0.460358 0.011078
0.122498 0.460358 0.011078
0.165985 0.460358 0.011078
0.207184 0.460358 0.011078
0.246490 0.460358 0.011078
0.284180 0.460358 0.011078
0.320312 0.460358 0.011078
0.354950 0.460358 0.011078
0.388275 0.460358 0.011078
0.420349 0.460358 0.011078
0.451233 0.460358 0.011078
0.508057 0.493317 0.011841
0.564728 0.526855 0.012634
0.621429 0.560913 0.013336
0.653503 0.568420 0.014099
0.684296 0.574890 0.014862
0.714630 0.581177 0.015564
0.744354 0.587341 0.016296
0.773346 0.593536 0.017029
0.801300 0.599457 0.017731
0.828156 0.605164 0.018433
0.853668 0.610504 0.019043
0.877625 0.615631 0.019623
0.899872 0.620422 0.020203
0.920258 0.624786 0.020691
0.938507 0.628937 0.021179
0.954468 0.632202 0.021576
0.967987 0.635132 0.021912
0.978851 0.637726 0.022186
0.019135 0.493317 0.095642
0.019135 0.493317 0.053436
0.019135 0.493317 0.012482
0.070679 0.493317 0.011841
0.117493 0.493317 0.011841
0.161133 0.493317 0.011841
0.202362 0.493317 0.011841
0.241791 0.493317 0.011841
0.279510 0.493317 0.011841
0.315735 0.493317 0.011841
0.350403 0.493317 0.011841
0.383789 0.493317 0.011841
0.416016 0.493317 0.011841
0.446838 0.493317 0.011841
0.477570 0.493317 0.011841
0.534668 0.526855 0.012634
0.591675 0.560913 0.013336
0.648010 0.595154 0.014099
0.684296 0.607635 0.014862
0.714630 0.614044 0.015564
0.744354 0.620148 0.016296
0.773346 0.626312 0.017029
0.801300 0.632385 0.017731
0.828156 0.638123 0.018433
0.853668 0.643585 0.019043
0.877625 0.648682 0.019623
0.899872 0.653503 0.020203
0.920258 0.657837 0.020691
0.938507 0.661743 0.021179
0.954468 0.665436 0.021576
0.967987 0.668182 0.021912
0.978851 0.670685 0.022186
0.020233 0.526855 0.101624
0.020233 0.526855 0.059479
0.020233 0.526855 0.018311
0.065094 0.526855 0.012634
0.112305 0.526855 0.012634
0.156189 0.526855 0.012634
0.197632 0.526855 0.012634
0.237213 0.526855 0.012634
0.274933 0.526855 0.012634
0.311127 0.526855 0.012634
0.345917 0.526855 0.012634
0.379333 0.526855 0.012634
0.411591 0.526855 0.012634
0.442505 0.526855 0.012634
0.473175 0.526855 0.012634
0.504028 0.526855 0.012634
0.561371 0.560913 0.013336
0.618042 0.595154 0.014099
0.674133 0.629547 0.014862
0.714630 0.647247 0.015564
0.744354 0.653687 0.016296
0.773346 0.659821 0.017029
0.801300 0.665680 0.017731
0.828156 0.671448 0.018433
0.853668 0.677002 0.019043
0.877625 0.682312 0.019623
0.899872 0.687012 0.020203
0.920258 0.691467 0.020691
0.938507 0.695465 0.021179
0.954468 0.698822 0.021576
0.967987 0.701843 0.021912
0.978851 0.704285 0.022186
0.021271 0.560913 0.107635
0.021271 0.560913 0.065430
0.021271 0.560913 0.024261
0.059570 0.560913 0.013336
0.107025 0.560913 0.013336
0.151154 0.560913 0.013336
0.192749 0.560913 0.013336
0.232300 0.560913 0.013336
0.270142 0.560913 0.013336
0.306519 0.560913 0.013336
0.341248 0.560913 0.013336
0.374786 0.560913 0.013336
0.407013 0.560913 0.013336
0.437988 0.560913 0.013336
0.468689 0.560913 0.013336
0.499603 0.560913 0.013336
0.530579 0.560913 0.013336
0.587616 0.595154 0.014099
0.643890 0.629547 0.014862
0.699249 0.663757 0.015564
0.744354 0.687561 0.016296
0.773346 0.693604 0.017029
0.801300 0.699707 0.017731
0.828156 0.705566 0.018433
0.853668 0.711029 0.019043
0.877625 0.716278 0.019623
0.899872 0.721069 0.020203
0.920258 0.725525 0.020691
0.938507 0.729553 0.021179
0.954468 0.733093 0.021576
0.967987 0.735931 0.021912
0.978851 0.738312 0.022186
0.022339 0.595154 0.113678
0.022339 0.595154 0.071442
0.022339 0.595154 0.030151
0.053894 0.595154 0.014099
0.101746 0.595154 0.014099
0.145966 0.595154 0.014099
0.187744 0.595154 0.014099
0.227570 0.595154 0.014099
0.265533 0.595154 0.014099
0.301849 0.595154 0.014099
0.336761 0.595154 0.014099
0.370209 0.595154 0.014099
0.402466 0.595154 0.014099
0.433472 0.595154 0.014099
0.464294 0.595154 0.014099
0.495209 0.595154 0.014099
0.526215 0.595154 0.014099
0.557007 0.595154 0.014099
0.613647 0.629547 0.014862
0.669220 0.663757 0.015564
0.723389 0.697571 0.016296
0.773346 0.727783 0.017029
0.801300 0.733673 0.017731
0.828156 0.739594 0.018433
0.853668 0.745178 0.019043
0.877625 0.750427 0.019623
0.899872 0.755310 0.020203
0.920258 0.759674 0.020691
0.938507 0.763763 0.021179
0.954468 0.767273 0.021576
0.967987 0.770172 0.021912
0.978851 0.772705 0.022186
0.023438 0.629547 0.119751
0.023438 0.629547 0.077393
0.023438 0.629547 0.036133
0.048218 0.629547 0.014862
0.096436 0.629547 0.014862
0.141052 0.629547 0.014862
0.182861 0.629547 0.014862
0.222717 0.629547 0.014862
0.260834 0.629547 0.014862
0.297119 0.629547 0.014862
0.332184 0.629547 0.014862
0.365692 0.629547 0.014862
0.397980 0.629547 0.014862
0.429047 0.629547 0.014862
0.459869 0.629547 0.014862
0.490753 0.629547 0.014862
0.521881 0.629547 0.014862
0.552673 0.629547 0.014862
0.583252 0.629547 0.014862
0.639130 0.663757 0.015564
0.693481 0.697571 0.016296
0.746399 0.730835 0.017029
0.797150 0.763214 0.017731
0.828156 0.773773 0.018433
0.853668 0.779236 0.019043
0.877625 0.784485 0.019623
0.899872 0.789429 0.020172
0.920258 0.793976 0.020691
0.938507 0.797882 0.021179
0.954468 0.801544 0.021576
0.967987 0.804535 0.021912
0.978851 0.807037 0.022186
0.024445 0.663757 0.125671
0.024445 0.663757 0.083374
0.024445 0.663757 0.042023
0.042511 0.663757 0.015564
0.091339 0.663757 0.015564
0.135864 0.663757 0.015564
0.178009 0.663757 0.015564
0.217957 0.663757 0.015564
0.256073 0.663757 0.015564
0.292572 0.663757 0.015564
0.327545 0.663757 0.015564
0.361145 0.663757 0.015564
0.393402 0.663757 0.015564
0.424561 0.663757 0.015564
0.455475 0.663757 0.015564
0.486328 0.663757 0.015564
0.517426 0.663757 0.015564
0.548340 0.663757 0.015564
0.578888 0.663757 0.015564
0.609100 0.663757 0.015564
0.663788 0.697571 0.016296
0.716980 0.730835 0.017029
0.768036 0.763214 0.017731
0.816772 0.794556 0.018433
0.853668 0.813477 0.019043
0.877625 0.818695 0.019623
0.899872 0.823456 0.020172
0.920258 0.827942 0.020691
0.938507 0.832153 0.021179
0.954468 0.835724 0.021576
0.967987 0.838745 0.021912
0.978851 0.841217 0.022186
0.025452 0.697571 0.131561
0.025452 0.697571 0.089142
0.025452 0.697571 0.047852
0.036774 0.697571 0.016296
0.085999 0.697571 0.016296
0.130951 0.697571 0.016296
0.173248 0.697571 0.016296
0.213135 0.697571 0.016296
0.251465 0.697571 0.016296
0.287903 0.697571 0.016296
0.323029 0.697571 0.016296
0.356628 0.697571 0.016296
0.389038 0.697571 0.016296
0.420166 0.697571 0.016296
0.450989 0.697571 0.016296
0.482147 0.697571 0.016296
0.513214 0.697571 0.016296
0.544098 0.697571 0.016296
0.574738 0.697571 0.016296
0.604919 0.697571 0.016296
0.634430 0.697571 0.016296
0.687805 0.730835 0.017029
0.739105 0.763214 0.017731
0.788055 0.794556 0.018433
0.834595 0.824463 0.019043
0.877625 0.852356 0.019623
0.899872 0.857178 0.020172
0.920258 0.861847 0.020691
0.938507 0.865845 0.021179
0.954468 0.869324 0.021576
0.967987 0.872406 0.021912
0.978851 0.874725 0.022186
0.026428 0.730835 0.137329
0.026428 0.730835 0.094940
0.026428 0.730835 0.053619
0.031189 0.730835 0.017029
0.080963 0.730835 0.017029
0.125946 0.730835 0.017029
0.168457 0.730835 0.017029
0.208618 0.730835 0.017029
0.246826 0.730835 0.017029
0.283447 0.730835 0.017029
0.318634 0.730835 0.017029
0.352325 0.730835 0.017029
0.384705 0.730835 0.017029
0.415985 0.730835 0.017029
0.446777 0.730835 0.017029
0.477875 0.730835 0.017029
0.508942 0.730835 0.017029
0.539978 0.730835 0.017029
0.570587 0.730835 0.017029
0.600739 0.730835 0.017029
0.630341 0.730835 0.017029
0.659149 0.730835 0.017029
0.710571 0.763214 0.017731
0.759949 0.794556 0.018433
0.806580 0.824463 0.019043
0.850281 0.852814 0.019623
0.890594 0.879242 0.020172
0.920258 0.894867 0.020691
0.938507 0.898895 0.021179
0.954468 0.902527 0.021576
0.967987 0.905396 0.021912
0.978851 0.907898 0.022186
0.027435 0.763214 0.142914
0.027435 0.763214 0.100494
0.027435 0.763214 0.059174
0.027435 0.763214 0.019012
0.075836 0.763214 0.017731
0.121246 0.763214 0.017731
0.163757 0.763214 0.017731
0.204041 0.763214 0.017731
0.242462 0.763214 0.017731
0.279053 0.763214 0.017731
0.314362 0.763214 0.017731
0.348145 0.763214 0.017731
0.380585 0.763214 0.017731
0.411835 0.763214 0.017731
0.442810 0.763214 0.017731
0.473694 0.763214 0.017731
0.504944 0.763214 0.017731
0.535828 0.763214 0.017731
0.566650 0.763214 0.017731
0.596771 0.763214 0.017731
0.626343 0.763214 0.017731
0.655273 0.763214 0.017731
0.682983 0.763214 0.017731
0.732422 0.794556 0.018433
0.779266 0.824463 0.019043
0.823181 0.852814 0.019623
0.863678 0.879242 0.020172
0.900696 0.903625 0.020691
0.933899 0.925507 0.021179
0.954468 0.934601 0.021576
0.967987 0.937744 0.021912
0.978851 0.940125 0.022186
0.028381 0.794556 0.148315
0.028381 0.794556 0.105835
0.028381 0.794556 0.064423
0.028381 0.794556 0.024445
0.070923 0.794556 0.018433
0.116760 0.794556 0.018433
0.159454 0.794556 0.018433
0.199677 0.794556 0.018433
0.238159 0.794556 0.018433
0.274994 0.794556 0.018433
0.310089 0.794556 0.018433
0.343964 0.794556 0.018433
0.376526 0.794556 0.018433
0.407806 0.794556 0.018433
0.438782 0.794556 0.018433
0.469757 0.794556 0.018433
0.501068 0.794556 0.018433
0.531952 0.794556 0.018433
0.562683 0.794556 0.018433
0.593018 0.794556 0.018433
0.622620 0.794556 0.018433
0.651367 0.794556 0.018433
0.679230 0.794556 0.018433
0.705872 0.794556 0.018433
0.752930 0.824463 0.019043
0.796936 0.852814 0.019623
0.837646 0.879242 0.020172
0.874695 0.903625 0.020691
0.908020 0.925507 0.021179
0.937042 0.944763 0.021576
0.961548 0.961121 0.021912
0.978851 0.971252 0.022186
0.029205 0.824463 0.153442
0.029205 0.824463 0.111084
0.029205 0.824463 0.069611
0.029205 0.824463 0.029358
0.066345 0.824463 0.019043
0.112335 0.824463 0.019043
0.155121 0.824463 0.019043
0.195526 0.824463 0.019043
0.234100 0.824463 0.019043
0.271027 0.824463 0.019043
0.306335 0.824463 0.019043
0.340210 0.824463 0.019043
0.372681 0.824463 0.019043
0.403870 0.824463 0.019043
0.434967 0.824463 0.019043
0.466034 0.824463 0.019043
0.497253 0.824463 0.019043
0.528259 0.824463 0.019043
0.558929 0.824463 0.019043
0.589355 0.824463 0.019043
0.618866 0.824463 0.019043
0.647644 0.824463 0.019043
0.675568 0.824463 0.019043
0.702209 0.824463 0.019043
0.727600 0.824463 0.019043
0.771790 0.852814 0.019623
0.812653 0.879242 0.020172
0.850006 0.903625 0.020691
0.883301 0.925507 0.021179
0.912354 0.944763 0.021576
0.936981 0.961121 0.021912
0.956757 0.974274 0.022186
0.030029 0.852814 0.158295
0.030029 0.852814 0.115784
0.030029 0.852814 0.074463
0.030029 0.852814 0.033997
0.061951 0.852814 0.019623
0.108154 0.852814 0.019623
0.151001 0.852814 0.019623
0.191681 0.852814 0.019623
0.230225 0.852814 0.019623
0.267273 0.852814 0.019623
0.302460 0.852814 0.019623
0.336365 0.852814 0.019623
0.369080 0.852814 0.019623
0.400238 0.852814 0.019623
0.431335 0.852814 0.019623
0.462555 0.852814 0.019623
0.493805 0.852814 0.019623
0.524780 0.852814 0.019623
0.555420 0.852814 0.019623
0.585846 0.852814 0.019623
0.615509 0.852814 0.019623
0.644257 0.852814 0.019623
0.672058 0.852814 0.019623
0.698761 0.852814 0.019623
0.724213 0.852814 0.019623
0.748016 0.852814 0.019623
0.789001 0.879242 0.020172
0.826477 0.903625 0.020691
0.859985 0.925507 0.021179
0.889038 0.944763 0.021576
0.913788 0.961121 0.021912
0.933594 0.974274 0.022186
0.030762 0.879242 0.162811
0.030762 0.879242 0.120361
0.030762 0.879242 0.078888
0.030762 0.879242 0.038574
0.057770 0.879242 0.020172
0.104218 0.879242 0.020172
0.147308 0.879242 0.020172
0.188019 0.879242 0.020172
0.226654 0.879242 0.020172
0.263702 0.879242 0.020172
0.299042 0.879242 0.020172
0.333038 0.879242 0.020172
0.365662 0.879242 0.020172
0.396881 0.879242 0.020172
0.428040 0.879242 0.020172
0.459167 0.879242 0.020172
0.490417 0.879242 0.020172
0.521515 0.879242 0.020172
0.552185 0.879242 0.020172
0.582489 0.879242 0.020172
0.612213 0.879242 0.020172
0.641144 0.879242 0.020172
0.668976 0.879242 0.020172
0.695648 0.879242 0.020172
0.721039 0.879242 0.020172
0.744934 0.879242 0.020172
0.766998 0.879242 0.020172
0.804657 0.903625 0.020691
0.838165 0.925507 0.021179
0.867371 0.944763 0.021576
0.892212 0.961121 0.021912
0.911987 0.974274 0.022186
0.031464 0.903625 0.166962
0.031464 0.903625 0.124512
0.031464 0.903625 0.083038
0.031464 0.903625 0.042511
0.053680 0.903625 0.020691
0.100616 0.903625 0.020691
0.143860 0.903625 0.020691
0.184784 0.903625 0.020691
0.223511 0.903625 0.020691
0.260376 0.903625 0.020691
0.295776 0.903625 0.020691
0.329773 0.903625 0.020691
0.362396 0.903625 0.020691
0.393738 0.903625 0.020691
0.424866 0.903625 0.020691
0.456116 0.903625 0.020691
0.487396 0.903625 0.020691
0.518433 0.903625 0.020691
