projects/GameEngine/res/luts/boomeranger.CUBE
#Created by: Adobe Photoshop Export Color Lookup Plugin
TITLE "Boomeranger"
#LUT size
LUT_3D_SIZE 5
#data domain
#LUT data points
DOMAIN_MIN 0.000000 0.000000 0.000000
DOMAIN_MAX 0.903226 0.903226 0.903226
0.000000 0.000000 0.000000
0.324402 0.039917 0.006409
0.560303 0.077789 0.011841
0.773346 0.115356 0.017029
0.938507 0.146118 0.021179
0.011078 0.253296 0.051788
0.276520 0.253296 0.006409
0.560303 0.343079 0.011841
0.773346 0.385437 0.017029
0.938507 0.419495 0.021179
0.019135 0.493317 0.095642
0.241791 0.493317 0.011841
0.477570 0.493317 0.011841
0.773346 0.626312 0.017029
0.938507 0.661743 0.021179
0.026428 0.730835 0.137329
0.208618 0.730835 0.017029
0.446777 0.730835 0.017029
0.659149 0.730835 0.017029
0.938507 0.898895 0.021179
0.032104 0.925507 0.170685
0.181671 0.925507 0.021179
0.422089 0.925507 0.021179
0.635559 0.925507 0.021179
0.799927 0.925507 0.021179
0.071320 0.004120 0.283020
0.324402 0.004120 0.236603
0.560303 0.008026 0.203583
0.773346 0.011902 0.172546
0.938507 0.015106 0.147766
0.011078 0.208466 0.283020
0.331421 0.260010 0.289917
0.567078 0.303375 0.295105
0.779816 0.344788 0.299805
0.944763 0.378265 0.303741
0.019135 0.493317 0.374054
0.335846 0.500763 0.333435
0.529633 0.500763 0.294220
0.779846 0.584473 0.299652
0.944763 0.619476 0.303741
0.026428 0.730835 0.416321
0.340820 0.738373 0.375305
0.498352 0.738373 0.299133
0.709351 0.738373 0.299133
0.944763 0.855652 0.303223
0.032104 0.925507 0.450012
0.344971 0.933044 0.408844
0.473541 0.933044 0.303223
0.685486 0.933044 0.303223
0.849030 0.933044 0.303223
0.123260 0.008026 0.522278
0.416016 0.008026 0.522278
0.560303 0.008026 0.436646
0.773346 0.011902 0.405212
0.938507 0.015106 0.380188
0.019135 0.177002 0.522278
0.375488 0.264221 0.529541
0.567200 0.264435 0.490356
0.779846 0.269562 0.458221
0.944763 0.273468 0.432770
0.019135 0.405975 0.522278
0.335846 0.460571 0.529541
0.572388 0.506348 0.534973
0.785095 0.549927 0.540192
0.949982 0.584534 0.543945
0.026428 0.730835 0.650452
0.340820 0.738373 0.610321
0.576263 0.744690 0.576294
0.751007 0.744690 0.539032
0.950012 0.819672 0.543182
0.032104 0.925507 0.684204
0.344971 0.933044 0.643799
0.579681 0.939362 0.609467
0.726715 0.939362 0.542603
0.889771 0.939362 0.542603
0.170197 0.011902 0.749603
0.457703 0.011902 0.749603
0.681396 0.011902 0.749603
0.773346 0.011902 0.626678
0.938507 0.015106 0.601593
0.026428 0.147858 0.749603
0.417236 0.269012 0.756714
0.643799 0.269012 0.756714
0.779846 0.269196 0.680420
0.944763 0.273315 0.654877
0.026428 0.374268 0.749603
0.340820 0.427643 0.756714
0.611664 0.510529 0.762634
0.785278 0.510834 0.725403
0.949982 0.515228 0.699615
0.026428 0.601440 0.749603
0.340820 0.657776 0.756714
0.576263 0.705200 0.762634
0.790039 0.750153 0.767761
0.954865 0.786133 0.772034
0.032104 0.925507 0.906677
0.344971 0.933044 0.866486
0.579681 0.939362 0.832825
0.793213 0.945312 0.800964
0.928223 0.945312 0.771240
0.206635 0.015106 0.931305
0.490570 0.015106 0.931305
0.712860 0.015106 0.931305
0.916321 0.015106 0.931305
0.938507 0.015106 0.778564
0.032104 0.124878 0.931305
0.450348 0.273010 0.938263
0.675171 0.273010 0.938263
0.880035 0.273010 0.938263
0.944763 0.273163 0.832336
0.032104 0.349213 0.931305
0.344971 0.401794 0.938263
0.642975 0.514221 0.944122
0.849457 0.514221 0.944122
0.950012 0.514557 0.877289
0.032104 0.575287 0.931305
0.344971 0.630890 0.938263
0.579681 0.677460 0.944122
0.820404 0.753845 0.949615
0.954926 0.754028 0.919922
0.032104 0.761627 0.931305
0.344971 0.819031 0.938263
0.579681 0.867218 0.944122
0.793213 0.913147 0.949615
0.958771 0.949951 0.953888
