projects/GameEngine/res/luts/Coolish.CUBE
#Created by: Adobe Photoshop Export Color Lookup Plugin
TITLE "Nice"
#LUT size
LUT_3D_SIZE 8
#data domain
#LUT data points
DOMAIN_MIN 0.000000 0.000000 0.000000
DOMAIN_MAX 0.903226 0.903226 0.903226
0.000000 0.000000 0.000000
0.063080 0.015594 0.001038
0.143677 0.030975 0.002045
0.244965 0.046265 0.002960
0.366699 0.061493 0.003815
0.506134 0.076721 0.004639
0.660065 0.091858 0.005463
0.824799 0.107025 0.006287
0.000122 0.127258 0.023468
0.054810 0.127258 0.001038
0.143677 0.156952 0.002045
0.244965 0.171997 0.002960
0.366699 0.187103 0.003815
0.506134 0.202118 0.004639
0.660065 0.217255 0.005463
0.824799 0.232178 0.006287
0.000275 0.252777 0.043579
0.046997 0.252777 0.002045
0.123291 0.252777 0.002045
0.244965 0.296722 0.002960
0.366699 0.311798 0.003815
0.506134 0.326691 0.004639
0.660065 0.341675 0.005463
0.824799 0.356628 0.006287
0.000427 0.377686 0.062592
0.039368 0.377686 0.002960
0.113831 0.377686 0.002960
0.207275 0.377686 0.002960
0.366699 0.435974 0.003815
0.506134 0.450958 0.004639
0.660065 0.465790 0.005463
0.824799 0.480621 0.006287
0.000610 0.502167 0.080872
0.031952 0.502167 0.003815
0.104675 0.502167 0.003815
0.195709 0.502167 0.003815
0.307831 0.502167 0.003815
0.506134 0.574707 0.004639
0.660065 0.589630 0.005463
0.824799 0.604492 0.006287
0.000793 0.626312 0.098724
0.024719 0.626312 0.004639
0.095673 0.626312 0.004639
0.184418 0.626312 0.004639
0.294250 0.626312 0.004639
0.423279 0.626312 0.004639
0.660065 0.712982 0.005463
0.824799 0.727966 0.006287
0.000946 0.750214 0.116119
0.017792 0.750214 0.005463
0.086884 0.750214 0.005463
0.173309 0.750214 0.005463
0.280914 0.750214 0.005463
0.407837 0.750214 0.005463
0.551575 0.750214 0.005463
0.824799 0.851166 0.006287
0.001160 0.873901 0.133270
0.011047 0.873901 0.006287
0.078369 0.873901 0.006287
0.162476 0.873901 0.006287
0.267792 0.873901 0.006287
0.392731 0.873901 0.006287
0.534637 0.873901 0.006287
0.690338 0.873901 0.006287
0.005890 0.000519 0.155823
0.063080 0.000519 0.139557
0.143677 0.001038 0.123657
0.244965 0.001556 0.107483
0.366699 0.002075 0.091064
0.506134 0.002594 0.074188
0.660065 0.003113 0.056976
0.824799 0.003601 0.038910
0.000122 0.112640 0.155823
0.063354 0.127747 0.156372
0.144012 0.142853 0.156921
0.245392 0.157959 0.157471
0.367249 0.173035 0.158020
0.506714 0.188080 0.158539
0.660675 0.203125 0.159088
0.825439 0.218140 0.159637
0.000275 0.252777 0.188263
0.063629 0.253265 0.172943
0.133667 0.253265 0.156921
0.245392 0.282776 0.157471
0.367249 0.297729 0.158020
0.506714 0.312744 0.158539
0.660675 0.327698 0.159088
0.825439 0.342773 0.159637
0.000427 0.377686 0.204468
0.063904 0.378174 0.189331
0.123993 0.378174 0.157471
0.219971 0.378174 0.157471
0.367249 0.422058 0.158020
0.506714 0.436951 0.158539
0.660675 0.451782 0.159088
0.825439 0.466705 0.159637
0.000610 0.502167 0.220581
0.064209 0.502655 0.205536
0.114502 0.502655 0.158020
0.208130 0.502655 0.158020
0.322662 0.502655 0.158020
0.506714 0.560760 0.158539
0.660675 0.575714 0.159088
0.825439 0.590515 0.159637
0.000793 0.626312 0.236481
0.064484 0.626801 0.221619
0.105316 0.626801 0.158539
0.196472 0.626801 0.158539
0.308807 0.626801 0.158539
0.439941 0.626801 0.158539
0.660675 0.699188 0.159088
0.825439 0.714081 0.159637
0.000946 0.750214 0.252380
0.064789 0.750671 0.237549
0.096283 0.750671 0.159088
0.185089 0.750671 0.159088
0.295227 0.750671 0.159088
0.424377 0.750671 0.159088
0.569794 0.750671 0.159088
0.825439 0.837219 0.159637
0.001160 0.873901 0.267975
0.065063 0.874359 0.253326
0.087585 0.874359 0.159637
0.174011 0.874359 0.159637
0.281799 0.874359 0.159637
0.409027 0.874359 0.159637
0.552612 0.874359 0.159637
0.709808 0.874359 0.159637
0.012726 0.001038 0.289337
0.080536 0.001038 0.289337
0.143677 0.001038 0.259155
0.244965 0.001556 0.244415
0.366699 0.002075 0.229645
0.506134 0.002594 0.214630
0.660065 0.003113 0.199554
0.824799 0.003601 0.184326
0.000275 0.098480 0.289337
0.072113 0.128235 0.289825
0.144012 0.128235 0.274811
0.245392 0.128754 0.260223
0.367249 0.129242 0.245483
0.506714 0.129730 0.230682
0.660675 0.130219 0.215698
0.825439 0.130707 0.200745
0.000275 0.223724 0.289337
0.063629 0.238739 0.289825
0.144379 0.253754 0.290344
0.245850 0.268768 0.290863
0.367737 0.283752 0.291351
0.507294 0.298767 0.291870
0.661285 0.313721 0.292358
0.826141 0.328705 0.292877
0.000427 0.377686 0.334351
0.063904 0.378174 0.320129
0.144714 0.378662 0.305786
0.233002 0.378662 0.290863
0.367737 0.408051 0.291351
0.507294 0.422943 0.291870
0.661285 0.437897 0.292358
0.826141 0.452789 0.292877
0.000610 0.502167 0.349609
0.064209 0.502655 0.335358
0.145081 0.503143 0.321136
0.220825 0.503143 0.291351
0.337769 0.503143 0.291351
0.507294 0.546875 0.291870
0.661285 0.561737 0.292358
0.826141 0.576691 0.292877
0.000793 0.626312 0.364624
0.064484 0.626801 0.350586
0.145447 0.627289 0.336395
0.208893 0.627289 0.291870
0.323669 0.627289 0.291870
0.456879 0.627289 0.291870
0.661285 0.685272 0.292358
0.826141 0.700195 0.292877
0.000946 0.750214 0.379669
0.064789 0.750671 0.365662
0.145782 0.751160 0.351562
0.197296 0.751160 0.292358
0.309723 0.751160 0.292358
0.441071 0.751160 0.292358
0.588226 0.751160 0.292358
0.826141 0.823425 0.292877
0.001160 0.873901 0.394623
0.065063 0.874359 0.380768
0.146149 0.874847 0.366669
0.185883 0.874847 0.292877
0.296173 0.874847 0.292877
0.425507 0.874847 0.292877
0.571045 0.874847 0.292877
0.729401 0.874847 0.292877
0.019989 0.001556 0.415588
0.089722 0.001556 0.415588
0.176788 0.001556 0.415588
0.244965 0.001556 0.372253
0.366699 0.002075 0.358215
0.506134 0.002594 0.344116
0.660065 0.003113 0.329834
0.824799 0.003601 0.315430
0.000427 0.084320 0.415588
0.081146 0.128754 0.416077
0.165985 0.128754 0.416077
0.245392 0.128754 0.387238
0.367249 0.129242 0.373291
0.506714 0.129730 0.359161
0.660675 0.130219 0.344940
0.825439 0.130707 0.330719
0.000427 0.209625 0.415588
0.063904 0.224731 0.416077
0.155396 0.254242 0.416565
0.245850 0.254242 0.402191
0.367737 0.254730 0.388214
0.507294 0.255219 0.374176
0.661285 0.255707 0.360138
0.826141 0.256226 0.345978
0.000427 0.334259 0.415588
0.063904 0.349243 0.416077
0.144714 0.364197 0.416565
0.246277 0.379150 0.417023
0.368256 0.394104 0.417511
0.507843 0.409027 0.417999
0.661957 0.423981 0.418488
0.826752 0.438904 0.418976
0.000610 0.502167 0.473022
0.064209 0.502655 0.459381
0.145081 0.503143 0.445618
0.246735 0.503632 0.431824
0.353149 0.503632 0.417511
0.507843 0.532928 0.417999
0.661957 0.547882 0.418488
0.826752 0.562714 0.418976
0.000793 0.626312 0.487671
0.064484 0.626801 0.473969
0.145447 0.627289 0.460236
0.247162 0.627777 0.446564
0.338776 0.627777 0.417999
0.474091 0.627777 0.417999
0.661957 0.671387 0.418488
0.826752 0.686249 0.418976
0.000946 0.750214 0.502106
0.064789 0.750671 0.488464
0.145782 0.751160 0.474884
0.247620 0.751648 0.461243
0.324707 0.751648 0.418488
0.458069 0.751648 0.418488
0.606873 0.751648 0.418488
0.826752 0.809540 0.418976
0.001160 0.873901 0.516479
0.065063 0.874359 0.502991
0.146149 0.874847 0.489441
0.248047 0.875336 0.475861
0.310730 0.875336 0.418976
0.442169 0.875336 0.418976
0.589447 0.875336 0.418976
0.749176 0.875336 0.418976
0.027557 0.002075 0.537323
0.099182 0.002075 0.537323
0.188782 0.002075 0.537323
0.299561 0.002075 0.537323
0.366699 0.002075 0.481293
0.506134 0.002594 0.467682
0.660065 0.003113 0.454010
0.824799 0.003601 0.440308
0.000610 0.070129 0.537323
0.090363 0.129242 0.537781
0.177582 0.129242 0.537781
0.286102 0.129242 0.537781
0.367249 0.129242 0.495850
0.506714 0.129730 0.482239
0.660675 0.130219 0.468658
0.825439 0.130707 0.454895
0.000610 0.195648 0.537323
0.064209 0.210663 0.537781
0.166718 0.254730 0.538239
0.272858 0.254730 0.538239
0.367737 0.254730 0.510345
0.507294 0.255219 0.496826
0.661285 0.255707 0.483154
0.826141 0.256226 0.469604
0.000610 0.320312 0.537323
0.064209 0.335297 0.537781
0.145081 0.350220 0.538239
0.259888 0.379639 0.538727
0.368256 0.379639 0.524780
0.507843 0.380127 0.511292
0.661957 0.380615 0.497803
0.826752 0.381104 0.484131
0.000610 0.444458 0.537323
0.064209 0.459381 0.537781
0.145081 0.474304 0.538239
0.246735 0.489197 0.538727
0.368774 0.504120 0.539185
0.508423 0.519012 0.539673
0.662567 0.533905 0.540131
0.827454 0.548828 0.540588
0.000793 0.626312 0.606842
0.064484 0.626801 0.593536
0.145447 0.627289 0.580261
0.247162 0.627777 0.566895
0.369293 0.628235 0.553558
0.491425 0.628235 0.539673
0.662567 0.657501 0.540131
0.827454 0.672333 0.540588
0.000946 0.750214 0.621033
0.064789 0.750671 0.607788
0.145782 0.751160 0.594452
0.247620 0.751648 0.581207
0.369781 0.752136 0.567871
0.475189 0.752136 0.540131
0.625702 0.752136 0.540131
0.827454 0.795746 0.540588
0.001160 0.873901 0.635132
0.065063 0.874359 0.621857
0.146149 0.874847 0.608734
0.248047 0.875336 0.595398
0.370331 0.875824 0.582123
0.459106 0.875824 0.540588
0.608154 0.875824 0.540588
0.769043 0.875824 0.540588
0.035400 0.002594 0.655762
0.108856 0.002594 0.655762
0.200958 0.002594 0.655762
0.314301 0.002594 0.655762
0.446198 0.002594 0.655762
0.506134 0.002594 0.587402
0.660065 0.003113 0.574005
0.824799 0.003601 0.560760
0.000793 0.055878 0.655762
0.099792 0.129730 0.656219
0.189545 0.129730 0.656219
0.300507 0.129730 0.656219
0.430481 0.129730 0.656219
0.506714 0.129730 0.601593
0.660675 0.130219 0.588348
0.825439 0.130707 0.575073
0.000793 0.181519 0.655762
0.064484 0.196625 0.656219
0.178375 0.255219 0.656677
0.286957 0.255219 0.656677
0.415039 0.255219 0.656677
0.507294 0.255219 0.615753
0.661285 0.255707 0.602539
0.826141 0.256226 0.589294
0.000793 0.306366 0.655762
0.064484 0.321259 0.656219
0.145447 0.336182 0.656677
0.273773 0.380127 0.657135
0.399689 0.380127 0.657135
0.507843 0.380127 0.629913
0.661957 0.380615 0.616730
0.826752 0.381104 0.603455
0.000793 0.430511 0.655762
0.064484 0.445435 0.656219
0.145447 0.460388 0.656677
0.247162 0.475250 0.657135
0.384644 0.504608 0.657593
0.508423 0.504608 0.644012
0.662567 0.505096 0.630829
0.827454 0.505585 0.617584
0.000793 0.554321 0.655762
0.064484 0.569214 0.656219
0.145447 0.584106 0.656677
0.247162 0.598969 0.657135
0.369293 0.613861 0.657593
0.509003 0.628723 0.658051
0.663177 0.643616 0.658508
0.828094 0.658478 0.658966
0.000946 0.750214 0.737061
0.064789 0.750671 0.724182
0.145782 0.751160 0.711182
0.247620 0.751648 0.698181
0.369781 0.752136 0.685150
0.509583 0.752625 0.672058
0.644684 0.752625 0.658508
0.828094 0.781830 0.658966
0.001160 0.873901 0.751007
0.065063 0.874359 0.738098
0.146149 0.874847 0.725128
0.248047 0.875336 0.712097
0.370331 0.875824 0.699066
0.510193 0.876312 0.686066
0.626923 0.876312 0.658966
0.789062 0.876312 0.658966
0.043396 0.003113 0.771667
0.118896 0.003113 0.771667
0.213501 0.003113 0.771667
0.329132 0.003113 0.771667
0.463257 0.003113 0.771667
0.612488 0.003113 0.771667
0.660065 0.003113 0.691254
0.824799 0.003601 0.678192
0.000946 0.041718 0.771667
0.109558 0.130219 0.772125
0.201782 0.130219 0.772125
0.315094 0.130219 0.772125
0.447327 0.130219 0.772125
0.595123 0.130219 0.772125
0.660675 0.130219 0.705139
0.825439 0.130707 0.692078
0.000946 0.167419 0.771667
0.064789 0.182526 0.772125
0.190338 0.255707 0.772583
0.301422 0.255707 0.772583
0.431549 0.255707 0.772583
0.577759 0.255707 0.772583
0.661285 0.255707 0.719055
0.826141 0.256226 0.706085
0.000946 0.292297 0.771667
0.064789 0.307190 0.772125
0.145782 0.322235 0.772583
0.287933 0.380615 0.773041
0.416138 0.380615 0.773041
0.560638 0.380615 0.773041
0.661957 0.380615 0.732941
0.826752 0.381104 0.719971
0.000946 0.416595 0.771667
0.064789 0.431519 0.772125
0.145782 0.446350 0.772583
0.247620 0.461365 0.773041
0.400787 0.505096 0.773468
0.543671 0.505096 0.773468
0.662567 0.505096 0.746796
0.827454 0.505585 0.733887
0.000946 0.540344 0.771667
0.064789 0.555328 0.772125
0.145782 0.570190 0.772583
0.247620 0.585083 0.773041
0.369781 0.599945 0.773468
0.526825 0.629211 0.773926
0.663177 0.629211 0.760590
0.828094 0.629700 0.747681
0.000946 0.664001 0.771667
0.064789 0.678833 0.772125
0.145782 0.693695 0.772583
0.247620 0.708557 0.773041
0.369781 0.723419 0.773468
0.509583 0.738251 0.773926
0.663788 0.753113 0.774384
0.828766 0.767944 0.774811
0.001160 0.873901 0.864746
0.065063 0.874359 0.851959
0.146149 0.874847 0.839294
0.248047 0.875336 0.826508
0.370331 0.875824 0.813782
0.510193 0.876312 0.800964
0.664459 0.876801 0.788147
0.809204 0.876801 0.774811
0.051697 0.003601 0.885529
0.129120 0.003601 0.885529
0.226349 0.003601 0.885529
0.344269 0.003601 0.885529
0.480499 0.003601 0.885529
0.631500 0.003601 0.885529
0.793884 0.003601 0.885529
0.824799 0.003601 0.793243
0.001160 0.027313 0.885529
0.119507 0.130707 0.885956
0.214447 0.130707 0.885956
0.330078 0.130707 0.885956
0.464264 0.130707 0.885956
0.613861 0.130707 0.885956
0.774994 0.130707 0.885956
0.825439 0.130707 0.806946
0.001160 0.153320 0.885529
0.065063 0.168518 0.885956
0.202637 0.256226 0.886414
0.316101 0.256226 0.886414
0.448425 0.256226 0.886414
0.596375 0.256226 0.886414
0.756500 0.256226 0.886414
0.826141 0.256226 0.820618
0.001160 0.278198 0.885529
0.065063 0.293182 0.885956
0.146149 0.308197 0.886414
0.302399 0.381104 0.886841
0.432617 0.381104 0.886841
0.578949 0.381104 0.886841
0.737946 0.381104 0.886841
0.826752 0.381104 0.834259
0.001160 0.402649 0.885529
0.065063 0.417511 0.885956
0.146149 0.432495 0.886414
0.248047 0.447357 0.886841
0.417145 0.505585 0.887299
0.561798 0.505585 0.887299
0.719604 0.505585 0.887299
0.827454 0.505585 0.847900
0.001160 0.526520 0.885529
0.065063 0.541443 0.885956
0.146149 0.556335 0.886414
0.248047 0.571167 0.886841
0.370331 0.585999 0.887299
0.544830 0.629700 0.887726
0.701294 0.629700 0.887726
0.828094 0.629700 0.861511
0.001160 0.650116 0.885529
0.065063 0.664886 0.885956
0.146149 0.679840 0.886414
0.248047 0.694672 0.886841
0.370331 0.709564 0.887299
0.510193 0.724365 0.887726
0.683105 0.753601 0.888184
0.828766 0.753601 0.875092
0.001160 0.773468 0.885529
0.065063 0.788300 0.885956
0.146149 0.803131 0.886414
0.248047 0.817963 0.886841
0.370331 0.832794 0.887299
0.510193 0.847626 0.887726
0.664459 0.862457 0.888184
0.829468 0.877289 0.888611
