projects/GameEngine/res/luts/Coolish.CUBE
#Created by: Adobe Photoshop Export Color Lookup Plugin
TITLE "Nice"
#LUT size
LUT_3D_SIZE 5
#data domain
#LUT data points
DOMAIN_MIN 0.000000 0.000000 0.000000
DOMAIN_MAX 0.903226 0.903226 0.903226
0.000000 0.000000 0.000000
0.121765 0.027100 0.001801
0.303406 0.053894 0.003387
0.543365 0.080505 0.004852
0.824799 0.107025 0.006287
0.000244 0.221497 0.038635
0.104919 0.221497 0.001801
0.303406 0.273163 0.003387
0.543365 0.299377 0.004852
0.824799 0.325592 0.006287
0.000549 0.439941 0.071808
0.089325 0.439941 0.003387
0.255554 0.439941 0.003387
0.543365 0.516571 0.004852
0.824799 0.542603 0.006287
0.000854 0.657288 0.103088
0.074432 0.657288 0.004852
0.233673 0.657288 0.004852
0.454224 0.657288 0.004852
0.824799 0.758728 0.006287
0.001160 0.873901 0.133270
0.060120 0.873901 0.006287
0.212494 0.873901 0.006287
0.426727 0.873901 0.006287
0.690338 0.873901 0.006287
0.010986 0.000916 0.256836
0.121765 0.000916 0.230072
0.303406 0.001831 0.203827
0.543365 0.002716 0.177155
0.824799 0.003601 0.150055
0.000244 0.196045 0.256836
0.122345 0.222351 0.257721
0.304260 0.248627 0.258636
0.544403 0.274902 0.259521
0.825958 0.301117 0.260406
0.000549 0.439941 0.310303
0.122955 0.440796 0.285034
0.279877 0.440796 0.258636
0.544403 0.492157 0.259521
0.825958 0.518188 0.260406
0.000854 0.657288 0.337006
0.123505 0.658142 0.312073
0.257172 0.658142 0.259521
0.484314 0.658142 0.259521
0.825958 0.734467 0.260406
0.001160 0.873901 0.363525
0.124115 0.874725 0.338776
0.235107 0.874725 0.260406
0.456207 0.874725 0.260406
0.724487 0.874725 0.260406
0.023773 0.001831 0.476898
0.158691 0.001831 0.476898
0.303406 0.001831 0.427155
0.543365 0.002716 0.402954
0.824799 0.003601 0.378479
0.000549 0.171387 0.476898
0.140656 0.223206 0.477722
0.304260 0.223206 0.452972
0.544403 0.224060 0.428894
0.825958 0.224915 0.404572
0.000549 0.389374 0.476898
0.122955 0.415527 0.477722
0.305084 0.441650 0.478546
0.545471 0.467743 0.479401
0.827087 0.493866 0.480225
0.000854 0.657288 0.551208
0.123505 0.658142 0.527649
0.305939 0.658997 0.503998
0.515137 0.658997 0.479401
0.827087 0.710144 0.480225
0.001160 0.873901 0.576202
0.124115 0.874725 0.552765
0.306763 0.875580 0.529297
0.486328 0.875580 0.480225
0.759094 0.875580 0.480225
0.037384 0.002716 0.684937
0.178864 0.002716 0.684937
0.382050 0.002716 0.684937
0.543365 0.002716 0.613556
0.824799 0.003601 0.590363
0.000854 0.146698 0.684937
0.159973 0.224060 0.685760
0.356201 0.224060 0.685760
0.544403 0.224060 0.638245
0.825958 0.224915 0.615204
0.000854 0.364990 0.684937
0.123505 0.391113 0.685760
0.331116 0.442505 0.686554
0.545471 0.442505 0.662872
0.827087 0.443359 0.639862
0.000854 0.581757 0.684937
0.123505 0.607788 0.685760
0.305939 0.633850 0.686554
0.546509 0.659851 0.687347
0.828247 0.685852 0.688141
0.001160 0.873901 0.779572
0.124115 0.874725 0.757080
0.306763 0.875580 0.734406
0.547516 0.876434 0.711700
0.794128 0.876434 0.688141
0.051697 0.003601 0.885529
0.200043 0.003601 0.885529
0.410309 0.003601 0.885529
0.671051 0.003601 0.885529
0.824799 0.003601 0.793243
0.001160 0.122040 0.885529
0.180237 0.224915 0.886322
0.383759 0.224915 0.886322
0.639801 0.224915 0.886322
0.825958 0.224915 0.817200
0.001160 0.340485 0.885529
0.124115 0.366608 0.886322
0.358002 0.443359 0.887085
0.608887 0.443359 0.887085
0.827087 0.443359 0.841095
0.001160 0.557404 0.885529
0.124115 0.583496 0.886322
0.306763 0.609497 0.887085
0.578461 0.660706 0.887848
0.828247 0.660706 0.864929
0.001160 0.773468 0.885529
0.124115 0.799438 0.886322
0.306763 0.825378 0.887085
0.547516 0.851349 0.887848
0.829468 0.877289 0.888611
