projects/GameEngine/res/luts/Coolish.CUBE
#Created by: Adobe Photoshop Export Color Lookup Plugin
TITLE "Nice"
#LUT size
LUT_3D_SIZE 32
#data domain
DOMAIN_MIN 0.0 0.0 0.0
DOMAIN_MAX 1.0 1.0 1.0
#LUT data points
0.000000 0.000000 0.000000
0.013336 0.003937 0.000275
0.028870 0.007843 0.000519
0.045502 0.011719 0.000793
0.063080 0.015594 0.001038
0.081604 0.019440 0.001312
0.101135 0.023285 0.001556
0.121765 0.027100 0.001801
0.143677 0.030975 0.002045
0.166931 0.034790 0.002289
0.191620 0.038605 0.002502
0.217590 0.042419 0.002747
0.244965 0.046265 0.002960
0.273560 0.050049 0.003174
0.303406 0.053894 0.003387
0.334442 0.057678 0.003601
0.366699 0.061493 0.003815
0.400024 0.065308 0.004028
0.434387 0.069122 0.004242
0.469818 0.072906 0.004456
0.506134 0.076721 0.004639
0.543365 0.080505 0.004852
0.581482 0.084290 0.005066
0.620422 0.088074 0.005280
0.660065 0.091858 0.005463
0.700348 0.095673 0.005676
0.741333 0.099426 0.005890
0.782806 0.103241 0.006104
0.824799 0.107025 0.006287
0.867188 0.110809 0.006500
0.910004 0.114563 0.006683
0.953064 0.118378 0.006897
0.000031 0.032257 0.006775
0.011627 0.032257 0.000275
0.028870 0.039764 0.000519
0.045502 0.043610 0.000793
0.063080 0.047424 0.001038
0.081604 0.051208 0.001312
0.101135 0.055023 0.001556
0.121765 0.058838 0.001801
0.143677 0.062653 0.002045
0.166931 0.066437 0.002289
0.191620 0.070221 0.002502
0.217590 0.074005 0.002747
0.244965 0.077820 0.002960
0.273560 0.081635 0.003174
0.303406 0.085388 0.003387
0.334442 0.089233 0.003601
0.366699 0.093048 0.003815
0.400024 0.096832 0.004028
0.434387 0.100525 0.004242
0.469818 0.104431 0.004456
0.506134 0.108215 0.004639
0.543365 0.111938 0.004852
0.581482 0.115723 0.005066
0.620422 0.119507 0.005280
0.660065 0.123383 0.005463
0.700348 0.127106 0.005676
0.741333 0.130737 0.005890
0.782806 0.134705 0.006104
0.824799 0.138367 0.006287
0.867188 0.142120 0.006500
0.910004 0.145844 0.006683
0.953064 0.149689 0.006897
0.000061 0.064087 0.012634
0.010010 0.064087 0.000519
0.025146 0.064087 0.000519
0.045502 0.075226 0.000793
0.063080 0.079010 0.001038
0.081604 0.082825 0.001312
0.101135 0.086670 0.001556
0.121765 0.090424 0.001801
0.143677 0.094177 0.002045
0.166931 0.097961 0.002289
0.191620 0.101746 0.002502
0.217590 0.105560 0.002747
0.244965 0.109344 0.002960
0.273560 0.113098 0.003174
0.303406 0.116882 0.003387
0.334442 0.120667 0.003601
0.366699 0.124451 0.003815
0.400024 0.128235 0.004028
0.434387 0.132019 0.004242
0.469818 0.135773 0.004456
0.506134 0.139618 0.004639
0.543365 0.143311 0.004852
0.581482 0.147034 0.005066
0.620422 0.150879 0.005280
0.660065 0.154602 0.005463
0.700348 0.158478 0.005676
0.741333 0.162201 0.005890
0.782806 0.165894 0.006104
0.824799 0.169830 0.006287
0.867188 0.173615 0.006500
0.910004 0.177246 0.006683
0.953064 0.180969 0.006897
0.000092 0.095734 0.018127
0.008392 0.095734 0.000793
0.023376 0.095734 0.000793
0.039581 0.095734 0.000793
0.063080 0.110504 0.001038
0.081604 0.114258 0.001312
0.101135 0.118073 0.001556
0.121765 0.121857 0.001801
0.143677 0.125610 0.002045
0.166931 0.129395 0.002289
0.191620 0.133179 0.002502
0.217590 0.136932 0.002747
0.244965 0.140747 0.002960
0.273560 0.144470 0.003174
0.303406 0.148285 0.003387
0.334442 0.152008 0.003601
0.366699 0.155823 0.003815
0.400024 0.159607 0.004028
0.434387 0.163391 0.004242
0.469818 0.167145 0.004456
0.506134 0.170837 0.004639
0.543365 0.174622 0.004852
0.581482 0.178497 0.005066
0.620422 0.182129 0.005280
0.660065 0.185944 0.005463
0.700348 0.189819 0.005676
0.741333 0.193542 0.005890
0.782806 0.197205 0.006104
0.824799 0.201019 0.006287
0.867188 0.204834 0.006500
0.910004 0.208588 0.006683
0.953064 0.212189 0.006897
0.000122 0.127258 0.023468
0.006805 0.127258 0.001038
0.021637 0.127258 0.001038
0.037720 0.127258 0.001038
0.054810 0.127258 0.001038
0.081604 0.145630 0.001312
0.101135 0.149384 0.001556
0.121765 0.153137 0.001801
0.143677 0.156952 0.002045
0.166931 0.160706 0.002289
0.191620 0.164459 0.002502
0.217590 0.168213 0.002747
0.244965 0.171997 0.002960
0.273560 0.175751 0.003174
0.303406 0.179535 0.003387
0.334442 0.183289 0.003601
0.366699 0.187103 0.003815
0.400024 0.190887 0.004028
0.434387 0.194611 0.004242
0.469818 0.198334 0.004456
0.506134 0.202118 0.004639
0.543365 0.205872 0.004852
0.581482 0.209717 0.005066
0.620422 0.213348 0.005280
0.660065 0.217255 0.005463
0.700348 0.220856 0.005676
0.741333 0.224670 0.005890
0.782806 0.228485 0.006104
0.824799 0.232178 0.006287
0.867188 0.235962 0.006500
0.910004 0.239685 0.006683
0.953064 0.243347 0.006897
0.000183 0.158722 0.028625
0.005310 0.158722 0.001312
0.019867 0.158722 0.001312
0.035889 0.158722 0.001312
0.052826 0.158722 0.001312
0.070740 0.158722 0.001312
0.101135 0.180695 0.001556
0.121765 0.184418 0.001801
0.143677 0.188232 0.002045
0.166931 0.191986 0.002289
0.191620 0.195770 0.002502
0.217590 0.199554 0.002747
0.244965 0.203217 0.002960
0.273560 0.207001 0.003174
0.303406 0.210815 0.003387
0.334442 0.214508 0.003601
0.366699 0.218353 0.003815
0.400024 0.222137 0.004028
0.434387 0.225861 0.004242
0.469818 0.229614 0.004456
0.506134 0.233337 0.004639
0.543365 0.237061 0.004852
0.581482 0.240875 0.005066
0.620422 0.244537 0.005280
0.660065 0.248322 0.005463
0.700348 0.252075 0.005676
0.741333 0.255951 0.005890
0.782806 0.259521 0.006104
0.824799 0.263275 0.006287
0.867188 0.267090 0.006500
0.910004 0.270935 0.006683
0.953064 0.274719 0.006897
0.000214 0.190155 0.033691
0.003815 0.190155 0.001556
0.018188 0.190155 0.001556
0.034027 0.190155 0.001556
0.050873 0.190155 0.001556
0.068665 0.190155 0.001556
0.087433 0.190155 0.001556
0.121765 0.215729 0.001801
0.143677 0.219452 0.002045
0.166931 0.223267 0.002289
0.191620 0.226990 0.002502
0.217590 0.230713 0.002747
0.244965 0.234528 0.002960
0.273560 0.238312 0.003174
0.303406 0.242065 0.003387
0.334442 0.245819 0.003601
0.366699 0.249542 0.003815
0.400024 0.253326 0.004028
0.434387 0.256989 0.004242
0.469818 0.260712 0.004456
0.506134 0.264587 0.004639
0.543365 0.268219 0.004852
0.581482 0.272003 0.005066
0.620422 0.275879 0.005280
0.660065 0.279510 0.005463
0.700348 0.283234 0.005676
0.741333 0.286987 0.005890
0.782806 0.290710 0.006104
0.824799 0.294556 0.006287
0.867188 0.298157 0.006500
0.910004 0.301971 0.006683
0.953064 0.305786 0.006897
0.000244 0.221497 0.038635
0.002380 0.221497 0.001801
0.016449 0.221497 0.001801
0.032227 0.221497 0.001801
0.048950 0.221497 0.001801
0.066620 0.221497 0.001801
0.085266 0.221497 0.001801
0.104919 0.221497 0.001801
0.143677 0.250641 0.002045
0.166931 0.254425 0.002289
0.191620 0.258148 0.002502
0.217590 0.261932 0.002747
0.244965 0.265656 0.002960
0.273560 0.269379 0.003174
0.303406 0.273163 0.003387
0.334442 0.276978 0.003601
0.366699 0.280670 0.003815
0.400024 0.284332 0.004028
0.434387 0.288177 0.004242
0.469818 0.291901 0.004456
0.506134 0.295715 0.004639
0.543365 0.299377 0.004852
0.581482 0.303101 0.005066
0.620422 0.306976 0.005280
0.660065 0.310699 0.005463
0.700348 0.314423 0.005676
0.741333 0.318176 0.005890
0.782806 0.321899 0.006104
0.824799 0.325592 0.006287
0.867188 0.329407 0.006500
0.910004 0.333160 0.006683
0.953064 0.336853 0.006897
0.000275 0.252777 0.043579
0.001038 0.252777 0.002045
0.014771 0.252777 0.002045
0.030365 0.252777 0.002045
0.046997 0.252777 0.002045
0.064636 0.252777 0.002045
0.083130 0.252777 0.002045
0.102631 0.252777 0.002045
0.123291 0.252777 0.002045
0.165802 0.284058 0.002289
0.191620 0.289337 0.002502
0.217590 0.293060 0.002747
0.244965 0.296722 0.002960
0.273560 0.300507 0.003174
0.303406 0.304230 0.003387
0.334442 0.307953 0.003601
0.366699 0.311798 0.003815
0.400024 0.315491 0.004028
0.434387 0.319214 0.004242
0.469818 0.322937 0.004456
0.506134 0.326691 0.004639
0.543365 0.330444 0.004852
0.581482 0.334137 0.005066
0.620422 0.338013 0.005280
0.660065 0.341675 0.005463
0.700348 0.345520 0.005676
0.741333 0.349152 0.005890
0.782806 0.353027 0.006104
0.824799 0.356628 0.006287
0.867188 0.360443 0.006500
0.910004 0.364105 0.006683
0.953064 0.367889 0.006897
0.000336 0.284058 0.048370
0.000336 0.284058 0.004913
0.013092 0.284058 0.002289
0.028534 0.284058 0.002289
0.045074 0.284058 0.002289
0.062531 0.284058 0.002289
0.080994 0.284058 0.002289
0.100464 0.284058 0.002289
0.120941 0.284058 0.002289
0.142700 0.284058 0.002289
0.187408 0.315308 0.002502
0.217590 0.324127 0.002747
0.244965 0.327911 0.002960
0.273560 0.331665 0.003174
0.303406 0.335358 0.003387
0.334442 0.339172 0.003601
0.366699 0.342896 0.003815
0.400024 0.346558 0.004028
0.434387 0.350372 0.004242
0.469818 0.354065 0.004456
0.506134 0.357819 0.004639
0.543365 0.361511 0.004852
0.581482 0.365356 0.005066
0.620422 0.369080 0.005280
0.660065 0.372772 0.005463
0.700348 0.376587 0.005676
0.741333 0.380280 0.005890
0.782806 0.383942 0.006104
0.824799 0.387817 0.006287
0.867188 0.391418 0.006500
0.910004 0.395264 0.006683
0.953064 0.398895 0.006897
0.000366 0.315308 0.053162
0.000366 0.315308 0.010986
0.011444 0.315308 0.002502
0.026733 0.315308 0.002502
0.043182 0.315308 0.002502
0.060547 0.315308 0.002502
0.078888 0.315308 0.002502
0.098145 0.315308 0.002502
0.118561 0.315308 0.002502
0.140198 0.315308 0.002502
0.163116 0.315308 0.002502
0.210205 0.346497 0.002747
0.244965 0.358948 0.002960
0.273560 0.362732 0.003174
0.303406 0.366455 0.003387
0.334442 0.370209 0.003601
0.366699 0.373932 0.003815
0.400024 0.377625 0.004028
0.434387 0.381317 0.004242
0.469818 0.385193 0.004456
0.506134 0.388885 0.004639
0.543365 0.392548 0.004852
0.581482 0.396393 0.005066
0.620422 0.400116 0.005280
0.660065 0.403870 0.005463
0.700348 0.407471 0.005676
0.741333 0.411194 0.005890
0.782806 0.415009 0.006104
0.824799 0.418762 0.006287
0.867188 0.422394 0.006500
0.910004 0.426147 0.006683
0.953064 0.429871 0.006897
0.000397 0.346497 0.057861
0.000397 0.346497 0.016541
0.009827 0.346497 0.002747
0.024933 0.346497 0.002747
0.041260 0.346497 0.002747
0.058563 0.346497 0.002747
0.076752 0.346497 0.002747
0.095978 0.346497 0.002747
0.116211 0.346497 0.002747
0.137665 0.346497 0.002747
0.160522 0.346497 0.002747
0.184662 0.346497 0.002747
0.234070 0.377686 0.002960
0.273560 0.393768 0.003174
0.303406 0.397461 0.003387
0.334442 0.401245 0.003601
0.366699 0.404968 0.003815
0.400024 0.408630 0.004028
0.434387 0.412415 0.004242
0.469818 0.416107 0.004456
0.506134 0.419922 0.004639
0.543365 0.423553 0.004852
0.581482 0.427368 0.005066
0.620422 0.431091 0.005280
0.660065 0.434753 0.005463
0.700348 0.438507 0.005676
0.741333 0.442322 0.005890
0.782806 0.446075 0.006104
0.824799 0.449707 0.006287
0.867188 0.453552 0.006500
0.910004 0.457245 0.006683
0.953064 0.460846 0.006897
0.000427 0.377686 0.062592
0.000427 0.377686 0.021881
0.008240 0.377686 0.002960
0.023163 0.377686 0.002960
0.039368 0.377686 0.002960
0.056549 0.377686 0.002960
0.074646 0.377686 0.002960
0.093750 0.377686 0.002960
0.113831 0.377686 0.002960
0.135193 0.377686 0.002960
0.157837 0.377686 0.002960
0.181854 0.377686 0.002960
0.207275 0.377686 0.002960
0.258759 0.408813 0.003174
0.303406 0.428467 0.003387
0.334442 0.432220 0.003601
0.366699 0.435974 0.003815
0.400024 0.439667 0.004028
0.434387 0.443481 0.004242
0.469818 0.447174 0.004456
0.506134 0.450958 0.004639
0.543365 0.454681 0.004852
0.581482 0.458313 0.005066
0.620422 0.462067 0.005280
0.660065 0.465790 0.005463
0.700348 0.469513 0.005676
0.741333 0.473206 0.005890
0.782806 0.476898 0.006104
0.824799 0.480621 0.006287
0.867188 0.484467 0.006500
0.910004 0.488068 0.006683
0.953064 0.492004 0.006897
0.000488 0.408813 0.067169
0.000488 0.408813 0.027069
0.006653 0.408813 0.003174
0.021423 0.408813 0.003174
0.037506 0.408813 0.003174
0.054565 0.408813 0.003174
0.072601 0.408813 0.003174
0.091492 0.408813 0.003174
0.111481 0.408813 0.003174
0.132751 0.408813 0.003174
0.155243 0.408813 0.003174
0.179138 0.408813 0.003174
0.204346 0.408813 0.003174
0.230927 0.408813 0.003174
0.284454 0.439941 0.003387
0.334442 0.463196 0.003601
0.366699 0.466980 0.003815
0.400024 0.470673 0.004028
0.434387 0.474365 0.004242
0.469818 0.478058 0.004456
0.506134 0.481812 0.004639
0.543365 0.485657 0.004852
0.581482 0.489258 0.005066
0.620422 0.493042 0.005280
0.660065 0.496826 0.005463
0.700348 0.500488 0.005676
0.741333 0.504242 0.005890
0.782806 0.507904 0.006104
0.824799 0.511719 0.006287
0.867188 0.515381 0.006500
0.910004 0.519135 0.006683
0.953064 0.522919 0.006897
0.000549 0.439941 0.071808
0.000549 0.439941 0.032227
0.005127 0.439941 0.003387
0.019684 0.439941 0.003387
0.035645 0.439941 0.003387
0.052643 0.439941 0.003387
0.070557 0.439941 0.003387
0.089325 0.439941 0.003387
0.109192 0.439941 0.003387
0.130280 0.439941 0.003387
0.152649 0.439941 0.003387
0.176331 0.439941 0.003387
0.201447 0.439941 0.003387
0.227905 0.439941 0.003387
0.255554 0.439941 0.003387
0.311249 0.471039 0.003601
0.366699 0.497925 0.003815
0.400024 0.501617 0.004028
0.434387 0.505402 0.004242
0.469818 0.509094 0.004456
0.506134 0.512787 0.004639
0.543365 0.516571 0.004852
0.581482 0.520172 0.005066
0.620422 0.523987 0.005280
0.660065 0.527649 0.005463
0.700348 0.531494 0.005676
0.741333 0.535065 0.005890
0.782806 0.538910 0.006104
0.824799 0.542603 0.006287
0.867188 0.546234 0.006500
0.910004 0.549927 0.006683
0.953064 0.553833 0.006897
0.000580 0.471039 0.076324
0.000580 0.471039 0.037170
0.003632 0.471039 0.003601
0.017944 0.471039 0.003601
0.033783 0.471039 0.003601
0.050659 0.471039 0.003601
0.068481 0.471039 0.003601
0.087219 0.471039 0.003601
0.106903 0.471039 0.003601
0.127899 0.471039 0.003601
0.150055 0.471039 0.003601
0.173645 0.471039 0.003601
0.198578 0.471039 0.003601
0.224823 0.471039 0.003601
0.252380 0.471039 0.003601
0.281219 0.471039 0.003601
0.338959 0.502167 0.003815
0.400024 0.532593 0.004028
0.434387 0.536255 0.004242
0.469818 0.539948 0.004456
0.506134 0.543762 0.004639
0.543365 0.547516 0.004852
0.581482 0.551239 0.005066
0.620422 0.554871 0.005280
0.660065 0.558624 0.005463
0.700348 0.562256 0.005676
0.741333 0.566071 0.005890
0.782806 0.569702 0.006104
0.824799 0.573456 0.006287
0.867188 0.577332 0.006500
0.910004 0.580963 0.006683
0.953064 0.584717 0.006897
0.000610 0.502167 0.080872
0.000610 0.502167 0.042053
0.002197 0.502167 0.003815
0.016235 0.502167 0.003815
0.031952 0.502167 0.003815
0.048737 0.502167 0.003815
0.066437 0.502167 0.003815
0.085022 0.502167 0.003815
0.104675 0.502167 0.003815
0.125458 0.502167 0.003815
0.147461 0.502167 0.003815
0.170898 0.502167 0.003815
0.195709 0.502167 0.003815
0.221832 0.502167 0.003815
0.249268 0.502167 0.003815
0.277954 0.502167 0.003815
0.307831 0.502167 0.003815
0.367523 0.533234 0.004028
0.431061 0.564270 0.004242
0.469818 0.570953 0.004456
0.506134 0.574707 0.004639
0.543365 0.578430 0.004852
0.581482 0.582123 0.005066
0.620422 0.585754 0.005280
0.660065 0.589630 0.005463
0.700348 0.593353 0.005676
0.741333 0.597076 0.005890
0.782806 0.600647 0.006104
0.824799 0.604492 0.006287
0.867188 0.608185 0.006500
0.910004 0.611969 0.006683
0.953064 0.615570 0.006897
0.000641 0.533234 0.085358
0.000641 0.533234 0.046875
0.000885 0.533234 0.004028
0.014587 0.533234 0.004028
0.030151 0.533234 0.004028
0.046814 0.533234 0.004028
0.064392 0.533234 0.004028
0.082825 0.533234 0.004028
0.102356 0.533234 0.004028
0.123016 0.533234 0.004028
0.144897 0.533234 0.004028
0.168152 0.533234 0.004028
0.192810 0.533234 0.004028
0.218811 0.533234 0.004028
0.246063 0.533234 0.004028
0.274628 0.533234 0.004028
0.304413 0.533234 0.004028
0.335388 0.533234 0.004028
0.396790 0.564270 0.004242
0.462189 0.595306 0.004456
0.506134 0.605621 0.004639
0.543365 0.609344 0.004852
0.581482 0.612976 0.005066
0.620422 0.616638 0.005280
0.660065 0.620392 0.005463
0.700348 0.624115 0.005676
0.741333 0.627869 0.005890
0.782806 0.631622 0.006104
0.824799 0.635345 0.006287
0.867188 0.639008 0.006500
0.910004 0.642731 0.006683
0.953064 0.646423 0.006897
0.000702 0.564270 0.089844
0.000702 0.564270 0.051819
0.000702 0.564270 0.009125
0.012909 0.564270 0.004242
0.028320 0.564270 0.004242
0.044891 0.564270 0.004242
0.062347 0.564270 0.004242
0.080750 0.564270 0.004242
0.100098 0.564270 0.004242
0.120667 0.564270 0.004242
0.142334 0.564270 0.004242
0.165527 0.564270 0.004242
0.190033 0.564270 0.004242
0.215790 0.564270 0.004242
0.242981 0.564270 0.004242
0.271332 0.564270 0.004242
0.300995 0.564270 0.004242
0.331909 0.564270 0.004242
0.363800 0.564270 0.004242
0.427246 0.595306 0.004456
0.494171 0.626312 0.004639
0.543365 0.640198 0.004852
0.581482 0.643860 0.005066
0.620422 0.647705 0.005280
0.660065 0.651306 0.005463
0.700348 0.655029 0.005676
0.741333 0.658844 0.005890
0.782806 0.662537 0.006104
0.824799 0.666168 0.006287
0.867188 0.669830 0.006500
0.910004 0.673706 0.006683
0.953064 0.677246 0.006897
0.000732 0.595306 0.094299
0.000732 0.595306 0.056366
0.000732 0.595306 0.014832
0.011292 0.595306 0.004456
0.026520 0.595306 0.004456
0.042969 0.595306 0.004456
0.060303 0.595306 0.004456
0.078644 0.595306 0.004456
0.097870 0.595306 0.004456
0.118286 0.595306 0.004456
0.139923 0.595306 0.004456
0.162811 0.595306 0.004456
0.187195 0.595306 0.004456
0.212769 0.595306 0.004456
0.239838 0.595306 0.004456
0.268005 0.595306 0.004456
0.297607 0.595306 0.004456
0.328339 0.595306 0.004456
0.360138 0.595306 0.004456
0.393158 0.595306 0.004456
0.458252 0.626312 0.004639
0.526733 0.657288 0.004852
0.581482 0.674835 0.005066
0.620422 0.678558 0.005280
0.660065 0.682251 0.005463
0.700348 0.685913 0.005676
0.741333 0.689575 0.005890
0.782806 0.693268 0.006104
0.824799 0.697144 0.006287
0.867188 0.700867 0.006500
0.910004 0.704468 0.006683
0.953064 0.708313 0.006897
0.000793 0.626312 0.098724
0.000793 0.626312 0.061096
0.000793 0.626312 0.020142
0.009613 0.626312 0.004639
0.024719 0.626312 0.004639
0.041077 0.626312 0.004639
0.058350 0.626312 0.004639
0.076569 0.626312 0.004639
0.095673 0.626312 0.004639
0.115936 0.626312 0.004639
0.137421 0.626312 0.004639
0.160217 0.626312 0.004639
0.184418 0.626312 0.004639
0.209839 0.626312 0.004639
0.236694 0.626312 0.004639
0.264862 0.626312 0.004639
0.294250 0.626312 0.004639
0.324860 0.626312 0.004639
0.356476 0.626312 0.004639
0.389343 0.626312 0.004639
0.423279 0.626312 0.004639
0.490021 0.657288 0.004852
0.559967 0.688263 0.005066
0.620422 0.709381 0.005280
0.660065 0.712982 0.005463
0.700348 0.716766 0.005676
0.741333 0.720520 0.005890
0.782806 0.724152 0.006104
0.824799 0.727966 0.006287
0.867188 0.731628 0.006500
0.910004 0.735382 0.006683
0.953064 0.739105 0.006897
0.000854 0.657288 0.103088
0.000854 0.657288 0.065796
0.000854 0.657288 0.025513
0.007996 0.657288 0.004852
0.022949 0.657288 0.004852
0.039154 0.657288 0.004852
0.056305 0.657288 0.004852
0.074432 0.657288 0.004852
0.093445 0.657288 0.004852
0.113556 0.657288 0.004852
0.134857 0.657288 0.004852
0.157501 0.657288 0.004852
0.181610 0.657288 0.004852
0.207001 0.657288 0.004852
0.233673 0.657288 0.004852
0.261688 0.657288 0.004852
0.290894 0.657288 0.004852
0.321350 0.657288 0.004852
0.352936 0.657288 0.004852
0.385620 0.657288 0.004852
0.419434 0.657288 0.004852
0.454224 0.657288 0.004852
0.522491 0.688263 0.005066
0.593994 0.719269 0.005280
0.660065 0.743866 0.005463
0.700348 0.747650 0.005676
0.741333 0.751251 0.005890
0.782806 0.755035 0.006104
0.824799 0.758728 0.006287
0.867188 0.762421 0.006500
0.910004 0.766113 0.006683
0.953064 0.769928 0.006897
0.000885 0.688263 0.107452
0.000885 0.688263 0.070435
0.000885 0.688263 0.030670
0.006500 0.688263 0.005066
0.021240 0.688263 0.005066
0.037323 0.688263 0.005066
0.054382 0.688263 0.005066
0.072296 0.688263 0.005066
0.091248 0.688263 0.005066
0.111328 0.688263 0.005066
0.132477 0.688263 0.005066
0.154938 0.688263 0.005066
0.178741 0.688263 0.005066
0.203979 0.688263 0.005066
0.230499 0.688263 0.005066
0.258484 0.688263 0.005066
0.287506 0.688263 0.005066
0.317810 0.688263 0.005066
0.349243 0.688263 0.005066
0.381989 0.688263 0.005066
0.415619 0.688263 0.005066
0.450287 0.688263 0.005066
0.485962 0.688263 0.005066
0.555786 0.719269 0.005280
0.628510 0.750214 0.005463
0.700348 0.778320 0.005676
0.741333 0.782166 0.005890
0.782806 0.785736 0.006104
0.824799 0.789459 0.006287
0.867188 0.793152 0.006500
0.910004 0.797028 0.006683
0.953064 0.800690 0.006897
0.000916 0.719269 0.111816
0.000916 0.719269 0.074951
0.000916 0.719269 0.035675
0.004944 0.719269 0.005280
0.019440 0.719269 0.005280
0.035431 0.719269 0.005280
0.052460 0.719269 0.005280
0.070343 0.719269 0.005280
0.089172 0.719269 0.005280
0.109009 0.719269 0.005280
0.130005 0.719269 0.005280
0.152344 0.719269 0.005280
0.176056 0.719269 0.005280
0.201111 0.719269 0.005280
0.227509 0.719269 0.005280
0.255188 0.719269 0.005280
0.284088 0.719269 0.005280
0.314270 0.719269 0.005280
0.345764 0.719269 0.005280
0.378235 0.719269 0.005280
0.411774 0.719269 0.005280
0.446350 0.719269 0.005280
0.481934 0.719269 0.005280
0.518433 0.719269 0.005280
0.589783 0.750214 0.005463
0.663788 0.781128 0.005676
0.740295 0.812073 0.005890
0.782806 0.816589 0.006104
0.824799 0.820435 0.006287
0.867188 0.824127 0.006500
0.910004 0.827698 0.006683
0.953064 0.831451 0.006897
0.000946 0.750214 0.116119
0.000946 0.750214 0.079407
0.000946 0.750214 0.040649
0.003510 0.750214 0.005463
0.017792 0.750214 0.005463
0.033539 0.750214 0.005463
0.050446 0.750214 0.005463
0.068268 0.750214 0.005463
0.086884 0.750214 0.005463
0.106689 0.750214 0.005463
0.127625 0.750214 0.005463
0.149689 0.750214 0.005463
0.173309 0.750214 0.005463
0.198273 0.750214 0.005463
0.224426 0.750214 0.005463
0.252075 0.750214 0.005463
0.280914 0.750214 0.005463
0.310822 0.750214 0.005463
0.342102 0.750214 0.005463
0.374512 0.750214 0.005463
0.407837 0.750214 0.005463
0.442352 0.750214 0.005463
0.477905 0.750214 0.005463
0.514160 0.750214 0.005463
0.551575 0.750214 0.005463
0.624207 0.781128 0.005676
0.699402 0.812073 0.005890
0.776794 0.842987 0.006104
0.824799 0.851166 0.006287
0.867188 0.854889 0.006500
0.910004 0.858612 0.006683
0.953064 0.862244 0.006897
0.001007 0.781128 0.120483
0.001007 0.781128 0.083923
0.001007 0.781128 0.045319
0.002075 0.781128 0.005676
0.016022 0.781128 0.005676
0.031738 0.781128 0.005676
0.048492 0.781128 0.005676
0.066193 0.781128 0.005676
0.084808 0.781128 0.005676
0.104462 0.781128 0.005676
0.125122 0.781128 0.005676
0.147125 0.781128 0.005676
0.170593 0.781128 0.005676
0.195374 0.781128 0.005676
0.221497 0.781128 0.005676
0.248749 0.781128 0.005676
0.277649 0.781128 0.005676
0.307373 0.781128 0.005676
0.338501 0.781128 0.005676
0.370758 0.781128 0.005676
0.404083 0.781128 0.005676
0.438507 0.781128 0.005676
0.473663 0.781128 0.005676
0.510040 0.781128 0.005676
0.547272 0.781128 0.005676
0.585327 0.781128 0.005676
0.659393 0.812073 0.005890
0.735413 0.842987 0.006104
0.813904 0.873901 0.006287
0.867188 0.885590 0.006500
0.910004 0.889252 0.006683
0.953064 0.892975 0.006897
0.001038 0.812073 0.124725
0.001038 0.812073 0.088593
0.001038 0.812073 0.050262
0.001038 0.812073 0.007172
0.014374 0.812073 0.005890
0.029938 0.812073 0.005890
0.046539 0.812073 0.005890
0.064178 0.812073 0.005890
0.082611 0.812073 0.005890
0.102142 0.812073 0.005890
0.122742 0.812073 0.005890
0.144653 0.812073 0.005890
0.167816 0.812073 0.005890
0.192474 0.812073 0.005890
0.218384 0.812073 0.005890
0.245697 0.812073 0.005890
0.274353 0.812073 0.005890
0.304016 0.812073 0.005890
0.335022 0.812073 0.005890
0.367035 0.812073 0.005890
0.400330 0.812073 0.005890
0.434448 0.812073 0.005890
0.469818 0.812073 0.005890
0.505890 0.812073 0.005890
0.543091 0.812073 0.005890
0.580933 0.812073 0.005890
0.619812 0.812073 0.005890
0.694946 0.842987 0.006104
0.771973 0.873901 0.006287
0.851288 0.904785 0.006500
0.910004 0.920135 0.006683
0.953064 0.923706 0.006897
0.001099 0.842987 0.129028
0.001099 0.842987 0.092834
0.001099 0.842987 0.055115
0.001099 0.842987 0.013153
0.012726 0.842987 0.006104
0.028046 0.842987 0.006104
0.044647 0.842987 0.006104
0.062134 0.842987 0.006104
0.080536 0.842987 0.006104
0.099854 0.842987 0.006104
0.120392 0.842987 0.006104
0.142181 0.842987 0.006104
0.165131 0.842987 0.006104
0.189636 0.842987 0.006104
0.215485 0.842987 0.006104
0.242493 0.842987 0.006104
0.270935 0.842987 0.006104
0.300598 0.842987 0.006104
