projects/GameEngine/res/luts/Desert.CUBE
#Created by: Adobe Photoshop Export Color Lookup Plugin
TITLE "Desert"
#LUT size
LUT_3D_SIZE 32
#data domain
DOMAIN_MIN 0.0 0.0 0.0
DOMAIN_MAX 1.0 1.0 1.0
#LUT data points
0.060608 0.060608 0.060608
0.091736 0.060303 0.060303
0.141022 0.059418 0.059418
0.190399 0.058044 0.058044
0.238251 0.056366 0.056366
0.284149 0.054474 0.054474
0.328369 0.052368 0.052368
0.370972 0.050018 0.050018
0.412201 0.047272 0.047272
0.452148 0.044128 0.044128
0.490784 0.040710 0.040710
0.528290 0.036804 0.036804
0.564728 0.032562 0.032562
0.600128 0.028198 0.028198
0.634521 0.023682 0.023682
0.667999 0.018951 0.018951
0.701263 0.013977 0.013977
0.735168 0.008362 0.008362
0.769745 0.002472 0.002472
0.804779 0.000000 0.000000
0.840149 0.000000 0.000000
0.875793 0.000000 0.000000
0.911560 0.000000 0.000000
0.947235 0.000000 0.000000
0.982758 0.000000 0.000000
1.000000 0.000000 0.000000
1.000000 0.000000 0.000000
1.000000 0.000000 0.000000
1.000000 0.000000 0.000000
1.000000 0.000000 0.000000
1.000000 0.000000 0.000000
1.000000 0.000000 0.000000
0.059814 0.088867 0.059814
0.091248 0.088654 0.059479
0.140656 0.088013 0.058685
0.190155 0.087067 0.057312
0.238068 0.085846 0.055634
0.283997 0.084503 0.053711
0.328217 0.082977 0.051605
0.370850 0.081299 0.049225
0.412109 0.079346 0.046417
0.452057 0.077240 0.043274
0.490723 0.074951 0.039795
0.528229 0.072479 0.035858
0.564667 0.069702 0.031616
0.600067 0.066681 0.027283
0.634460 0.063416 0.022736
0.667938 0.059937 0.018036
0.701202 0.055939 0.013031
0.735107 0.051453 0.007416
0.769684 0.046326 0.001556
0.804718 0.040375 0.000000
0.840118 0.033508 0.000000
0.875763 0.026245 0.000000
0.911530 0.018646 0.000000
0.947174 0.010529 0.000000
0.982727 0.002106 0.000000
1.000000 0.000000 0.000000
1.000000 0.000000 0.000000
1.000000 0.000000 0.000000
1.000000 0.000000 0.000000
1.000000 0.000000 0.000000
1.000000 0.000000 0.000000
1.000000 0.000000 0.000000
0.057800 0.135803 0.057800
0.089874 0.135651 0.057465
0.139893 0.135284 0.056671
0.189545 0.134644 0.055542
0.237610 0.133820 0.053802
0.283630 0.132904 0.051880
0.327911 0.131897 0.049744
0.370575 0.130798 0.047272
0.411865 0.129547 0.044373
0.451843 0.128174 0.041199
0.490540 0.126740 0.037567
0.528046 0.125153 0.033569
0.564514 0.123413 0.029388
0.599915 0.121613 0.025085
0.634308 0.119720 0.020538
0.667816 0.117706 0.015839
0.701080 0.115540 0.010712
0.734985 0.113159 0.005219
0.769592 0.110474 0.000000
0.804626 0.107513 0.000000
0.839996 0.104279 0.000000
0.875671 0.100739 0.000000
0.911438 0.096863 0.000000
0.947113 0.092682 0.000000
0.982635 0.088104 0.000000
1.000000 0.084351 0.000000
1.000000 0.084351 0.000000
1.000000 0.084351 0.000000
1.000000 0.084351 0.000000
1.000000 0.084351 0.000000
1.000000 0.084351 0.000000
1.000000 0.084351 0.000000
0.054932 0.183777 0.054932
0.087860 0.183655 0.054565
0.138580 0.183380 0.053772
0.188751 0.182983 0.052612
0.236969 0.182373 0.051056
0.283081 0.181702 0.049164
0.327454 0.180939 0.046936
0.370209 0.180115 0.044281
0.411530 0.179230 0.041382
0.451538 0.178284 0.038025
0.490234 0.177216 0.034271
0.527802 0.176086 0.030304
0.564301 0.174896 0.026215
0.599701 0.173645 0.021881
0.634125 0.172302 0.017365
0.667633 0.170898 0.012634
0.700928 0.169434 0.007446
0.734833 0.167786 0.002045
0.769440 0.165985 0.000000
0.804474 0.164062 0.000000
0.839874 0.161957 0.000000
0.875549 0.159637 0.000000
0.911316 0.157227 0.000000
0.946991 0.154602 0.000000
0.982544 0.151794 0.000000
1.000000 0.149628 0.000000
1.000000 0.149628 0.000000
1.000000 0.149628 0.000000
1.000000 0.149628 0.000000
1.000000 0.149628 0.000000
1.000000 0.149628 0.000000
1.000000 0.149628 0.000000
0.051178 0.230560 0.051178
0.085266 0.230469 0.050842
0.136871 0.230255 0.050049
0.187531 0.229950 0.048859
0.236115 0.229553 0.047272
0.282410 0.229004 0.045288
0.326874 0.228424 0.043060
0.369690 0.227753 0.040375
0.411102 0.227051 0.037262
0.451141 0.226288 0.033783
0.489899 0.225464 0.030090
0.527466 0.224609 0.026215
0.563995 0.223694 0.022095
0.599426 0.222717 0.017761
0.633850 0.221710 0.013245
0.667389 0.220673 0.008331
0.700684 0.219513 0.003326
0.734619 0.218292 0.000000
0.769226 0.216949 0.000000
0.804291 0.215485 0.000000
0.839691 0.213928 0.000000
0.875366 0.212250 0.000000
0.911163 0.210449 0.000000
0.946838 0.208527 0.000000
0.982391 0.206543 0.000000
1.000000 0.204956 0.000000
1.000000 0.204956 0.000000
1.000000 0.204956 0.000000
1.000000 0.204956 0.000000
1.000000 0.204956 0.000000
1.000000 0.204956 0.000000
1.000000 0.204956 0.000000
0.046661 0.275726 0.046661
0.082184 0.275635 0.046295
0.134888 0.275482 0.045380
0.186066 0.275238 0.044098
0.234955 0.274933 0.042480
0.281555 0.274536 0.040466
0.326172 0.274017 0.038055
0.369080 0.273468 0.035309
0.410553 0.272888 0.032135
0.450684 0.272247 0.028717
0.489441 0.271606 0.025116
0.527069 0.270905 0.021240
0.563629 0.270172 0.017120
0.599091 0.269379 0.012787
0.633545 0.268555 0.008087
0.667114 0.267670 0.003357
0.700409 0.266785 0.000000
0.734375 0.265808 0.000000
0.768982 0.264709 0.000000
0.804077 0.263580 0.000000
0.839478 0.262329 0.000000
0.875153 0.260986 0.000000
0.910980 0.259583 0.000000
0.946655 0.258057 0.000000
0.982208 0.256500 0.000000
1.000000 0.255280 0.000000
1.000000 0.255280 0.000000
1.000000 0.255280 0.000000
1.000000 0.255280 0.000000
1.000000 0.255280 0.000000
1.000000 0.255280 0.000000
1.000000 0.255280 0.000000
0.041199 0.319275 0.041199
0.078583 0.319214 0.040802
0.132599 0.319092 0.039825
0.184387 0.318878 0.038452
0.233643 0.318634 0.036682
0.280487 0.318329 0.034515
0.325348 0.317932 0.031982
0.368378 0.317474 0.029236
0.409943 0.316956 0.026245
0.450104 0.316437 0.022919
0.488953 0.315887 0.019287
0.526611 0.315277 0.015411
0.563202 0.314636 0.011230
0.598694 0.313995 0.006805
0.633179 0.313293 0.002289
0.666779 0.312592 0.000000
0.700104 0.311829 0.000000
0.734070 0.311005 0.000000
0.768707 0.310120 0.000000
0.803802 0.309174 0.000000
0.839233 0.308105 0.000000
0.874939 0.307007 0.000000
0.910736 0.305847 0.000000
0.946442 0.304596 0.000000
0.981995 0.303284 0.000000
1.000000 0.302277 0.000000
1.000000 0.302277 0.000000
1.000000 0.302277 0.000000
1.000000 0.302277 0.000000
1.000000 0.302277 0.000000
1.000000 0.302277 0.000000
1.000000 0.302277 0.000000
0.034485 0.361450 0.034485
0.074402 0.361389 0.034058
0.130005 0.361267 0.033051
0.182495 0.361084 0.031647
0.232178 0.360870 0.029907
0.279297 0.360596 0.027802
0.324341 0.360291 0.025360
0.367554 0.359955 0.022614
0.409210 0.359497 0.019562
0.449493 0.359039 0.016266
0.488373 0.358551 0.012695
0.526093 0.358032 0.008636
0.562744 0.357513 0.004517
0.598267 0.356934 0.000214
0.632782 0.356354 0.000000
0.666382 0.355743 0.000000
0.699738 0.355072 0.000000
0.733734 0.354370 0.000000
0.768372 0.353607 0.000000
0.803497 0.352783 0.000000
0.838928 0.351898 0.000000
0.874664 0.350952 0.000000
0.910492 0.349945 0.000000
0.946198 0.348907 0.000000
0.981781 0.347809 0.000000
1.000000 0.346924 0.000000
1.000000 0.346924 0.000000
1.000000 0.346924 0.000000
1.000000 0.346924 0.000000
1.000000 0.346924 0.000000
1.000000 0.346924 0.000000
1.000000 0.346924 0.000000
0.027008 0.402313 0.027008
0.069550 0.402283 0.026611
0.127045 0.402161 0.025635
0.180420 0.402008 0.024292
0.230560 0.401825 0.022552
0.277985 0.401581 0.020447
0.323212 0.401337 0.018005
0.366608 0.401031 0.015259
0.408417 0.400665 0.012177
0.448792 0.400238 0.008667
0.487762 0.399811 0.005096
0.525513 0.399353 0.001282
0.562195 0.398865 0.000000
0.597778 0.398376 0.000000
0.632324 0.397858 0.000000
0.665955 0.397308 0.000000
0.699341 0.396759 0.000000
0.733337 0.396149 0.000000
0.768036 0.395477 0.000000
0.803162 0.394745 0.000000
0.838623 0.393982 0.000000
0.874359 0.393158 0.000000
0.910217 0.392273 0.000000
0.945923 0.391357 0.000000
0.981506 0.390411 0.000000
1.000000 0.389648 0.000000
1.000000 0.389648 0.000000
1.000000 0.389648 0.000000
1.000000 0.389648 0.000000
1.000000 0.389648 0.000000
1.000000 0.389648 0.000000
1.000000 0.389648 0.000000
0.018951 0.441986 0.018951
0.063782 0.441956 0.018524
0.123718 0.441864 0.017578
0.178162 0.441711 0.016205
0.228821 0.441559 0.014465
0.276550 0.441345 0.012329
0.322021 0.441101 0.009766
0.365570 0.440826 0.006989
0.407501 0.440521 0.003937
0.447998 0.440186 0.000580
0.487030 0.439789 0.000000
0.524872 0.439392 0.000000
0.561615 0.438934 0.000000
0.597229 0.438507 0.000000
0.631805 0.438049 0.000000
0.665466 0.437561 0.000000
0.698883 0.437073 0.000000
0.732941 0.436523 0.000000
0.767639 0.435913 0.000000
0.802795 0.435272 0.000000
0.838287 0.434601 0.000000
0.874023 0.433868 0.000000
0.909882 0.433075 0.000000
0.945618 0.432281 0.000000
0.981232 0.431427 0.000000
1.000000 0.430756 0.000000
1.000000 0.430756 0.000000
1.000000 0.430756 0.000000
1.000000 0.430756 0.000000
1.000000 0.430756 0.000000
1.000000 0.430756 0.000000
1.000000 0.430756 0.000000
0.010040 0.480438 0.010040
0.057098 0.480408 0.009613
0.120056 0.480316 0.008636
0.175598 0.480225 0.007263
0.226898 0.480072 0.005524
0.274994 0.479858 0.003418
0.320709 0.479645 0.001007
0.364441 0.479401 0.000000
0.406525 0.479126 0.000000
0.447113 0.478851 0.000000
0.486267 0.478516 0.000000
0.524170 0.478119 0.000000
0.560974 0.477753 0.000000
0.596649 0.477325 0.000000
0.631256 0.476929 0.000000
0.664978 0.476501 0.000000
0.698425 0.476044 0.000000
0.732483 0.475525 0.000000
0.767212 0.475006 0.000000
0.802399 0.474426 0.000000
0.837891 0.473816 0.000000
0.873657 0.473145 0.000000
0.909546 0.472473 0.000000
0.945312 0.471741 0.000000
0.980927 0.470978 0.000000
1.000000 0.470367 0.000000
1.000000 0.470367 0.000000
1.000000 0.470367 0.000000
1.000000 0.470367 0.000000
1.000000 0.470367 0.000000
1.000000 0.470367 0.000000
1.000000 0.470367 0.000000
0.000641 0.517822 0.000641
0.049377 0.517792 0.000214
0.116058 0.517700 0.000000
0.172852 0.517609 0.000000
0.224823 0.517456 0.000000
0.273346 0.517303 0.000000
0.319336 0.517090 0.000000
0.363251 0.516876 0.000000
0.405457 0.516632 0.000000
0.446167 0.516357 0.000000
0.485443 0.516052 0.000000
0.523438 0.515747 0.000000
0.560303 0.515381 0.000000
0.596008 0.515015 0.000000
0.630676 0.514618 0.000000
0.664429 0.514221 0.000000
0.697906 0.513824 0.000000
0.731995 0.513367 0.000000
0.766754 0.512878 0.000000
0.801971 0.512360 0.000000
0.837494 0.511780 0.000000
0.873291 0.511200 0.000000
0.909180 0.510559 0.000000
0.944946 0.509918 0.000000
0.980591 0.509216 0.000000
1.000000 0.508667 0.000000
1.000000 0.508667 0.000000
1.000000 0.508667 0.000000
1.000000 0.508667 0.000000
1.000000 0.508667 0.000000
1.000000 0.508667 0.000000
1.000000 0.508667 0.000000
0.000000 0.554199 0.000000
0.040100 0.554169 0.000000
0.111572 0.554077 0.000000
0.169922 0.553986 0.000000
0.222595 0.553864 0.000000
0.271545 0.553711 0.000000
0.317841 0.553528 0.000000
0.361969 0.553314 0.000000
0.404327 0.553101 0.000000
0.445190 0.552856 0.000000
0.484528 0.552582 0.000000
0.522614 0.552307 0.000000
0.559570 0.551971 0.000000
0.595337 0.551636 0.000000
0.630066 0.551270 0.000000
0.663849 0.550903 0.000000
0.697357 0.550537 0.000000
0.731476 0.550110 0.000000
0.766266 0.549683 0.000000
0.801514 0.549194 0.000000
0.837067 0.548676 0.000000
0.872864 0.548126 0.000000
0.908783 0.547546 0.000000
0.944580 0.546936 0.000000
0.980255 0.546326 0.000000
1.000000 0.545837 0.000000
1.000000 0.545837 0.000000
1.000000 0.545837 0.000000
1.000000 0.545837 0.000000
1.000000 0.545837 0.000000
1.000000 0.545837 0.000000
1.000000 0.545837 0.000000
0.000000 0.589539 0.000000
0.029358 0.589508 0.000000
0.106689 0.589447 0.000000
0.166718 0.589355 0.000000
0.220245 0.589233 0.000000
0.269684 0.589081 0.000000
0.316284 0.588928 0.000000
0.360626 0.588715 0.000000
0.403168 0.588531 0.000000
0.444122 0.588287 0.000000
0.483582 0.588043 0.000000
0.521759 0.587769 0.000000
0.558777 0.587494 0.000000
0.594604 0.587189 0.000000
0.629395 0.586853 0.000000
0.663208 0.586517 0.000000
0.696777 0.586182 0.000000
0.730927 0.585785 0.000000
0.765747 0.585388 0.000000
0.801025 0.584930 0.000000
0.836609 0.584442 0.000000
0.872437 0.583954 0.000000
0.908386 0.583405 0.000000
0.944183 0.582855 0.000000
0.979858 0.582275 0.000000
1.000000 0.581818 0.000000
1.000000 0.581818 0.000000
1.000000 0.581818 0.000000
1.000000 0.581818 0.000000
1.000000 0.581818 0.000000
1.000000 0.581818 0.000000
1.000000 0.581818 0.000000
0.000000 0.623962 0.000000
0.018280 0.623932 0.000000
0.101288 0.623871 0.000000
0.163330 0.623779 0.000000
0.217712 0.623688 0.000000
0.267670 0.623535 0.000000
0.314606 0.623383 0.000000
0.359192 0.623199 0.000000
0.401917 0.623016 0.000000
0.443024 0.622803 0.000000
0.482605 0.622559 0.000000
0.520844 0.622314 0.000000
0.557953 0.622070 0.000000
0.593842 0.621796 0.000000
0.628693 0.621490 0.000000
0.662567 0.621185 0.000000
0.696167 0.620850 0.000000
0.730377 0.620483 0.000000
0.765228 0.620117 0.000000
0.800507 0.619690 0.000000
0.836121 0.619263 0.000000
0.871979 0.618774 0.000000
0.907959 0.618286 0.000000
0.943787 0.617767 0.000000
0.979492 0.617218 0.000000
1.000000 0.616791 0.000000
1.000000 0.616791 0.000000
1.000000 0.616791 0.000000
1.000000 0.616791 0.000000
1.000000 0.616791 0.000000
1.000000 0.616791 0.000000
1.000000 0.616791 0.000000
0.000000 0.657501 0.000000
0.006531 0.657471 0.000000
0.095398 0.657410 0.000000
0.159637 0.657349 0.000000
0.215057 0.657227 0.000000
0.265564 0.657104 0.000000
0.312866 0.656952 0.000000
0.357727 0.656799 0.000000
0.400635 0.656616 0.000000
0.441895 0.656403 0.000000
0.481567 0.656189 0.000000
0.519897 0.655975 0.000000
0.557098 0.655731 0.000000
0.593048 0.655457 0.000000
0.627960 0.655182 0.000000
0.661896 0.654907 0.000000
0.695526 0.654602 0.000000
0.729767 0.654266 0.000000
0.764648 0.653900 0.000000
0.799988 0.653503 0.000000
0.835602 0.653107 0.000000
0.871521 0.652649 0.000000
0.907501 0.652191 0.000000
0.943359 0.651703 0.000000
0.979065 0.651215 0.000000
1.000000 0.650818 0.000000
1.000000 0.650818 0.000000
1.000000 0.650818 0.000000
1.000000 0.650818 0.000000
1.000000 0.650818 0.000000
1.000000 0.650818 0.000000
1.000000 0.650818 0.000000
0.000000 0.690765 0.000000
0.000000 0.690765 0.000000
0.088745 0.690704 0.000000
0.155701 0.690613 0.000000
0.212219 0.690521 0.000000
0.263336 0.690399 0.000000
0.311035 0.690277 0.000000
0.356140 0.690125 0.000000
0.399261 0.689941 0.000000
0.440643 0.689758 0.000000
0.480469 0.689575 0.000000
0.518921 0.689362 0.000000
0.556152 0.689117 0.000000
0.592224 0.688873 0.000000
0.627167 0.688629 0.000000
0.661163 0.688354 0.000000
0.694855 0.688080 0.000000
0.729126 0.687775 0.000000
0.764069 0.687408 0.000000
0.799408 0.687042 0.000000
0.835083 0.686676 0.000000
0.871002 0.686249 0.000000
0.907013 0.685822 0.000000
0.942902 0.685364 0.000000
0.978638 0.684875 0.000000
1.000000 0.684509 0.000000
1.000000 0.684509 0.000000
1.000000 0.684509 0.000000
1.000000 0.684509 0.000000
1.000000 0.684509 0.000000
1.000000 0.684509 0.000000
1.000000 0.684509 0.000000
0.000000 0.724792 0.000000
0.000000 0.724762 0.000000
0.080994 0.724701 0.000000
0.151245 0.724640 0.000000
0.209045 0.724548 0.000000
0.260864 0.724426 0.000000
0.309021 0.724304 0.000000
0.354431 0.724152 0.000000
0.397766 0.723999 0.000000
0.439331 0.723816 0.000000
0.479279 0.723633 0.000000
0.517822 0.723419 0.000000
0.555176 0.723206 0.000000
0.591278 0.722992 0.000000
0.626312 0.722748 0.000000
0.660339 0.722504 0.000000
0.694092 0.722229 0.000000
0.728424 0.721954 0.000000
0.763397 0.721619 0.000000
0.798798 0.721283 0.000000
0.834503 0.720917 0.000000
0.870453 0.720551 0.000000
0.906494 0.720123 0.000000
0.942413 0.719696 0.000000
0.978180 0.719269 0.000000
1.000000 0.718903 0.000000
1.000000 0.718903 0.000000
1.000000 0.718903 0.000000
1.000000 0.718903 0.000000
1.000000 0.718903 0.000000
1.000000 0.718903 0.000000
1.000000 0.718903 0.000000
0.000000 0.759430 0.000000
0.000000 0.759430 0.000000
0.071869 0.759369 0.000000
0.146301 0.759308 0.000000
0.205566 0.759216 0.000000
0.258148 0.759125 0.000000
0.306793 0.759003 0.000000
0.352539 0.758850 0.000000
0.396118 0.758698 0.000000
0.437897 0.758545 0.000000
0.477966 0.758362 0.000000
0.516663 0.758179 0.000000
0.554077 0.757965 0.000000
0.590271 0.757751 0.000000
0.625366 0.757538 0.000000
0.659485 0.757294 0.000000
0.693268 0.757050 0.000000
0.727661 0.756805 0.000000
0.762695 0.756500 0.000000
0.798126 0.756165 0.000000
0.833862 0.755829 0.000000
0.869843 0.755463 0.000000
0.905945 0.755096 0.000000
0.941864 0.754669 0.000000
0.977661 0.754242 0.000000
1.000000 0.753937 0.000000
1.000000 0.753937 0.000000
1.000000 0.753937 0.000000
1.000000 0.753937 0.000000
1.000000 0.753937 0.000000
1.000000 0.753937 0.000000
1.000000 0.753937 0.000000
0.000000 0.794647 0.000000
0.000000 0.794647 0.000000
0.060822 0.794586 0.000000
0.140778 0.794525 0.000000
0.201691 0.794464 0.000000
0.255219 0.794342 0.000000
0.304352 0.794250 0.000000
0.350494 0.794128 0.000000
0.394348 0.793976 0.000000
0.436340 0.793823 0.000000
0.476562 0.793640 0.000000
0.515381 0.793488 0.000000
0.552917 0.793274 0.000000
0.589203 0.793091 0.000000
0.624390 0.792877 0.000000
0.658539 0.792664 0.000000
0.692413 0.792419 0.000000
0.726837 0.792175 0.000000
0.761902 0.791901 0.000000
0.797424 0.791595 0.000000
0.833191 0.791260 0.000000
0.869232 0.790924 0.000000
0.905334 0.790558 0.000000
0.941284 0.790192 0.000000
0.977112 0.789795 0.000000
1.000000 0.789459 0.000000
1.000000 0.789459 0.000000
1.000000 0.789459 0.000000
1.000000 0.789459 0.000000
1.000000 0.789459 0.000000
1.000000 0.789459 0.000000
1.000000 0.789459 0.000000
0.000000 0.830200 0.000000
0.000000 0.830170 0.000000
0.047058 0.830139 0.000000
0.134583 0.830078 0.000000
0.197540 0.829987 0.000000
0.252014 0.829895 0.000000
0.301758 0.829803 0.000000
0.348297 0.829681 0.000000
0.392456 0.829529 0.000000
0.434631 0.829376 0.000000
0.475067 0.829224 0.000000
0.514008 0.829071 0.000000
0.551666 0.828888 0.000000
0.588043 0.828705 0.000000
0.623322 0.828491 0.000000
0.657562 0.828278 0.000000
0.691467 0.828064 0.000000
0.725952 0.827820 0.000000
0.761078 0.827576 0.000000
0.796631 0.827301 0.000000
0.832458 0.826996 0.000000
0.868530 0.826660 0.000000
0.904663 0.826324 0.000000
0.940674 0.825958 0.000000
0.976501 0.825592 0.000000
1.000000 0.825287 0.000000
1.000000 0.825287 0.000000
1.000000 0.825287 0.000000
1.000000 0.825287 0.000000
1.000000 0.825287 0.000000
1.000000 0.825287 0.000000
1.000000 0.825287 0.000000
0.000000 0.866119 0.000000
0.000000 0.866089 0.000000
0.029449 0.866058 0.000000
0.127625 0.865997 0.000000
0.192932 0.865906 0.000000
0.248535 0.865845 0.000000
0.298950 0.865723 0.000000
0.345947 0.865631 0.000000
0.390411 0.865479 0.000000
0.432831 0.865356 0.000000
0.473450 0.865204 0.000000
0.512543 0.865051 0.000000
0.550354 0.864868 0.000000
0.586823 0.864685 0.000000
0.622162 0.864502 0.000000
0.656494 0.864319 0.000000
0.690460 0.864105 0.000000
0.725037 0.863892 0.000000
0.760193 0.863647 0.000000
0.795807 0.863373 0.000000
0.831665 0.863098 0.000000
0.867798 0.862793 0.000000
0.903992 0.862457 0.000000
0.940002 0.862122 0.000000
0.975891 0.861755 0.000000
1.000000 0.861481 0.000000
1.000000 0.861481 0.000000
1.000000 0.861481 0.000000
1.000000 0.861481 0.000000
1.000000 0.861481 0.000000
1.000000 0.861481 0.000000
1.000000 0.861481 0.000000
0.000000 0.902069 0.000000
0.000000 0.902039 0.000000
0.010468 0.902008 0.000000
0.119843 0.901947 0.000000
0.187958 0.901886 0.000000
0.244751 0.901794 0.000000
0.295929 0.901703 0.000000
0.343414 0.901611 0.000000
0.388214 0.901489 0.000000
0.430939 0.901337 0.000000
0.471741 0.901215 0.000000
0.510986 0.901062 0.000000
0.548920 0.900909 0.000000
0.585541 0.900726 0.000000
0.620941 0.900543 0.000000
0.655334 0.900360 0.000000
0.689392 0.900177 0.000000
0.724030 0.899963 0.000000
0.759277 0.899719 0.000000
0.794922 0.899475 0.000000
0.830841 0.899200 0.000000
0.867004 0.898926 0.000000
0.903229 0.898621 0.000000
0.939301 0.898285 0.000000
0.975220 0.897949 0.000000
1.000000 0.897705 0.000000
1.000000 0.897705 0.000000
1.000000 0.897705 0.000000
1.000000 0.897705 0.000000
1.000000 0.897705 0.000000
1.000000 0.897705 0.000000
1.000000 0.897705 0.000000
0.000000 0.938019 0.000000
0.000000 0.938019 0.000000
0.000000 0.937958 0.000000
0.111115 0.937927 0.000000
0.182526 0.937866 0.000000
0.240753 0.937775 0.000000
0.292725 0.937683 0.000000
0.340729 0.937592 0.000000
0.385925 0.937469 0.000000
0.428894 0.937347 0.000000
0.469940 0.937195 0.000000
0.509369 0.937073 0.000000
0.547424 0.936920 0.000000
0.584137 0.936737 0.000000
0.619690 0.936584 0.000000
0.654144 0.936401 0.000000
0.688293 0.936218 0.000000
0.722961 0.936005 0.000000
0.758270 0.935791 0.000000
0.793976 0.935547 0.000000
0.829956 0.935303 0.000000
0.866180 0.935028 0.000000
0.902466 0.934753 0.000000
0.938568 0.934448 0.000000
0.974518 0.934113 0.000000
1.000000 0.933868 0.000000
1.000000 0.933868 0.000000
1.000000 0.933868 0.000000
1.000000 0.933868 0.000000
1.000000 0.933868 0.000000
1.000000 0.933868 0.000000
1.000000 0.933868 0.000000
0.000000 0.973816 0.000000
0.000000 0.973816 0.000000
0.000000 0.973785 0.000000
0.101166 0.973724 0.000000
0.176666 0.973663 0.000000
0.236481 0.973572 0.000000
0.289337 0.973511 0.000000
0.337891 0.973389 0.000000
0.383484 0.973297 0.000000
0.426758 0.973175 0.000000
0.468018 0.973053 0.000000
0.507629 0.972900 0.000000
0.545868 0.972778 0.000000
0.582703 0.972626 0.000000
0.618317 0.972443 0.000000
0.652893 0.972290 0.000000
0.687103 0.972107 0.000000
0.721863 0.971924 0.000000
0.757233 0.971710 0.000000
0.792999 0.971466 0.000000
0.829041 0.971222 0.000000
0.865295 0.970978 0.000000
0.901611 0.970703 0.000000
0.937775 0.970428 0.000000
0.973785 0.970123 0.000000
1.000000 0.969879 0.000000
1.000000 0.969879 0.000000
1.000000 0.969879 0.000000
1.000000 0.969879 0.000000
1.000000 0.969879 0.000000
1.000000 0.969879 0.000000
1.000000 0.969879 0.000000
0.000000 1.000000 0.000000
0.000000 1.000000 0.000000
0.000000 1.000000 0.000000
0.091736 1.000000 0.000000
0.171356 1.000000 0.000000
0.232666 1.000000 0.000000
0.286316 1.000000 0.000000
0.335419 1.000000 0.000000
0.381348 1.000000 0.000000
0.424866 1.000000 0.000000
0.466339 1.000000 0.000000
0.506134 1.000000 0.000000
0.544464 1.000000 0.000000
0.581421 1.000000 0.000000
0.617157 1.000000 0.000000
0.651794 1.000000 0.000000
0.686066 1.000000 0.000000
0.720917 1.000000 0.000000
0.756348 1.000000 0.000000
0.792145 1.000000 0.000000
0.828217 1.000000 0.000000
0.864532 1.000000 0.000000
0.900909 1.000000 0.000000
0.937103 1.000000 0.000000
0.973114 1.000000 0.000000
1.000000 1.000000 0.000000
1.000000 1.000000 0.000000
1.000000 1.000000 0.000000
1.000000 1.000000 0.000000
1.000000 1.000000 0.000000
1.000000 1.000000 0.000000
1.000000 1.000000 0.000000
0.000000 1.000000 0.000000
0.000000 1.000000 0.000000
0.000000 1.000000 0.000000
0.091736 1.000000 0.000000
0.171356 1.000000 0.000000
0.232666 1.000000 0.000000
0.286316 1.000000 0.000000
0.335419 1.000000 0.000000
0.381348 1.000000 0.000000
0.424866 1.000000 0.000000
0.466339 1.000000 0.000000
0.506134 1.000000 0.000000
0.544464 1.000000 0.000000
0.581421 1.000000 0.000000
0.617157 1.000000 0.000000
0.651794 1.000000 0.000000
0.686066 1.000000 0.000000
0.720917 1.000000 0.000000
0.756348 1.000000 0.000000
0.792145 1.000000 0.000000
0.828217 1.000000 0.000000
0.864532 1.000000 0.000000
0.900909 1.000000 0.000000
0.937103 1.000000 0.000000
0.973114 1.000000 0.000000
1.000000 1.000000 0.000000
1.000000 1.000000 0.000000
1.000000 1.000000 0.000000
1.000000 1.000000 0.000000
1.000000 1.000000 0.000000
1.000000 1.000000 0.000000
1.000000 1.000000 0.000000
0.000000 1.000000 0.000000
0.000000 1.000000 0.000000
0.000000 1.000000 0.000000
0.091736 1.000000 0.000000
0.171356 1.000000 0.000000
0.232666 1.000000 0.000000
0.286316 1.000000 0.000000
0.335419 1.000000 0.000000
0.381348 1.000000 0.000000
0.424866 1.000000 0.000000
0.466339 1.000000 0.000000
0.506134 1.000000 0.000000
0.544464 1.000000 0.000000
0.581421 1.000000 0.000000
0.617157 1.000000 0.000000
0.651794 1.000000 0.000000
0.686066 1.000000 0.000000
0.720917 1.000000 0.000000
