projects/GameEngine/res/luts/Desert.CUBE
#Created by: Adobe Photoshop Export Color Lookup Plugin
TITLE "Desert"
#LUT size
LUT_3D_SIZE 5
#data domain
#LUT data points
DOMAIN_MIN 0.000000 0.000000 0.000000
DOMAIN_MAX 0.903226 0.903226 0.903226
0.060608 0.060608 0.060608
0.370972 0.050018 0.050018
0.634521 0.023682 0.023682
0.875793 0.000000 0.000000
1.000000 0.000000 0.000000
0.034485 0.361450 0.034485
0.367554 0.359955 0.022614
0.632782 0.356354 0.000000
0.874664 0.350952 0.000000
1.000000 0.346924 0.000000
0.000000 0.623962 0.000000
0.359192 0.623199 0.000000
0.628693 0.621490 0.000000
0.871979 0.618774 0.000000
1.000000 0.616791 0.000000
0.000000 0.866119 0.000000
0.345947 0.865631 0.000000
0.622162 0.864502 0.000000
0.867798 0.862793 0.000000
1.000000 0.861481 0.000000
0.000000 1.000000 0.000000
0.335419 1.000000 0.000000
0.617157 1.000000 0.000000
0.864532 1.000000 0.000000
1.000000 1.000000 0.000000
0.059631 0.059631 0.245605
0.370972 0.049957 0.243011
0.634521 0.023682 0.237396
0.875793 0.000000 0.228668
1.000000 0.000000 0.221954
0.034485 0.361450 0.239746
0.367981 0.360260 0.236023
0.632965 0.355713 0.230103
0.874725 0.349823 0.220398
1.000000 0.345612 0.213165
0.000000 0.623962 0.225830
0.358215 0.623505 0.220795
0.628967 0.621735 0.214630
0.872070 0.618469 0.205139
1.000000 0.616333 0.197327
0.000000 0.866119 0.202148
0.344482 0.865723 0.196106
0.621796 0.864594 0.189087
0.867889 0.862854 0.177734
1.000000 0.861328 0.168854
0.000000 1.000000 0.181732
0.333771 1.000000 0.174835
0.616608 1.000000 0.166901
0.864380 1.000000 0.153778
1.000000 1.000000 0.143341
0.059448 0.059448 0.504944
0.370819 0.049835 0.503967
0.634521 0.023651 0.501648
0.875793 0.000000 0.498108
1.000000 0.000000 0.495514
0.034454 0.361298 0.502625
0.366119 0.358337 0.502228
0.633118 0.354980 0.498993
0.874817 0.348785 0.494629
1.000000 0.344330 0.491669
0.000000 0.623962 0.497070
0.356842 0.623718 0.495453
0.629242 0.621948 0.492340
0.872131 0.618225 0.489044
1.000000 0.615692 0.485687
0.000000 0.866119 0.488251
0.342560 0.865814 0.485443
0.620667 0.864807 0.481750
0.868073 0.863037 0.478027
1.000000 0.861023 0.475677
0.000000 1.000000 0.481415
0.331573 1.000000 0.478210
0.614929 1.000000 0.474213
0.863922 1.000000 0.470490
1.000000 1.000000 0.467682
0.059418 0.059418 0.781982
0.370728 0.049805 0.781403
0.634460 0.023621 0.780121
0.875793 0.000000 0.778137
1.000000 0.000000 0.776672
0.034424 0.361206 0.780640
0.364594 0.356873 0.780426
0.632324 0.353394 0.779144
0.874847 0.348114 0.776703
1.000000 0.343964 0.774811
0.000000 0.623901 0.777557
0.356201 0.622681 0.777313
0.627350 0.620056 0.776184
0.872223 0.617554 0.773438
1.000000 0.615265 0.771454
0.000000 0.866119 0.772644
0.342560 0.865814 0.771912
0.620026 0.864868 0.770294
0.868042 0.863007 0.768097
1.000000 0.861389 0.767059
0.000000 1.000000 0.768829
0.331573 1.000000 0.767609
0.614075 1.000000 0.765411
0.863617 1.000000 0.763245
1.000000 1.000000 0.761749
0.059387 0.059387 1.000000
0.370697 0.049805 1.000000
0.634399 0.023621 1.000000
0.875763 0.000000 1.000000
1.000000 0.000000 1.000000
0.034424 0.361176 1.000000
0.364105 0.356384 1.000000
0.631500 0.352936 1.000000
0.874329 0.347534 1.000000
1.000000 0.343445 1.000000
0.000000 0.623871 1.000000
0.355713 0.621857 1.000000
0.625671 0.618408 1.000000
0.871185 0.615723 1.000000
1.000000 0.613739 1.000000
0.000000 0.866089 1.000000
0.342285 0.865234 1.000000
0.619141 0.863647 1.000000
0.867035 0.862000 1.000000
1.000000 0.860718 1.000000
0.000000 1.000000 1.000000
0.331573 1.000000 1.000000
0.614075 1.000000 1.000000
0.863800 1.000000 1.000000
1.000000 1.000000 1.000000
