projects/GameEngine/res/luts/Desert.CUBE
#Created by: Adobe Photoshop Export Color Lookup Plugin
TITLE "Desert"
#LUT size
LUT_3D_SIZE 8
#data domain
#LUT data points
DOMAIN_MIN 0.000000 0.000000 0.000000
DOMAIN_MAX 0.903226 0.903226 0.903226
0.060608 0.060608 0.060608
0.238251 0.056366 0.056366
0.412201 0.047272 0.047272
0.564728 0.032562 0.032562
0.701263 0.013977 0.013977
0.840149 0.000000 0.000000
0.982758 0.000000 0.000000
1.000000 0.000000 0.000000
0.051178 0.230560 0.051178
0.236115 0.229553 0.047272
0.411102 0.227051 0.037262
0.563995 0.223694 0.022095
0.700684 0.219513 0.003326
0.839691 0.213928 0.000000
0.982391 0.206543 0.000000
1.000000 0.204956 0.000000
0.027008 0.402313 0.027008
0.230560 0.401825 0.022552
0.408417 0.400665 0.012177
0.562195 0.398865 0.000000
0.699341 0.396759 0.000000
0.838623 0.393982 0.000000
0.981506 0.390411 0.000000
1.000000 0.389648 0.000000
0.000000 0.554199 0.000000
0.222595 0.553864 0.000000
0.404327 0.553101 0.000000
0.559570 0.551971 0.000000
0.697357 0.550537 0.000000
0.837067 0.548676 0.000000
0.980255 0.546326 0.000000
1.000000 0.545837 0.000000
0.000000 0.690765 0.000000
0.212219 0.690521 0.000000
0.399261 0.689941 0.000000
0.556152 0.689117 0.000000
0.694855 0.688080 0.000000
0.835083 0.686676 0.000000
0.978638 0.684875 0.000000
1.000000 0.684509 0.000000
0.000000 0.830200 0.000000
0.197540 0.829987 0.000000
0.392456 0.829529 0.000000
0.551666 0.828888 0.000000
0.691467 0.828064 0.000000
0.832458 0.826996 0.000000
0.976501 0.825592 0.000000
1.000000 0.825287 0.000000
0.000000 0.973816 0.000000
0.176666 0.973663 0.000000
0.383484 0.973297 0.000000
0.545868 0.972778 0.000000
0.687103 0.972107 0.000000
0.829041 0.971222 0.000000
0.973785 0.970123 0.000000
1.000000 0.969879 0.000000
0.000000 1.000000 0.000000
0.171356 1.000000 0.000000
0.381348 1.000000 0.000000
0.544464 1.000000 0.000000
0.686066 1.000000 0.000000
0.828217 1.000000 0.000000
0.973114 1.000000 0.000000
1.000000 1.000000 0.000000
0.060272 0.060272 0.139587
0.238251 0.056274 0.137665
0.412201 0.047272 0.133514
0.564728 0.032562 0.127625
0.701263 0.013947 0.119934
0.840149 0.000000 0.109161
0.982758 0.000000 0.093658
1.000000 0.000000 0.090149
0.051178 0.230560 0.135376
0.236298 0.229706 0.132904
0.411194 0.226776 0.128693
0.564087 0.223175 0.122192
0.700745 0.218872 0.114044
0.839722 0.213165 0.102570
0.982391 0.205719 0.085999
1.000000 0.204132 0.082153
0.027008 0.402313 0.125427
0.230133 0.401978 0.122253
0.408600 0.400818 0.117859
0.562286 0.398773 0.111481
0.699402 0.396515 0.102509
0.838654 0.393677 0.089691
0.981537 0.390045 0.070679
1.000000 0.389313 0.066132
0.000000 0.554199 0.109741
0.221954 0.553986 0.105988
0.404205 0.553192 0.100922
0.559662 0.552094 0.093201
0.697418 0.550476 0.082947
0.837097 0.548553 0.067291
0.980255 0.546143 0.041779
1.000000 0.545624 0.035217
0.000000 0.690765 0.086487
0.211426 0.690582 0.081726
0.399017 0.690033 0.075317
0.556122 0.689178 0.065216
0.694916 0.688141 0.050690
0.835114 0.686615 0.027252
0.978638 0.684784 0.000000
1.000000 0.684387 0.000000
0.000000 0.830200 0.043365
0.196655 0.830017 0.035217
0.392120 0.829559 0.024780
0.551544 0.828918 0.009705
0.691437 0.828094 0.000000
0.832489 0.827026 0.000000
0.976532 0.825531 0.000000
1.000000 0.825226 0.000000
0.000000 0.973816 0.000000
0.175629 0.973663 0.000000
0.383118 0.973297 0.000000
0.545654 0.972778 0.000000
0.687012 0.972107 0.000000
0.829010 0.971252 0.000000
0.973785 0.970123 0.000000
1.000000 0.969879 0.000000
0.000000 1.000000 0.000000
0.170288 1.000000 0.000000
0.380951 1.000000 0.000000
0.544250 1.000000 0.000000
0.685974 1.000000 0.000000
0.828186 1.000000 0.000000
0.973114 1.000000 0.000000
1.000000 1.000000 0.000000
0.059540 0.059540 0.282501
0.238159 0.055939 0.281738
0.412201 0.047211 0.279755
0.564728 0.032532 0.277100
0.701263 0.013947 0.273834
0.840149 0.000000 0.269501
0.982758 0.000000 0.263855
1.000000 0.000000 0.262634
0.051025 0.230408 0.280701
0.235504 0.228851 0.280182
0.411285 0.226440 0.277649
0.564209 0.222473 0.274414
0.700867 0.217834 0.270752
0.839783 0.211884 0.266083
0.982391 0.204193 0.260193
1.000000 0.202545 0.258942
0.027008 0.402313 0.276245
0.229034 0.402222 0.274567
0.408875 0.401031 0.272217
0.562439 0.398590 0.269989
0.699554 0.396027 0.265961
0.838745 0.392883 0.261017
0.981537 0.389038 0.254822
1.000000 0.388214 0.253540
0.000000 0.554199 0.269775
0.220428 0.554169 0.267395
0.403717 0.553497 0.264832
0.559967 0.552338 0.262054
0.697571 0.550354 0.259155
0.837189 0.548187 0.254211
0.980255 0.545563 0.247803
1.000000 0.545044 0.246460
0.000000 0.690765 0.261475
0.209595 0.690735 0.258728
0.398071 0.690247 0.255951
0.555908 0.689392 0.253113
0.695129 0.688324 0.249481
0.835205 0.686493 0.244904
0.978668 0.684479 0.238647
1.000000 0.684052 0.237274
0.000000 0.830200 0.250031
0.194580 0.830109 0.246979
0.390930 0.829681 0.243988
0.550995 0.829041 0.240967
0.691254 0.828217 0.237183
0.832611 0.827118 0.232056
0.976532 0.825378 0.225433
1.000000 0.825043 0.224091
0.000000 0.973816 0.234406
0.173218 0.973694 0.230957
0.381714 0.973328 0.227722
0.544922 0.972778 0.224426
0.686584 0.972137 0.220337
0.828827 0.971252 0.214752
0.973785 0.970154 0.207397
1.000000 0.969849 0.205811
0.000000 1.000000 0.230530
0.167786 1.000000 0.227020
0.379517 1.000000 0.223694
0.543488 1.000000 0.220367
0.685516 1.000000 0.216156
0.827972 1.000000 0.210449
0.973083 1.000000 0.202942
1.000000 1.000000 0.201294
0.059448 0.059448 0.431274
0.237946 0.055878 0.430817
0.412201 0.047150 0.429749
0.564728 0.032501 0.428131
0.701263 0.013947 0.426147
0.840149 0.000000 0.423615
0.982758 0.000000 0.420349
1.000000 0.000000 0.419678
0.050934 0.230194 0.430206
0.234314 0.227661 0.430145
0.411346 0.225403 0.429108
0.564240 0.222107 0.426849
0.700867 0.217682 0.424561
0.839783 0.211823 0.421783
0.982391 0.204163 0.418365
1.000000 0.202515 0.417664
0.027008 0.402283 0.427673
0.228912 0.402008 0.427612
0.408234 0.400330 0.426331
0.562378 0.398529 0.424255
0.699585 0.395813 0.421722
0.838806 0.392334 0.418518
0.981567 0.388153 0.414612
1.000000 0.387299 0.413818
0.000000 0.554199 0.423828
0.220428 0.554169 0.423035
0.402771 0.553650 0.421021
0.560120 0.552460 0.419220
0.697571 0.550354 0.418030
0.837250 0.547943 0.414703
0.980286 0.545044 0.410675
1.000000 0.544464 0.409851
0.000000 0.690765 0.419037
0.209595 0.690735 0.417847
0.396667 0.690460 0.415192
0.555481 0.689636 0.413391
0.695343 0.688538 0.411346
0.835297 0.686401 0.409515
0.978668 0.684174 0.405731
1.000000 0.683716 0.404877
0.000000 0.830200 0.412628
0.194580 0.830109 0.411163
0.389191 0.829834 0.408051
0.550110 0.829193 0.406189
0.690979 0.828369 0.404144
0.832764 0.827240 0.401428
0.976562 0.825195 0.398285
1.000000 0.824829 0.397736
0.000000 0.973816 0.404205
0.173218 0.973694 0.402557
0.379730 0.973358 0.399078
0.543701 0.972839 0.397156
0.685944 0.972168 0.395050
0.828552 0.971283 0.392273
0.973816 0.970154 0.388702
1.000000 0.969788 0.387878
0.000000 1.000000 0.402191
0.167786 1.000000 0.400513
0.377502 1.000000 0.396973
0.542236 1.000000 0.395020
0.684814 1.000000 0.392914
0.827637 1.000000 0.390106
0.973022 1.000000 0.386505
1.000000 1.000000 0.385742
0.059418 0.059418 0.578217
0.237885 0.055847 0.577911
0.412079 0.047119 0.577179
0.564728 0.032471 0.576141
0.701263 0.013916 0.574768
0.840149 0.000000 0.573029
0.982758 0.000000 0.570770
1.000000 0.000000 0.570312
0.050934 0.230133 0.577484
0.233765 0.227173 0.577484
0.410522 0.224884 0.576782
0.564240 0.221588 0.575714
0.700867 0.217438 0.573944
0.839783 0.211700 0.571930
0.982391 0.204102 0.569519
1.000000 0.202454 0.569031
0.027008 0.402161 0.575775
0.228394 0.401184 0.575775
0.406677 0.398804 0.575317
0.562653 0.397125 0.574249
0.699707 0.395142 0.572021
0.838837 0.391998 0.569733
0.981567 0.387939 0.567047
1.000000 0.387115 0.566498
0.000000 0.554169 0.573212
0.220367 0.554077 0.573212
0.402588 0.553436 0.572723
0.559479 0.551788 0.571228
0.697479 0.550354 0.569580
0.837219 0.548035 0.567352
0.980286 0.544983 0.564423
1.000000 0.544342 0.563843
0.000000 0.690765 0.569916
0.209595 0.690735 0.569458
0.396667 0.690460 0.568359
0.554840 0.689636 0.566650
0.695343 0.688507 0.565186
0.835205 0.686493 0.564178
0.978668 0.684204 0.561218
1.000000 0.683716 0.560608
0.000000 0.830200 0.565552
0.194580 0.830109 0.564789
0.389191 0.829834 0.563171
0.549194 0.829285 0.561096
0.690613 0.828461 0.559662
0.832855 0.827332 0.557831
0.976562 0.825195 0.556396
1.000000 0.824890 0.556122
0.000000 0.973816 0.559906
0.173218 0.973694 0.558960
0.379730 0.973358 0.556946
0.542480 0.972870 0.554535
0.685211 0.972198 0.553070
0.828247 0.971313 0.551239
0.973846 0.970184 0.548889
1.000000 0.969727 0.548279
0.000000 1.000000 0.558563
0.167786 1.000000 0.557587
0.377502 1.000000 0.555511
0.540955 1.000000 0.553040
0.684021 1.000000 0.551575
0.827240 1.000000 0.549744
0.972992 1.000000 0.547394
1.000000 1.000000 0.546906
0.059418 0.059418 0.739014
0.237854 0.055817 0.738800
0.412018 0.047089 0.738251
0.564667 0.032471 0.737488
0.701233 0.013916 0.736542
0.840149 0.000000 0.735260
0.982758 0.000000 0.733643
1.000000 0.000000 0.733307
0.050903 0.230103 0.738495
0.233521 0.226929 0.738434
0.410095 0.224609 0.737915
0.563690 0.221344 0.737152
0.700775 0.217133 0.736206
0.839783 0.211517 0.734680
0.982422 0.204010 0.732849
1.000000 0.202362 0.732483
0.026978 0.402100 0.737213
0.228119 0.400726 0.737183
0.405701 0.397827 0.736938
0.561310 0.396149 0.736145
0.699554 0.394012 0.735199
0.838867 0.391388 0.733307
0.981567 0.387634 0.731171
1.000000 0.386810 0.730743
0.000000 0.554108 0.735382
0.220123 0.553497 0.735321
0.401581 0.552094 0.735077
0.557892 0.550201 0.734406
0.697510 0.548798 0.733429
0.837372 0.547119 0.731354
0.980316 0.544434 0.729126
1.000000 0.543854 0.728668
0.000000 0.690765 0.733032
0.209564 0.690582 0.732971
0.396454 0.690094 0.732727
0.554474 0.689178 0.732025
0.694611 0.687744 0.730774
0.835205 0.686401 0.729095
0.978668 0.684296 0.727112
1.000000 0.683838 0.726685
0.000000 0.830200 0.729889
0.194580 0.830109 0.729584
0.389191 0.829834 0.728882
0.549194 0.829285 0.727875
0.690338 0.828430 0.726685
0.832764 0.827240 0.725281
0.976532 0.825439 0.724182
1.000000 0.825104 0.723755
0.000000 0.973816 0.725830
0.173218 0.973694 0.725311
0.379730 0.973358 0.724152
0.542480 0.972870 0.722748
0.684814 0.972198 0.721375
0.828064 0.971344 0.720062
0.973846 0.970184 0.718384
1.000000 0.969696 0.717834
0.000000 1.000000 0.724884
0.167786 1.000000 0.724304
0.377502 1.000000 0.723083
0.540955 1.000000 0.721619
0.683563 1.000000 0.720215
0.827026 1.000000 0.718872
0.972961 1.000000 0.717224
1.000000 1.000000 0.716888
0.059387 0.059387 0.914520
0.237823 0.055817 0.914337
0.411987 0.047089 0.913940
0.564636 0.032471 0.913361
0.701202 0.013916 0.912659
0.840118 0.000000 0.911713
0.982758 0.000000 0.910492
1.000000 0.000000 0.910217
0.050903 0.230072 0.914124
0.233368 0.226776 0.914001
0.409851 0.224487 0.913605
0.563354 0.221191 0.913025
0.700409 0.216980 0.912323
0.839661 0.211334 0.911377
0.982422 0.203888 0.910034
1.000000 0.202271 0.909729
0.026978 0.402069 0.913147
0.227966 0.400482 0.913055
0.405060 0.397217 0.912781
0.560486 0.395538 0.912201
0.698547 0.393433 0.911469
0.838501 0.390625 0.910522
0.981567 0.387115 0.908966
1.000000 0.386383 0.908600
0.000000 0.554077 0.911743
0.219971 0.553162 0.911652
0.400970 0.551239 0.911377
0.556641 0.548981 0.910889
0.695984 0.547577 0.910156
0.836853 0.545715 0.909210
0.980316 0.543518 0.907471
1.000000 0.543030 0.907074
0.000000 0.690704 0.910004
0.209412 0.690186 0.909882
0.395844 0.689087 0.909607
0.553223 0.687653 0.909119
0.693085 0.686218 0.908417
0.834778 0.684845 0.907471
0.978729 0.683228 0.905670
1.000000 0.682861 0.905273
0.000000 0.830170 0.907654
0.194519 0.829926 0.907532
0.388977 0.829376 0.907257
0.548706 0.828613 0.906769
0.689697 0.827667 0.906067
0.832062 0.826569 0.904999
0.976562 0.825195 0.903442
1.000000 0.824890 0.903107
0.000000 0.973816 0.904602
0.173218 0.973694 0.904388
0.379730 0.973358 0.903870
0.542480 0.972870 0.903168
0.684814 0.972198 0.902344
0.828186 0.971313 0.901398
0.973816 0.970154 0.900269
1.000000 0.969818 0.900024
0.000000 1.000000 0.903900
0.167786 1.000000 0.903625
0.377502 1.000000 0.903015
0.540955 1.000000 0.902222
0.683563 1.000000 0.901367
0.827148 1.000000 0.900452
0.973022 1.000000 0.899384
1.000000 1.000000 0.899139
0.059387 0.059387 1.000000
0.237823 0.055817 1.000000
0.411987 0.047089 1.000000
0.564606 0.032471 1.000000
0.701172 0.013916 1.000000
0.840118 0.000000 1.000000
0.982758 0.000000 1.000000
1.000000 0.000000 1.000000
0.050903 0.230072 1.000000
0.233307 0.226715 1.000000
0.409790 0.224426 1.000000
0.563263 0.221161 1.000000
0.700256 0.216949 1.000000
0.839478 0.211273 1.000000
0.982361 0.203796 1.000000
1.000000 0.202179 1.000000
0.026978 0.402069 1.000000
0.227905 0.400391 1.000000
0.404846 0.397003 1.000000
0.560181 0.395325 1.000000
0.698181 0.393188 1.000000
0.838074 0.390411 1.000000
0.981445 0.386810 1.000000
1.000000 0.386047 1.000000
0.000000 0.554047 1.000000
0.219910 0.553040 1.000000
0.400726 0.550934 1.000000
0.556152 0.548492 1.000000
0.695404 0.547089 1.000000
0.836151 0.545258 1.000000
0.980133 0.542877 1.000000
1.000000 0.542389 1.000000
0.000000 0.690704 1.000000
0.209351 0.690063 1.000000
0.395630 0.688721 1.000000
0.552734 0.687042 1.000000
0.692352 0.685516 1.000000
0.833923 0.684143 1.000000
0.978516 0.682373 1.000000
1.000000 0.682007 1.000000
0.000000 0.830139 1.000000
0.194489 0.829773 1.000000
0.388763 0.828949 1.000000
0.548218 0.827881 1.000000
0.688995 0.826843 1.000000
0.831360 0.825836 1.000000
0.976379 0.824463 1.000000
1.000000 0.824188 1.000000
0.000000 0.973816 1.000000
0.173187 0.973633 1.000000
0.379669 0.973206 1.000000
0.542358 0.972626 1.000000
0.684601 0.971924 1.000000
0.827942 0.971069 1.000000
0.973724 0.970062 1.000000
1.000000 0.969849 1.000000
0.000000 1.000000 1.000000
0.167786 1.000000 1.000000
0.377502 1.000000 1.000000
0.540955 1.000000 1.000000
0.683563 1.000000 1.000000
0.827148 1.000000 1.000000
0.973083 1.000000 1.000000
1.000000 1.000000 1.000000
