projects/GameEngine/res/luts/DesertLUT.CUBE
#Created by: Adobe Photoshop Export Color Lookup Plugin
TITLE "DesertLUT"
#LUT size
LUT_3D_SIZE 32
#data domain
DOMAIN_MIN 0.0 0.0 0.0
DOMAIN_MAX 1.0 1.0 1.0
#LUT data points
1.000000 0.559479 0.292938
1.000000 0.559479 0.292938
1.000000 0.559479 0.292938
1.000000 0.559479 0.292938
1.000000 0.458710 0.220764
1.000000 0.563873 0.297729
1.000000 0.563873 0.297729
1.000000 0.581238 0.312073
1.000000 0.581238 0.312073
1.000000 0.581238 0.312073
1.000000 0.581238 0.312073
1.000000 0.449066 0.221252
1.000000 0.449066 0.221252
1.000000 0.449097 0.216034
1.000000 0.510162 0.254517
1.000000 0.510162 0.254517
1.000000 0.510162 0.254517
0.845490 0.332550 0.083588
0.841187 0.332672 0.084076
0.841187 0.332672 0.084076
0.837128 0.284088 0.015320
0.837128 0.284088 0.015320
0.849792 0.343170 0.050323
0.845428 0.337952 0.051727
0.845428 0.337952 0.051727
0.828552 0.278717 0.017700
0.828552 0.278717 0.017700
0.828552 0.278717 0.017700
0.824249 0.278870 0.018524
0.824280 0.273285 0.019196
0.824280 0.273285 0.019196
0.819916 0.273438 0.020050
1.000000 0.453949 0.221008
1.000000 0.453949 0.221008
1.000000 0.453949 0.221008
1.000000 0.453949 0.221008
1.000000 0.449066 0.221252
1.000000 0.449066 0.221252
1.000000 0.449066 0.221252
1.000000 0.444275 0.216278
1.000000 0.449097 0.216034
1.000000 0.449097 0.216034
1.000000 0.449097 0.216034
1.000000 0.449097 0.216034
1.000000 0.458710 0.220764
1.000000 0.458710 0.220764
1.000000 0.453949 0.221008
1.000000 0.453979 0.215790
1.000000 0.458740 0.215515
0.893402 0.320557 0.045166
0.893402 0.320557 0.037720
0.893402 0.320557 0.037720
0.901978 0.341705 0.032471
0.901978 0.341705 0.032471
0.889099 0.304443 0.013275
0.889099 0.304443 0.013275
0.889099 0.304443 0.013275
0.880432 0.299194 0.015839
0.880463 0.293701 0.016571
0.880463 0.293701 0.016571
0.884674 0.320892 0.024963
0.884674 0.320892 0.024963
0.880310 0.321014 0.025879
0.871765 0.294006 0.012451
1.000000 0.463470 0.220520
1.000000 0.537292 0.273682
1.000000 0.537292 0.273682
1.000000 0.532806 0.273895
1.000000 0.532806 0.273895
1.000000 0.468201 0.225555
1.000000 0.468201 0.225555
1.000000 0.468201 0.225555
1.000000 0.468201 0.225555
1.000000 0.468170 0.230743
1.000000 0.468170 0.230743
1.000000 0.468170 0.230743
1.000000 0.468170 0.230743
1.000000 0.537292 0.273682
1.000000 0.537292 0.273682
1.000000 0.537292 0.273682
1.000000 0.458710 0.220764
0.949921 0.313293 0.004364
0.945618 0.313446 0.005371
0.945648 0.307983 0.000000
0.958160 0.381622 0.046204
0.958191 0.376495 0.047058
0.945221 0.381805 0.097260
0.945221 0.381805 0.097260
0.940857 0.381927 0.097778
0.936707 0.351105 0.062256
0.936707 0.351105 0.062256
0.936707 0.351105 0.062256
0.932404 0.335419 0.026581
0.932434 0.330078 0.027374
0.928131 0.330200 0.028351
0.923706 0.340973 0.058716
1.000000 0.463440 0.225800
1.000000 0.468170 0.230743
1.000000 0.468170 0.230743
1.000000 0.468170 0.230743
1.000000 0.468170 0.230743
1.000000 0.537292 0.273682
1.000000 0.537292 0.273682
1.000000 0.537292 0.273682
1.000000 0.537292 0.273682
1.000000 0.537292 0.273682
1.000000 0.519257 0.259186
1.000000 0.519257 0.259186
1.000000 0.519257 0.259186
1.000000 0.519257 0.259186
1.000000 0.523804 0.264099
1.000000 0.523804 0.264099
1.000000 0.523804 0.264099
1.000000 0.349121 0.032257
0.997131 0.349274 0.033325
0.997131 0.349274 0.033325
0.992981 0.322693 0.000000
0.992981 0.322723 0.000000
0.992981 0.322723 0.000000
0.988708 0.322876 0.000000
0.988708 0.322876 0.000000
0.984436 0.323029 0.000000
0.984436 0.323029 0.000000
0.984436 0.323029 0.000000
0.988586 0.349579 0.018616
0.984283 0.349731 0.019653
0.984283 0.349731 0.011871
0.980011 0.344604 0.013794
1.000000 0.468170 0.230743
1.000000 0.468170 0.230743
1.000000 0.519257 0.264313
1.000000 0.519257 0.264313
1.000000 0.523804 0.264099
1.000000 0.523804 0.264099
1.000000 0.519257 0.259186
1.000000 0.519257 0.259186
1.000000 0.519257 0.259186
1.000000 0.519257 0.259186
1.000000 0.519257 0.259186
1.000000 0.505524 0.254761
1.000000 0.505524 0.254761
1.000000 0.505524 0.254761
1.000000 0.505524 0.254761
1.000000 0.505524 0.254761
1.000000 0.439392 0.211304
1.000000 0.395325 0.087616
1.000000 0.395325 0.087616
1.000000 0.395325 0.087616
1.000000 0.395416 0.058197
1.000000 0.390350 0.050598
1.000000 0.390350 0.050598
1.000000 0.390350 0.050598
1.000000 0.390350 0.050598
1.000000 0.332947 0.000000
1.000000 0.332947 0.000000
1.000000 0.332947 0.000000
1.000000 0.343658 0.006653
1.000000 0.343689 0.000000
1.000000 0.343689 0.000000
1.000000 0.338348 0.000092
1.000000 0.510162 0.254517
1.000000 0.505524 0.254761
1.000000 0.505524 0.254761
1.000000 0.505524 0.254761
1.000000 0.505524 0.254761
1.000000 0.505524 0.254761
1.000000 0.505554 0.249573
1.000000 0.505554 0.249573
1.000000 0.505554 0.249573
1.000000 0.505554 0.249573
1.000000 0.505554 0.249573
1.000000 0.505554 0.249573
1.000000 0.439423 0.206024
1.000000 0.439423 0.206024
1.000000 0.439423 0.206024
1.000000 0.434570 0.206299
1.000000 0.434570 0.206299
1.000000 0.415314 0.111664
1.000000 0.415314 0.111664
1.000000 0.415314 0.111664
1.000000 0.354248 0.000000
1.000000 0.354248 0.000000
1.000000 0.348969 0.000000
1.000000 0.348969 0.000000
1.000000 0.348969 0.000000
1.000000 0.348969 0.000000
1.000000 0.348969 0.000000
1.000000 0.348969 0.000000
1.000000 0.425385 0.061829
1.000000 0.425385 0.061829
1.000000 0.420410 0.062592
1.000000 0.343689 0.000000
1.000000 0.505554 0.249573
1.000000 0.505554 0.249573
1.000000 0.505554 0.249573
1.000000 0.505554 0.249573
1.000000 0.505554 0.249573
1.000000 0.505554 0.249573
1.000000 0.505554 0.249573
1.000000 0.505554 0.249573
1.000000 0.514740 0.254303
1.000000 0.514740 0.254303
1.000000 0.514740 0.254303
1.000000 0.514740 0.254303
1.000000 0.514740 0.254303
1.000000 0.514740 0.254303
1.000000 0.514709 0.259399
1.000000 0.514709 0.259399
1.000000 0.514709 0.259399
0.101562 0.087250 0.063446
0.101562 0.087250 0.063446
0.101562 0.087250 0.063446
0.101562 0.087250 0.063446
0.101562 0.087250 0.063446
1.000000 0.369904 0.010071
1.000000 0.369904 0.010071
1.000000 0.369904 0.010071
1.000000 0.364685 0.011017
1.000000 0.364685 0.011017
1.000000 0.364685 0.011017
1.000000 0.375092 0.009125
1.000000 0.375092 0.009125
1.000000 0.375092 0.009125
1.000000 0.364685 0.003204
1.000000 0.505554 0.249573
1.000000 0.510162 0.254517
1.000000 0.510162 0.254517
1.000000 0.510162 0.254517
1.000000 0.458710 0.220764
1.000000 0.458710 0.220764
1.000000 0.458710 0.220764
1.000000 0.453949 0.221008
1.000000 0.546173 0.288483
1.000000 0.546173 0.288483
1.000000 0.482361 0.240387
1.000000 0.482361 0.240387
1.000000 0.482361 0.240387
1.000000 0.477600 0.240601
1.000000 0.477600 0.240601
1.000000 0.477600 0.240601
1.000000 0.505524 0.254761
0.101562 0.087250 0.063446
0.101562 0.087250 0.063446
0.101562 0.087250 0.063446
0.101562 0.087250 0.063446
0.101562 0.087250 0.063446
0.119354 0.103638 0.067230
0.101562 0.087250 0.063446
0.101562 0.087250 0.063446
1.000000 0.444824 0.102448
1.000000 0.444824 0.102448
1.000000 0.444824 0.102448
1.000000 0.405548 0.038971
1.000000 0.405548 0.038971
1.000000 0.405548 0.038971
1.000000 0.369934 0.002319
1.000000 0.463440 0.225800
1.000000 0.463440 0.225800
1.000000 0.463440 0.225800
1.000000 0.487030 0.245300
1.000000 0.487030 0.245300
1.000000 0.532806 0.273895
1.000000 0.532806 0.273895
1.000000 0.532806 0.273895
1.000000 0.532806 0.273895
1.000000 0.532806 0.273895
1.000000 0.444305 0.211060
1.000000 0.444305 0.211060
1.000000 0.444305 0.211060
1.000000 0.444305 0.211060
1.000000 0.444305 0.211060
1.000000 0.444305 0.211060
1.000000 0.444305 0.211060
1.000000 0.454437 0.114258
1.000000 0.454437 0.114258
1.000000 0.454437 0.114258
1.000000 0.395538 0.013855
1.000000 0.395538 0.013855
1.000000 0.473572 0.077789
1.000000 0.473572 0.077789
1.000000 0.473572 0.077789
0.491669 0.385803 0.225830
0.491669 0.385803 0.225830
0.491669 0.385803 0.225830
0.491669 0.385803 0.221100
0.491669 0.385803 0.221100
0.491669 0.385803 0.221100
0.491669 0.385803 0.221100
1.000000 0.439392 0.211304
1.000000 0.439392 0.211304
1.000000 0.439392 0.211304
1.000000 0.439392 0.211304
1.000000 0.439392 0.211304
1.000000 0.439392 0.211304
1.000000 0.439392 0.211304
1.000000 0.439392 0.211304
1.000000 0.439392 0.211304
1.000000 0.439392 0.211304
1.000000 0.439392 0.211304
1.000000 0.439392 0.211304
1.000000 0.439392 0.211304
1.000000 0.439392 0.211304
1.000000 0.510162 0.254517
1.000000 0.510162 0.254517
1.000000 0.510162 0.254517
1.000000 0.420441 0.045410
0.254120 0.212891 0.121490
0.179382 0.149841 0.085052
0.179382 0.149841 0.085052
0.179382 0.149841 0.085052
0.179382 0.149841 0.085052
0.179382 0.149841 0.085052
0.179382 0.149841 0.085052
0.179382 0.149841 0.085052
0.179382 0.149841 0.085052
0.119354 0.103638 0.067230
0.119354 0.103638 0.067230
0.119354 0.103638 0.067230
0.119354 0.103638 0.067230
0.119354 0.103638 0.067230
1.000000 0.505554 0.249573
1.000000 0.505554 0.249573
1.000000 0.505554 0.249573
1.000000 0.505554 0.249573
1.000000 0.505554 0.249573
1.000000 0.505554 0.249573
1.000000 0.505554 0.249573
1.000000 0.505554 0.249573
1.000000 0.546204 0.283417
1.000000 0.546204 0.283417
1.000000 0.546204 0.283417
1.000000 0.546204 0.283417
1.000000 0.546204 0.283417
1.000000 0.528320 0.268982
1.000000 0.528320 0.268982
1.000000 0.528320 0.268982
1.000000 0.528320 0.268982
0.119354 0.103638 0.067230
0.119354 0.103638 0.067230
0.119354 0.103638 0.067230
0.119354 0.103638 0.067230
0.119354 0.103638 0.067230
0.119354 0.103638 0.067230
0.119354 0.103638 0.067230
0.119354 0.103638 0.067230
0.119354 0.103638 0.067230
0.119354 0.103638 0.067230
0.119354 0.103638 0.067230
0.101562 0.087250 0.063446
0.101562 0.087250 0.063446
0.101562 0.087250 0.063446
0.101562 0.087250 0.063446
1.000000 0.463440 0.225800
1.000000 0.463440 0.225800
1.000000 0.463440 0.225800
1.000000 0.463440 0.225800
1.000000 0.463440 0.225800
1.000000 0.463440 0.225800
1.000000 0.463440 0.225800
1.000000 0.458710 0.220764
1.000000 0.458710 0.220764
1.000000 0.458710 0.220764
1.000000 0.439392 0.211304
1.000000 0.439392 0.211304
1.000000 0.439392 0.211304
1.000000 0.439392 0.211304
1.000000 0.444305 0.211060
1.000000 0.444305 0.211060
1.000000 0.444305 0.211060
0.101562 0.087250 0.063446
0.101562 0.087250 0.063446
0.101562 0.087250 0.063446
0.101562 0.087250 0.063446
0.101562 0.087250 0.063446
0.101562 0.087250 0.063446
0.101562 0.087250 0.063446
0.101562 0.087250 0.063446
0.101562 0.087250 0.063446
0.101562 0.087250 0.063446
0.101562 0.087250 0.063446
0.101562 0.087250 0.063446
0.101562 0.087250 0.063446
0.101562 0.087250 0.063446
0.101562 0.087250 0.063446
1.000000 0.434570 0.206299
1.000000 0.500916 0.249786
1.000000 0.500916 0.249786
1.000000 0.500916 0.249786
1.000000 0.500916 0.249786
1.000000 0.500916 0.249786
1.000000 0.500916 0.249786
1.000000 0.500916 0.249786
1.000000 0.439423 0.206024
1.000000 0.439423 0.206024
1.000000 0.439423 0.206024
1.000000 0.439423 0.206024
1.000000 0.439423 0.206024
1.000000 0.510162 0.254517
1.000000 0.510162 0.254517
1.000000 0.510162 0.254517
1.000000 0.439392 0.211304
0.101562 0.087250 0.063446
0.101562 0.087250 0.063446
0.101562 0.087250 0.063446
0.101562 0.087250 0.063446
0.101562 0.087250 0.063446
0.101562 0.087250 0.063446
0.101562 0.087250 0.063446
0.101562 0.087250 0.063446
0.101562 0.087250 0.063446
0.101562 0.087250 0.063446
0.101562 0.087250 0.063446
0.101562 0.087250 0.063446
0.101562 0.087250 0.063446
0.101562 0.087250 0.063446
0.101562 0.087250 0.063446
1.000000 0.444305 0.211060
1.000000 0.444305 0.211060
1.000000 0.519257 0.264313
1.000000 0.458710 0.220764
1.000000 0.458710 0.220764
1.000000 0.458710 0.220764
1.000000 0.458710 0.220764
1.000000 0.458710 0.220764
1.000000 0.458710 0.220764
1.000000 0.458710 0.220764
1.000000 0.458710 0.220764
1.000000 0.458710 0.220764
1.000000 0.458710 0.220764
1.000000 0.458710 0.220764
1.000000 0.458710 0.220764
1.000000 0.458710 0.220764
1.000000 0.458710 0.220764
0.107422 0.092621 0.064545
0.107422 0.092621 0.064545
0.107422 0.092621 0.064545
0.101562 0.087250 0.063446
0.101562 0.087250 0.063446
0.101562 0.087250 0.063446
0.101562 0.087250 0.063446
0.101562 0.087250 0.063446
0.101562 0.087250 0.063446
0.101562 0.087250 0.063446
0.101562 0.087250 0.063446
0.101562 0.087250 0.063446
0.101562 0.087250 0.063446
0.101562 0.087250 0.063446
0.101562 0.087250 0.063446
1.000000 0.523804 0.264099
1.000000 0.523804 0.264099
1.000000 0.523804 0.264099
1.000000 0.523804 0.264099
1.000000 0.505524 0.254761
1.000000 0.510162 0.254517
1.000000 0.510162 0.254517
1.000000 0.510162 0.254517
1.000000 0.510162 0.254517
1.000000 0.510162 0.254517
1.000000 0.510162 0.254517
1.000000 0.453949 0.221008
1.000000 0.453949 0.221008
1.000000 0.453949 0.221008
1.000000 0.453949 0.221008
1.000000 0.453949 0.221008
1.000000 0.453949 0.221008
0.149506 0.126617 0.072418
0.149506 0.126617 0.072418
0.149506 0.126617 0.072418
0.107361 0.098145 0.065826
0.107361 0.098145 0.065826
0.107361 0.098145 0.065826
0.107422 0.092621 0.064545
0.107422 0.092621 0.064545
0.107422 0.092621 0.064545
0.107422 0.092621 0.064545
0.107422 0.092621 0.064545
0.107422 0.092621 0.064545
0.107422 0.092621 0.064545
0.107422 0.092621 0.064545
0.107422 0.092621 0.064545
1.000000 0.505524 0.254761
1.000000 0.505524 0.254761
1.000000 0.505524 0.254761
1.000000 0.505524 0.254761
1.000000 0.505524 0.254761
1.000000 0.505524 0.254761
1.000000 0.514709 0.259399
1.000000 0.514709 0.259399
1.000000 0.514709 0.259399
1.000000 0.514709 0.259399
1.000000 0.514709 0.259399
1.000000 0.510162 0.254517
1.000000 0.510162 0.254517
1.000000 0.505524 0.254761
1.000000 0.505524 0.254761
1.000000 0.505524 0.254761
1.000000 0.505524 0.254761
0.243134 0.190002 0.099365
0.243134 0.190002 0.099365
0.243134 0.190002 0.099365
0.155579 0.126556 0.074890
0.155579 0.126556 0.074890
0.155579 0.126556 0.074890
0.155579 0.126556 0.074890
0.155579 0.126556 0.074890
0.155579 0.126556 0.074890
0.155579 0.126556 0.074890
0.155579 0.126556 0.074890
0.155579 0.126556 0.074890
0.155579 0.126556 0.074890
0.113342 0.098053 0.065796
0.113342 0.098053 0.065796
1.000000 0.514709 0.259399
1.000000 0.505554 0.249573
1.000000 0.505554 0.249573
1.000000 0.505554 0.249573
1.000000 0.505554 0.249573
1.000000 0.505554 0.249573
1.000000 0.505554 0.249573
1.000000 0.496338 0.244843
1.000000 0.496338 0.244843
1.000000 0.496338 0.244843
1.000000 0.496338 0.244843
1.000000 0.496338 0.244843
1.000000 0.496338 0.244843
1.000000 0.496338 0.244843
1.000000 0.491730 0.239929
1.000000 0.491730 0.239929
1.000000 0.491730 0.239929
0.063354 0.061249 0.060577
0.401306 0.304565 0.157257
0.401306 0.304565 0.157257
0.259949 0.201324 0.106049
0.259949 0.201324 0.106049
0.259949 0.201324 0.106049
0.259949 0.201324 0.106049
0.259949 0.201324 0.106049
0.259949 0.201324 0.106049
0.259949 0.201324 0.106049
0.161560 0.132324 0.074524
0.161560 0.132324 0.074524
0.161560 0.132324 0.074524
0.161560 0.132324 0.074524
0.161560 0.132324 0.074524
1.000000 0.424774 0.201477
1.000000 0.424774 0.201477
1.000000 0.491730 0.239929
1.000000 0.491730 0.239929
1.000000 0.491730 0.239929
1.000000 0.491730 0.239929
1.000000 0.491730 0.239929
1.000000 0.491730 0.239929
1.000000 0.491730 0.239929
1.000000 0.491730 0.239929
1.000000 0.491730 0.239929
1.000000 0.491730 0.239929
1.000000 0.491730 0.239929
1.000000 0.491730 0.239929
1.000000 0.491730 0.239929
1.000000 0.491730 0.239929
1.000000 0.491730 0.239929
0.101562 0.087250 0.063446
0.101562 0.087250 0.063446
0.101562 0.087250 0.063446
1.000000 0.487732 0.067932
1.000000 0.483032 0.068726
1.000000 0.483032 0.060394
0.430603 0.325195 0.173828
0.430603 0.325195 0.173828
0.281982 0.218201 0.112701
0.281982 0.218201 0.112701
0.281982 0.218201 0.112701
0.281982 0.218201 0.112701
0.281982 0.218201 0.112701
0.281982 0.218201 0.112701
0.281982 0.218201 0.112701
1.000000 0.424805 0.196228
1.000000 0.424805 0.196228
1.000000 0.424805 0.196228
1.000000 0.491730 0.239929
1.000000 0.491730 0.239929
1.000000 0.491730 0.239929
1.000000 0.491730 0.239929
1.000000 0.491730 0.239929
1.000000 0.491730 0.239929
1.000000 0.491730 0.239929
1.000000 0.491730 0.239929
1.000000 0.491730 0.239929
1.000000 0.491730 0.239929
1.000000 0.491730 0.239929
1.000000 0.491730 0.239929
1.000000 0.491730 0.239929
1.000000 0.491730 0.239929
0.101562 0.087250 0.063446
0.101562 0.087250 0.063446
0.101562 0.087250 0.063446
0.101562 0.087250 0.063446
0.101562 0.087250 0.063446
0.101562 0.087250 0.063446
0.101562 0.087250 0.063446
0.101562 0.087250 0.063446
0.101562 0.087250 0.063446
0.454437 0.350861 0.190643
0.454529 0.345673 0.190857
0.454529 0.345673 0.190857
0.303558 0.234833 0.123657
0.303558 0.234833 0.123657
0.303558 0.234833 0.123657
1.000000 0.487061 0.240143
1.000000 0.487061 0.240143
1.000000 0.487061 0.240143
1.000000 0.487061 0.240143
1.000000 0.487061 0.240143
1.000000 0.444305 0.211060
1.000000 0.444305 0.211060
1.000000 0.444305 0.211060
1.000000 0.444305 0.211060
1.000000 0.510162 0.254517
1.000000 0.510162 0.254517
1.000000 0.444305 0.211060
1.000000 0.444305 0.211060
1.000000 0.444305 0.211060
1.000000 0.444305 0.211060
1.000000 0.444305 0.211060
1.000000 0.444305 0.211060
0.366028 0.294373 0.163177
0.366028 0.294373 0.163177
0.366089 0.288940 0.163483
0.366089 0.288940 0.163483
0.366089 0.288940 0.163483
0.366089 0.288940 0.163483
0.366089 0.288940 0.163483
0.101562 0.087250 0.063446
0.101562 0.087250 0.063446
0.101562 0.087250 0.063446
0.366089 0.288940 0.163483
0.366089 0.288940 0.163483
0.477936 0.365814 0.203369
0.477936 0.365814 0.203369
0.324738 0.251343 0.130920
1.000000 0.491730 0.239929
1.000000 0.491730 0.239929
1.000000 0.491730 0.239929
1.000000 0.491730 0.239929
1.000000 0.491730 0.239929
1.000000 0.419830 0.196472
1.000000 0.424774 0.201477
1.000000 0.424774 0.201477
1.000000 0.424774 0.201477
1.000000 0.424774 0.201477
1.000000 0.424774 0.201477
1.000000 0.424774 0.201477
1.000000 0.429688 0.201233
1.000000 0.429688 0.201233
1.000000 0.429688 0.201233
1.000000 0.429688 0.201233
1.000000 0.429688 0.201233
1.000000 0.464142 0.046204
1.000000 0.464142 0.046204
1.000000 0.464142 0.046204
1.000000 0.459381 0.047180
1.000000 0.459381 0.047180
1.000000 0.464142 0.055267
1.000000 0.464142 0.055267
1.000000 0.464142 0.055267
1.000000 0.464142 0.055267
1.000000 0.468842 0.054382
1.000000 0.468842 0.054382
1.000000 0.468842 0.054382
1.000000 0.459381 0.056122
1.000000 0.459381 0.056122
1.000000 0.459381 0.047180
0.858429 0.358215 0.141327
0.880096 0.357635 0.139648
0.880096 0.357635 0.139648
0.880096 0.357635 0.139648
0.880096 0.357635 0.139648
0.880096 0.357635 0.139648
0.880096 0.357635 0.139648
0.854095 0.353149 0.136719
0.854095 0.353149 0.136719
0.854095 0.353149 0.136719
0.854095 0.353149 0.136719
0.854095 0.353149 0.136719
0.854095 0.353149 0.136719
0.854095 0.353149 0.136719
0.845367 0.353363 0.137390
0.845367 0.353363 0.137390
0.845367 0.353363 0.137390
1.000000 0.454651 0.038452
1.000000 0.454651 0.038452
1.000000 0.449768 0.039520
1.000000 0.449768 0.039520
1.000000 0.449768 0.039520
1.000000 0.449768 0.039520
1.000000 0.449768 0.039520
1.000000 0.449768 0.039520
1.000000 0.449768 0.039520
1.000000 0.449768 0.039520
1.000000 0.449768 0.039520
1.000000 0.454651 0.038452
1.000000 0.449768 0.039520
1.000000 0.449768 0.039520
1.000000 0.449768 0.039520
0.633057 0.261780 0.117065
0.633057 0.261780 0.117065
0.633057 0.261780 0.117065
0.633057 0.261780 0.117065
0.641205 0.272675 0.120697
0.641205 0.272675 0.120697
0.641205 0.272675 0.120697
0.641205 0.272675 0.120697
0.641205 0.272675 0.120697
0.641205 0.272675 0.120697
0.641205 0.272675 0.120697
0.665497 0.288635 0.127991
0.665497 0.288635 0.127991
0.665497 0.288635 0.127991
0.661469 0.288757 0.123413
0.661469 0.288757 0.123413
0.661469 0.288757 0.123413
1.000000 0.537750 0.154999
1.000000 0.533264 0.155426
1.000000 0.533264 0.155426
1.000000 0.533264 0.155426
1.000000 0.564178 0.214539
1.000000 0.564178 0.214539
1.000000 0.559753 0.214813
1.000000 0.559753 0.214813
1.000000 0.559753 0.214813
1.000000 0.559753 0.214813
1.000000 0.559753 0.214813
1.000000 0.559753 0.214813
1.000000 0.542084 0.199799
1.000000 0.542084 0.199799
1.000000 0.542084 0.194366
0.661530 0.283203 0.118896
0.661530 0.283203 0.118896
0.661560 0.277771 0.114380
0.661560 0.277771 0.114380
0.653442 0.272369 0.115234
0.653442 0.272369 0.115234
0.653442 0.272369 0.115234
0.653442 0.272369 0.115234
0.653442 0.272369 0.115234
0.649475 0.266968 0.115784
0.649475 0.266968 0.115784
0.649475 0.266968 0.115784
0.649475 0.266968 0.115784
0.649475 0.266968 0.115784
0.649475 0.266968 0.115784
0.649475 0.266968 0.115784
0.641235 0.267212 0.111572
1.000000 0.277283 0.056854
1.000000 0.265717 0.050385
1.000000 0.265717 0.050385
1.000000 0.265717 0.050385
1.000000 0.265717 0.050385
1.000000 0.265717 0.050385
1.000000 0.425446 0.034943
1.000000 0.425446 0.034943
1.000000 0.425446 0.034943
1.000000 0.425446 0.034943
1.000000 0.449768 0.049103
1.000000 0.449768 0.049103
1.000000 0.449768 0.049103
1.000000 0.444977 0.050018
1.000000 0.454620 0.056976
0.665558 0.277649 0.118958
0.669556 0.277557 0.113892
0.669556 0.277557 0.113892
0.669556 0.277557 0.113892
0.669556 0.277557 0.113892
0.669556 0.277557 0.113892
0.669556 0.277557 0.113892
0.474976 0.197174 0.081848
0.474976 0.197174 0.081848
0.474976 0.197174 0.081848
0.474976 0.197174 0.081848
0.474976 0.197174 0.081848
0.474976 0.197174 0.081848
0.474976 0.197174 0.081848
0.474976 0.197174 0.081848
0.474976 0.197174 0.081848
0.474976 0.197174 0.081848
1.000000 0.410553 0.019501
1.000000 0.496948 0.096283
1.000000 0.496948 0.096283
1.000000 0.496948 0.089203
1.000000 0.496948 0.089203
1.000000 0.496948 0.089203
1.000000 0.496948 0.089203
1.000000 0.496948 0.089203
1.000000 0.496948 0.089203
1.000000 0.496948 0.089203
1.000000 0.405609 0.020477
1.000000 0.405609 0.020477
1.000000 0.405609 0.020477
1.000000 0.405609 0.020477
1.000000 0.405609 0.020477
0.525452 0.213379 0.086060
0.502777 0.208160 0.087738
0.502777 0.208160 0.087738
0.502777 0.208160 0.087738
0.502777 0.208160 0.087738
0.502777 0.208160 0.087738
0.502777 0.208160 0.087738
0.502777 0.208160 0.087738
0.520935 0.213501 0.086334
0.520935 0.213501 0.086334
0.520935 0.213501 0.086334
0.520935 0.213501 0.086334
0.520935 0.213501 0.086334
0.520935 0.213501 0.086334
1.000000 0.500916 0.249786
1.000000 0.500916 0.249786
1.000000 0.500916 0.249786
1.000000 0.415527 0.036987
1.000000 0.415527 0.036987
1.000000 0.415527 0.036987
1.000000 0.430328 0.052612
1.000000 0.430328 0.052612
1.000000 0.430328 0.052612
1.000000 0.425415 0.053436
1.000000 0.425415 0.053436
1.000000 0.425415 0.053436
1.000000 0.473480 0.112366
1.000000 0.473480 0.112366
1.000000 0.473480 0.112366
1.000000 0.473480 0.112366
1.000000 0.473480 0.105774
1.000000 0.482849 0.130157
1.000000 0.429688 0.201233
1.000000 0.429688 0.201233
1.000000 0.424805 0.196228
1.000000 0.424805 0.196228
1.000000 0.424805 0.196228
1.000000 0.434570 0.206299
1.000000 0.434570 0.206299
1.000000 0.491699 0.245087
1.000000 0.491699 0.245087
1.000000 0.491699 0.245087
1.000000 0.491699 0.245087
1.000000 0.434601 0.200989
1.000000 0.434601 0.200989
1.000000 0.434601 0.200989
1.000000 0.500916 0.249786
1.000000 0.500916 0.249786
1.000000 0.500916 0.249786
1.000000 0.444916 0.074493
1.000000 0.444916 0.074493
1.000000 0.444916 0.074493
1.000000 0.444916 0.066742
1.000000 0.459259 0.100830
1.000000 0.459259 0.100830
1.000000 0.459259 0.100830
1.000000 0.454498 0.101379
1.000000 0.454498 0.101379
1.000000 0.482819 0.136200
1.000000 0.482819 0.136200
1.000000 0.482819 0.136200
1.000000 0.482819 0.136200
1.000000 0.482819 0.136200
1.000000 0.482819 0.136200
1.000000 0.514679 0.264526
1.000000 0.514679 0.264526
1.000000 0.514679 0.264526
1.000000 0.444305 0.211060
1.000000 0.496338 0.250000
1.000000 0.500916 0.249786
1.000000 0.500916 0.249786
1.000000 0.500916 0.249786
1.000000 0.500916 0.249786
1.000000 0.496338 0.244843
1.000000 0.496338 0.244843
1.000000 0.496338 0.244843
1.000000 0.496338 0.244843
1.000000 0.496338 0.244843
1.000000 0.496338 0.244843
1.000000 0.496338 0.244843
1.000000 0.487030 0.245300
1.000000 0.464081 0.079163
