projects/GameEngine/res/luts/DesertLUT.CUBE
#Created by: Adobe Photoshop Export Color Lookup Plugin
TITLE "DesertLUT"
#LUT size
LUT_3D_SIZE 5
#data domain
#LUT data points
DOMAIN_MIN 0.000000 0.000000 0.000000
DOMAIN_MAX 0.903226 0.903226 0.903226
1.000000 0.559479 0.292938
1.000000 0.581238 0.312073
1.000000 0.510162 0.254517
0.837128 0.284088 0.015320
0.824249 0.278870 0.018524
1.000000 0.505554 0.249573
1.000000 0.453949 0.221008
1.000000 0.477600 0.240601
0.101562 0.087250 0.063446
1.000000 0.405548 0.038971
1.000000 0.523804 0.264099
1.000000 0.510162 0.254517
1.000000 0.453949 0.221008
0.107361 0.098145 0.065826
0.107422 0.092621 0.064545
0.858429 0.358215 0.141327
0.854095 0.353149 0.136719
0.845367 0.353363 0.137390
1.000000 0.449768 0.039520
1.000000 0.454651 0.038452
1.000000 0.410065 0.192078
1.000000 0.472961 0.230499
1.000000 0.496338 0.250000
1.000000 0.242126 0.036255
1.000000 0.236084 0.036896
1.000000 0.559479 0.292938
1.000000 0.581238 0.312073
1.000000 0.510162 0.254517
0.845764 0.283813 0.013611
0.837128 0.284088 0.020874
1.000000 0.505554 0.249573
1.000000 0.482361 0.240387
1.000000 0.487061 0.240143
0.101562 0.087250 0.063446
0.101562 0.087250 0.063446
1.000000 0.519257 0.259186
1.000000 0.510162 0.254517
1.000000 0.519257 0.264313
0.101562 0.087250 0.063446
0.101562 0.087250 0.063446
0.785095 0.360016 0.151520
0.810730 0.369629 0.159607
0.810730 0.369629 0.159607
1.000000 0.449768 0.039520
1.000000 0.444977 0.040588
1.000000 0.472961 0.230499
1.000000 0.472961 0.230499
1.000000 0.472961 0.230499
1.000000 0.236084 0.036896
1.000000 0.236115 0.028473
1.000000 0.458710 0.220764
1.000000 0.449066 0.221252
1.000000 0.444275 0.216278
0.858826 0.288849 0.021729
0.850067 0.294739 0.016876
1.000000 0.505554 0.249573
1.000000 0.482361 0.240387
1.000000 0.487061 0.240143
0.101562 0.087250 0.063446
0.101562 0.087250 0.063446
1.000000 0.519257 0.259186
1.000000 0.510162 0.254517
1.000000 0.519257 0.264313
0.101562 0.087250 0.063446
0.101562 0.087250 0.063446
0.832489 0.348480 0.143799
0.828125 0.353790 0.143829
0.806549 0.354309 0.150482
1.000000 0.444977 0.040588
1.000000 0.444977 0.040588
1.000000 0.472961 0.230499
1.000000 0.410065 0.192078
1.000000 0.472961 0.230499
1.000000 0.236084 0.036896
1.000000 0.236115 0.028473
1.000000 0.458710 0.220764
1.000000 0.449066 0.221252
1.000000 0.444275 0.216278
0.871735 0.299500 0.011688
0.863068 0.299774 0.019409
1.000000 0.458710 0.220764
1.000000 0.487030 0.245300
1.000000 0.444305 0.211060
0.125336 0.109283 0.068970
0.101562 0.087250 0.063446
1.000000 0.519257 0.259186
1.000000 0.510162 0.254517
1.000000 0.453949 0.221008
0.107422 0.092621 0.064545
1.000000 0.492401 0.058624
0.828186 0.343353 0.139252
0.823883 0.343475 0.139526
0.738983 0.308502 0.122009
1.000000 0.444977 0.040588
1.000000 0.440094 0.031769
0.996765 0.410187 0.192352
1.000000 0.410065 0.192078
1.000000 0.410065 0.192078
0.885223 0.205048 0.135864
1.000000 0.385345 0.007294
1.000000 0.453949 0.221008
1.000000 0.444275 0.216278
1.000000 0.453949 0.221008
0.893311 0.336578 0.042938
0.871765 0.294006 0.012451
1.000000 0.458710 0.220764
1.000000 0.532806 0.273895
1.000000 0.444305 0.211060
0.185333 0.155609 0.087921
0.125336 0.109283 0.068970
1.000000 0.505524 0.254761
1.000000 0.514709 0.259399
1.000000 0.453949 0.221008
0.237427 0.190094 0.099457
0.155579 0.126556 0.074890
0.730652 0.308655 0.137665
0.673492 0.293823 0.127228
0.689575 0.304260 0.130615
1.000000 0.533386 0.111938
1.000000 0.559753 0.214813
1.000000 0.472961 0.230499
1.000000 0.472961 0.230499
1.000000 0.410065 0.192078
0.880890 0.198944 0.136414
1.000000 0.385345 0.007294
