projects/GameEngine/res/luts/DesertLUT.CUBE
#Created by: Adobe Photoshop Export Color Lookup Plugin
TITLE "DesertLUT"
#LUT size
LUT_3D_SIZE 8
#data domain
#LUT data points
DOMAIN_MIN 0.000000 0.000000 0.000000
DOMAIN_MAX 0.903226 0.903226 0.903226
1.000000 0.559479 0.292938
1.000000 0.458710 0.220764
1.000000 0.581238 0.312073
1.000000 0.449066 0.221252
1.000000 0.510162 0.254517
0.837128 0.284088 0.015320
0.845428 0.337952 0.051727
0.824249 0.278870 0.018524
1.000000 0.468170 0.230743
1.000000 0.523804 0.264099
1.000000 0.519257 0.259186
1.000000 0.505524 0.254761
1.000000 0.439392 0.211304
1.000000 0.395416 0.058197
1.000000 0.390350 0.050598
1.000000 0.343658 0.006653
1.000000 0.463440 0.225800
1.000000 0.487030 0.245300
1.000000 0.532806 0.273895
1.000000 0.444305 0.211060
1.000000 0.444305 0.211060
1.000000 0.395538 0.013855
1.000000 0.473572 0.077789
0.491669 0.385803 0.221100
1.000000 0.434570 0.206299
1.000000 0.500916 0.249786
1.000000 0.439423 0.206024
1.000000 0.439423 0.206024
1.000000 0.439392 0.211304
0.101562 0.087250 0.063446
0.101562 0.087250 0.063446
0.101562 0.087250 0.063446
1.000000 0.514709 0.259399
1.000000 0.505554 0.249573
1.000000 0.496338 0.244843
1.000000 0.496338 0.244843
1.000000 0.491730 0.239929
0.259949 0.201324 0.106049
0.259949 0.201324 0.106049
0.161560 0.132324 0.074524
1.000000 0.491730 0.239929
1.000000 0.491730 0.239929
1.000000 0.424774 0.201477
1.000000 0.429688 0.201233
1.000000 0.429688 0.201233
1.000000 0.459381 0.047180
1.000000 0.464142 0.055267
1.000000 0.468842 0.054382
0.665558 0.277649 0.118958
0.669556 0.277557 0.113892
0.474976 0.197174 0.081848
0.474976 0.197174 0.081848
0.474976 0.197174 0.081848
1.000000 0.496948 0.089203
1.000000 0.496948 0.089203
1.000000 0.405609 0.020477
1.000000 0.410065 0.192078
1.000000 0.472961 0.230499
1.000000 0.472961 0.230499
1.000000 0.477661 0.230286
1.000000 0.487061 0.240143
1.000000 0.242126 0.036255
1.000000 0.236084 0.036896
1.000000 0.236084 0.036896
1.000000 0.559479 0.292938
1.000000 0.458710 0.220764
1.000000 0.581238 0.312073
1.000000 0.449066 0.221252
1.000000 0.510162 0.254517
0.841461 0.283936 0.014465
0.837128 0.284088 0.015320
0.837097 0.289581 0.020172
1.000000 0.519257 0.264313
1.000000 0.523804 0.264099
1.000000 0.519257 0.259186
1.000000 0.505524 0.254761
1.000000 0.439423 0.206024
1.000000 0.395386 0.073578
1.000000 0.380127 0.052155
1.000000 0.338348 0.000092
1.000000 0.463440 0.225800
1.000000 0.532806 0.273895
1.000000 0.532806 0.273895
1.000000 0.444305 0.211060
1.000000 0.439392 0.211304
0.125397 0.103577 0.067169
1.000000 0.390442 0.006378
0.491669 0.385803 0.225830
1.000000 0.500916 0.249786
1.000000 0.500916 0.249786
1.000000 0.500916 0.249786
1.000000 0.510162 0.254517
1.000000 0.439392 0.211304
0.101562 0.087250 0.063446
0.101562 0.087250 0.063446
0.101562 0.087250 0.063446
1.000000 0.514709 0.259399
1.000000 0.424774 0.201477
1.000000 0.491730 0.239929
1.000000 0.491730 0.239929
1.000000 0.491730 0.239929
0.259857 0.207123 0.105713
0.161560 0.132324 0.077209
0.161560 0.132324 0.077209
1.000000 0.491730 0.239929
1.000000 0.491730 0.239929
1.000000 0.424774 0.201477
1.000000 0.424774 0.201477
1.000000 0.429688 0.201233
1.000000 0.464142 0.055267
1.000000 0.459381 0.047180
1.000000 0.459381 0.056122
0.665558 0.277649 0.118958
0.470276 0.197266 0.086121
0.470276 0.197266 0.086121
0.474976 0.197144 0.085876
0.474976 0.197174 0.081848
1.000000 0.496948 0.089203
1.000000 0.496948 0.089203
1.000000 0.405609 0.020477
1.000000 0.410065 0.192078
1.000000 0.410065 0.192078
1.000000 0.472961 0.230499
1.000000 0.472961 0.230499
1.000000 0.487061 0.240143
1.000000 0.242126 0.036255
1.000000 0.236084 0.036896
1.000000 0.236115 0.028473
1.000000 0.559479 0.292938
1.000000 0.453949 0.221008
1.000000 0.449066 0.221252
1.000000 0.444275 0.216278
1.000000 0.444275 0.216278
0.850128 0.283661 0.012756
0.845764 0.283813 0.013611
0.837128 0.284088 0.020874
1.000000 0.519257 0.264313
1.000000 0.519257 0.259186
1.000000 0.510162 0.254517
1.000000 0.505524 0.254761
1.000000 0.439423 0.206024
1.000000 0.395386 0.073578
1.000000 0.400391 0.087067
1.000000 0.369812 0.045227
1.000000 0.463440 0.225800
1.000000 0.532806 0.273895
1.000000 0.444305 0.211060
1.000000 0.444305 0.211060
1.000000 0.439392 0.211304
0.101562 0.087250 0.063446
0.101562 0.087250 0.063446
0.125397 0.103577 0.067169
1.000000 0.500916 0.249786
1.000000 0.439392 0.211304
1.000000 0.439392 0.211304
1.000000 0.510162 0.254517
1.000000 0.439392 0.211304
0.101562 0.087250 0.063446
0.101562 0.087250 0.063446
0.101562 0.087250 0.063446
1.000000 0.491730 0.239929
1.000000 0.424774 0.201477
1.000000 0.491730 0.239929
1.000000 0.491730 0.239929
1.000000 0.491730 0.239929
0.161560 0.132324 0.077209
0.113342 0.098053 0.065796
0.113342 0.098053 0.065796
1.000000 0.491730 0.239929
1.000000 0.491730 0.239929
1.000000 0.424774 0.201477
1.000000 0.424774 0.201477
1.000000 0.424774 0.201477
1.000000 0.464142 0.055267
1.000000 0.464142 0.055267
1.000000 0.459381 0.047180
0.669464 0.288574 0.122925
0.474945 0.203033 0.085602
0.474976 0.197144 0.085876
0.474976 0.197144 0.085876
0.474976 0.197144 0.085876
1.000000 0.496948 0.089203
1.000000 0.405609 0.020477
1.000000 0.405609 0.020477
1.000000 0.472961 0.230499
1.000000 0.410065 0.192078
1.000000 0.472961 0.230499
1.000000 0.472961 0.230499
1.000000 0.477661 0.230286
1.000000 0.236084 0.036896
1.000000 0.236084 0.036896
1.000000 0.236115 0.028473
1.000000 0.458710 0.220764
1.000000 0.453949 0.221008
1.000000 0.449066 0.221252
1.000000 0.444275 0.216278
1.000000 0.444275 0.216278
0.858856 0.283356 0.016541
0.850098 0.289124 0.023499
0.850067 0.294739 0.016876
1.000000 0.519257 0.264313
1.000000 0.519257 0.259186
1.000000 0.510162 0.254517
1.000000 0.439392 0.211304
1.000000 0.505554 0.249573
1.000000 0.425232 0.110748
1.000000 0.375000 0.044403
1.000000 0.369873 0.027008
1.000000 0.463440 0.225800
1.000000 0.444275 0.216278
1.000000 0.444305 0.211060
1.000000 0.444305 0.211060
1.000000 0.439392 0.211304
0.101562 0.087250 0.063446
0.101562 0.087250 0.063446
0.101562 0.087250 0.063446
1.000000 0.434570 0.206299
1.000000 0.439392 0.211304
1.000000 0.439392 0.211304
1.000000 0.510162 0.254517
1.000000 0.444305 0.211060
0.113342 0.098053 0.065796
1.000000 0.496948 0.096283
1.000000 0.487701 0.075684
1.000000 0.491730 0.239929
1.000000 0.424774 0.201477
1.000000 0.491730 0.239929
1.000000 0.491730 0.239929
1.000000 0.491730 0.239929
0.113342 0.098053 0.065796
0.113342 0.098053 0.065796
0.101562 0.087250 0.063446
1.000000 0.491730 0.239929
1.000000 0.491730 0.239929
1.000000 0.424774 0.201477
1.000000 0.424774 0.201477
1.000000 0.424774 0.201477
1.000000 0.492371 0.074951
1.000000 0.459381 0.056122
1.000000 0.459381 0.047180
0.474945 0.203033 0.085602
0.474945 0.203033 0.085602
0.479645 0.202911 0.085327
0.479645 0.202911 0.085327
0.479645 0.202911 0.085327
1.000000 0.496948 0.089203
1.000000 0.410553 0.019501
1.000000 0.405609 0.020477
1.000000 0.472961 0.230499
1.000000 0.410065 0.192078
1.000000 0.472961 0.230499
1.000000 0.410065 0.192078
1.000000 0.472961 0.230499
1.000000 0.236084 0.036896
1.000000 0.236084 0.036896
1.000000 0.236115 0.028473
1.000000 0.458710 0.220764
1.000000 0.453949 0.221008
1.000000 0.449066 0.221252
1.000000 0.444275 0.216278
1.000000 0.444275 0.216278
0.863098 0.294312 0.014252
0.858826 0.288849 0.021729
0.854370 0.305542 0.026703
1.000000 0.514709 0.259399
1.000000 0.510162 0.254517
1.000000 0.510162 0.254517
1.000000 0.439392 0.211304
1.000000 0.505554 0.249573
1.000000 0.435028 0.116150
1.000000 0.425140 0.129150
1.000000 0.430145 0.110291
1.000000 0.463440 0.225800
1.000000 0.444305 0.211060
1.000000 0.444305 0.211060
1.000000 0.439392 0.211304
1.000000 0.439392 0.211304
0.101562 0.087250 0.063446
0.101562 0.087250 0.063446
0.101562 0.087250 0.063446
1.000000 0.434570 0.206299
1.000000 0.439392 0.211304
1.000000 0.519257 0.264313
1.000000 0.449127 0.210815
1.000000 0.444305 0.211060
1.000000 0.555389 0.193359
1.000000 0.496948 0.096283
1.000000 0.519775 0.126434
1.000000 0.424774 0.201477
1.000000 0.491730 0.239929
1.000000 0.491730 0.239929
1.000000 0.491730 0.239929
1.000000 0.491730 0.239929
0.113342 0.098053 0.065796
0.101562 0.087250 0.063446
0.101562 0.087250 0.063446
1.000000 0.429688 0.201233
1.000000 0.491730 0.239929
1.000000 0.491730 0.239929
1.000000 0.424774 0.201477
0.923157 0.422089 0.185974
1.000000 0.487701 0.075684
1.000000 0.464142 0.046204
1.000000 0.449768 0.039520
0.474945 0.203033 0.085602
0.484283 0.202789 0.085052
0.484283 0.202789 0.085052
0.484283 0.202789 0.085052
0.484283 0.202789 0.085052
1.000000 0.410553 0.019501
1.000000 0.405609 0.020477
1.000000 0.468811 0.070984
1.000000 0.472961 0.230499
1.000000 0.472961 0.230499
1.000000 0.410065 0.192078
1.000000 0.410065 0.192078
1.000000 0.472961 0.230499
1.000000 0.236084 0.036896
1.000000 0.236084 0.036896
1.000000 0.236115 0.028473
1.000000 0.458710 0.220764
1.000000 0.453949 0.221008
1.000000 0.449097 0.216034
1.000000 0.449097 0.216034
1.000000 0.453949 0.221008
0.871674 0.310425 0.022430
0.863129 0.288727 0.014954
0.863098 0.294281 0.020142
1.000000 0.514709 0.259399
1.000000 0.510162 0.254517
1.000000 0.505524 0.254761
1.000000 0.505554 0.249573
1.000000 0.505554 0.249573
1.000000 0.425385 0.061829
1.000000 0.435028 0.116150
1.000000 0.390289 0.066772
1.000000 0.444305 0.211060
1.000000 0.444305 0.211060
1.000000 0.439392 0.211304
1.000000 0.439392 0.211304
1.000000 0.439392 0.211304
0.101562 0.087250 0.063446
0.101562 0.087250 0.063446
0.101562 0.087250 0.063446
1.000000 0.434570 0.206299
1.000000 0.519257 0.264313
1.000000 0.519257 0.264313
1.000000 0.449127 0.210815
1.000000 0.444305 0.211060
1.000000 0.555634 0.115845
0.208740 0.167114 0.090363
0.208740 0.167114 0.090363
1.000000 0.424774 0.201477
1.000000 0.491730 0.239929
1.000000 0.491730 0.239929
1.000000 0.491730 0.239929
1.000000 0.491730 0.239929
0.101562 0.087250 0.063446
0.101562 0.087250 0.063446
0.101562 0.087250 0.063446
1.000000 0.496338 0.250000
1.000000 0.491730 0.239929
0.923157 0.422089 0.185974
0.923157 0.422089 0.185974
0.832214 0.384399 0.167786
1.000000 0.528961 0.098877
1.000000 0.454651 0.038452
1.000000 0.449768 0.039520
0.474945 0.203003 0.089600
0.474945 0.203033 0.085602
0.484283 0.202789 0.085052
0.484283 0.202789 0.085052
0.484283 0.202789 0.085052
1.000000 0.410553 0.028564
1.000000 0.405609 0.020477
1.000000 0.415558 0.027588
0.996765 0.410187 0.192352
1.000000 0.472961 0.230499
1.000000 0.410065 0.192078
1.000000 0.410065 0.192078
1.000000 0.410065 0.192078
0.885223 0.205048 0.135864
0.880890 0.198944 0.136414
1.000000 0.390442 0.006378
1.000000 0.453949 0.221008
1.000000 0.453949 0.221008
1.000000 0.444275 0.216278
1.000000 0.449097 0.216034
1.000000 0.453979 0.215790
0.880402 0.304718 0.015076
0.871765 0.294006 0.012451
0.863129 0.288727 0.014954
1.000000 0.514709 0.259399
1.000000 0.505524 0.254761
1.000000 0.505524 0.254761
1.000000 0.505554 0.249573
1.000000 0.439423 0.206024
1.000000 0.449432 0.150696
1.000000 0.425385 0.061829
1.000000 0.425232 0.110748
1.000000 0.444305 0.211060
1.000000 0.439392 0.211304
1.000000 0.439392 0.211304
1.000000 0.439392 0.211304
1.000000 0.439392 0.211304
0.101562 0.087250 0.063446
0.101562 0.087250 0.063446
0.101562 0.087250 0.063446
1.000000 0.444305 0.211060
1.000000 0.519257 0.264313
1.000000 0.519257 0.264313
1.000000 0.449127 0.210815
1.000000 0.458710 0.220764
0.143494 0.120758 0.072784
0.143494 0.120758 0.072784
0.137421 0.120819 0.072845
1.000000 0.424774 0.201477
1.000000 0.491730 0.239929
1.000000 0.491730 0.239929
1.000000 0.491730 0.239929
1.000000 0.491730 0.239929
0.101562 0.087250 0.063446
0.101562 0.087250 0.063446
0.101562 0.087250 0.063446
1.000000 0.496338 0.250000
0.923157 0.422089 0.185974
0.832275 0.379364 0.162903
0.827972 0.374390 0.158264
0.827972 0.374390 0.158264
1.000000 0.459412 0.037354
1.000000 0.449768 0.039520
1.000000 0.449768 0.039520
0.474945 0.203003 0.089600
0.474945 0.203003 0.089600
0.474945 0.203003 0.089600
0.484253 0.208618 0.088806
0.484253 0.208618 0.088806
1.000000 0.410553 0.019501
1.000000 0.420471 0.035980
1.000000 0.415558 0.027588
0.996765 0.410187 0.192352
1.000000 0.472961 0.230499
1.000000 0.410065 0.192078
1.000000 0.410065 0.192078
1.000000 0.410065 0.192078
0.885223 0.205048 0.135864
1.000000 0.390442 0.006378
1.000000 0.385345 0.007294
1.000000 0.453949 0.221008
1.000000 0.453949 0.221008
1.000000 0.444275 0.216278
1.000000 0.449097 0.216034
1.000000 0.453979 0.215790
0.893311 0.336578 0.042938
0.876099 0.293854 0.017456
0.871765 0.294006 0.012451
1.000000 0.510162 0.254517
1.000000 0.505524 0.254761
1.000000 0.505554 0.249573
1.000000 0.505554 0.249573
1.000000 0.439423 0.206024
1.000000 0.348969 0.000000
1.000000 0.348969 0.000000
1.000000 0.343689 0.000000
1.000000 0.444305 0.211060
1.000000 0.439392 0.211304
1.000000 0.439392 0.211304
1.000000 0.439392 0.211304
1.000000 0.439392 0.211304
0.119354 0.103638 0.067230
0.119354 0.103638 0.067230
0.119354 0.103638 0.067230
1.000000 0.444305 0.211060
1.000000 0.519257 0.264313
1.000000 0.458710 0.220764
1.000000 0.458710 0.220764
1.000000 0.458710 0.220764
0.107422 0.092621 0.064545
0.107422 0.092621 0.064545
0.107422 0.092621 0.064545
1.000000 0.424774 0.201477
1.000000 0.491730 0.239929
1.000000 0.491730 0.239929
1.000000 0.491730 0.239929
1.000000 0.491730 0.239929
0.101562 0.087250 0.063446
0.101562 0.087250 0.063446
0.425751 0.325287 0.173981
0.923248 0.412201 0.181244
0.901825 0.367340 0.142822
0.897430 0.367462 0.143158
0.897430 0.367462 0.143158
0.919189 0.372070 0.141113
1.000000 0.454651 0.038452
1.000000 0.546783 0.116943
1.000000 0.449768 0.039520
0.502777 0.208160 0.087738
0.502777 0.208160 0.087738
0.520935 0.213501 0.086334
0.520935 0.213501 0.086334
1.000000 0.500916 0.249786
1.000000 0.430328 0.052612
1.000000 0.425415 0.053436
1.000000 0.482849 0.130157
1.000000 0.472961 0.230499
0.996765 0.410187 0.192352
1.000000 0.472961 0.230499
1.000000 0.410065 0.192078
1.000000 0.410065 0.192078
0.885223 0.205048 0.135864
1.000000 0.390442 0.006378
1.000000 0.385345 0.007294
